lut/AlexaV3_EI0250_WYSIWYG_EE_nuke1d.cube
# Alexa conversion LUT, lin2video. Full in/full out.
# created by alexalutconv (2.02)

LUT_1D_SIZE 4096
0.000000 0.000000 0.000000
0.000000 0.000000 0.000000
0.000000 0.000000 0.000000
0.000000 0.000000 0.000000
0.000000 0.000000 0.000000
0.000000 0.000000 0.000000
0.000000 0.000000 0.000000
0.000000 0.000000 0.000000
0.000000 0.000000 0.000000
0.000000 0.000000 0.000000
0.000000 0.000000 0.000000
0.000000 0.000000 0.000000
0.000000 0.000000 0.000000
0.000000 0.000000 0.000000
0.000001 0.000001 0.000001
0.007125 0.007125 0.007125
0.015218 0.015218 0.015218
0.023936 0.023936 0.023936
0.033359 0.033359 0.033359
0.044055 0.044055 0.044055
0.055444 0.055444 0.055444
0.066699 0.066699 0.066699
0.077140 0.077140 0.077140
0.086929 0.086929 0.086929
0.096184 0.096184 0.096184
0.104986 0.104986 0.104986
0.113401 0.113401 0.113401
0.121479 0.121479 0.121479
0.129257 0.129257 0.129257
0.136768 0.136768 0.136768
0.144037 0.144037 0.144037
0.151089 0.151089 0.151089
0.157940 0.157940 0.157940
0.164612 0.164612 0.164612
0.171259 0.171259 0.171259
0.177919 0.177919 0.177919
0.184565 0.184565 0.184565
0.191178 0.191178 0.191178
0.197739 0.197739 0.197739
0.204237 0.204237 0.204237
0.210661 0.210661 0.210661
0.217006 0.217006 0.217006
0.223265 0.223265 0.223265
0.229434 0.229434 0.229434
0.235511 0.235511 0.235511
0.241492 0.241492 0.241492
0.247378 0.247378 0.247378
0.253168 0.253168 0.253168
0.258861 0.258861 0.258861
0.264459 0.264459 0.264459
0.269961 0.269961 0.269961
0.275369 0.275369 0.275369
0.280683 0.280683 0.280683
0.285905 0.285905 0.285905
0.291036 0.291036 0.291036
0.296078 0.296078 0.296078
0.301032 0.301032 0.301032
0.305899 0.305899 0.305899
0.310683 0.310683 0.310683
0.315383 0.315383 0.315383
0.320002 0.320002 0.320002
0.324541 0.324541 0.324541
0.329003 0.329003 0.329003
0.333387 0.333387 0.333387
0.337697 0.337697 0.337697
0.341934 0.341934 0.341934
0.346099 0.346099 0.346099
0.350193 0.350193 0.350193
0.354220 0.354220 0.354220
0.358179 0.358179 0.358179
0.362072 0.362072 0.362072
0.365901 0.365901 0.365901
0.369668 0.369668 0.369668
0.373372 0.373372 0.373372
0.377016 0.377016 0.377016
0.380601 0.380601 0.380601
0.384129 0.384129 0.384129
0.387600 0.387600 0.387600
0.391015 0.391015 0.391015
0.394377 0.394377 0.394377
0.397685 0.397685 0.397685
0.400942 0.400942 0.400942
0.404148 0.404148 0.404148
0.407308 0.407308 0.407308
0.410424 0.410424 0.410424
0.413496 0.413496 0.413496
0.416527 0.416527 0.416527
0.419517 0.419517 0.419517
0.422467 0.422467 0.422467
0.425379 0.425379 0.425379
0.428252 0.428252 0.428252
0.431089 0.431089 0.431089
0.433889 0.433889 0.433889
0.436654 0.436654 0.436654
0.439386 0.439386 0.439386
0.442084 0.442084 0.442084
0.444749 0.444749 0.444749
0.447382 0.447382 0.447382
0.449985 0.449985 0.449985
0.452557 0.452557 0.452557
0.455099 0.455099 0.455099
0.457612 0.457612 0.457612
0.460095 0.460095 0.460095
0.462552 0.462552 0.462552
0.464981 0.464981 0.464981
0.467384 0.467384 0.467384
0.469760 0.469760 0.469760
0.472111 0.472111 0.472111
0.474437 0.474437 0.474437
0.476739 0.476739 0.476739
0.479016 0.479016 0.479016
0.481270 0.481270 0.481270
0.483500 0.483500 0.483500
0.485708 0.485708 0.485708
0.487894 0.487894 0.487894
0.490058 0.490058 0.490058
0.492200 0.492200 0.492200
0.494322 0.494322 0.494322
0.496423 0.496423 0.496423
0.498504 0.498504 0.498504
0.500565 0.500565 0.500565
0.502606 0.502606 0.502606
0.504629 0.504629 0.504629
0.506632 0.506632 0.506632
0.508618 0.508618 0.508618
0.510585 0.510585 0.510585
0.512534 0.512534 0.512534
0.514466 0.514466 0.514466
0.516381 0.516381 0.516381
0.518277 0.518277 0.518277
0.520158 0.520158 0.520158
0.522023 0.522023 0.522023
0.523872 0.523872 0.523872
0.525705 0.525705 0.525705
0.527522 0.527522 0.527522
0.529324 0.529324 0.529324
0.531111 0.531111 0.531111
0.532883 0.532883 0.532883
0.534640 0.534640 0.534640
0.536383 0.536383 0.536383
0.538112 0.538112 0.538112
0.539827 0.539827 0.539827
0.541528 0.541528 0.541528
0.543216 0.543216 0.543216
0.544891 0.544891 0.544891
0.546552 0.546552 0.546552
0.548200 0.548200 0.548200
0.549836 0.549836 0.549836
0.551459 0.551459 0.551459
0.553070 0.553070 0.553070
0.554669 0.554669 0.554669
0.556255 0.556255 0.556255
0.557830 0.557830 0.557830
0.559394 0.559394 0.559394
0.560945 0.560945 0.560945
0.562486 0.562486 0.562486
0.564015 0.564015 0.564015
0.565533 0.565533 0.565533
0.567040 0.567040 0.567040
0.568537 0.568537 0.568537
0.570023 0.570023 0.570023
0.571498 0.571498 0.571498
0.572964 0.572964 0.572964
0.574418 0.574418 0.574418
0.575864 0.575864 0.575864
0.577298 0.577298 0.577298
0.578724 0.578724 0.578724
0.580139 0.580139 0.580139
0.581546 0.581546 0.581546
0.582942 0.582942 0.582942
0.584330 0.584330 0.584330
0.585708 0.585708 0.585708
0.587077 0.587077 0.587077
0.588437 0.588437 0.588437
0.589789 0.589789 0.589789
0.591132 0.591132 0.591132
0.592466 0.592466 0.592466
0.593791 0.593791 0.593791
0.595108 0.595108 0.595108
0.596417 0.596417 0.596417
0.597718 0.597718 0.597718
0.599010 0.599010 0.599010
0.600295 0.600295 0.600295
0.601571 0.601571 0.601571
0.602840 0.602840 0.602840
0.604101 0.604101 0.604101
0.605355 0.605355 0.605355
0.606600 0.606600 0.606600
0.607839 0.607839 0.607839
0.609069 0.609069 0.609069
0.610292 0.610292 0.610292
0.611509 0.611509 0.611509
0.612718 0.612718 0.612718
0.613921 0.613921 0.613921
0.615115 0.615115 0.615115
0.616303 0.616303 0.616303
0.617485 0.617485 0.617485
0.618659 0.618659 0.618659
0.619827 0.619827 0.619827
0.620988 0.620988 0.620988
0.622143 0.622143 0.622143
0.623291 0.623291 0.623291
0.624433 0.624433 0.624433
0.625568 0.625568 0.625568
0.626698 0.626698 0.626698
0.627820 0.627820 0.627820
0.628937 0.628937 0.628937
0.630048 0.630048 0.630048
0.631152 0.631152 0.631152
0.632251 0.632251 0.632251
0.633344 0.633344 0.633344
0.634430 0.634430 0.634430
0.635511 0.635511 0.635511
0.636587 0.636587 0.636587
0.637656 0.637656 0.637656
0.638720 0.638720 0.638720
0.639779 0.639779 0.639779
0.640832 0.640832 0.640832
0.641879 0.641879 0.641879
0.642922 0.642922 0.642922
0.643958 0.643958 0.643958
0.644990 0.644990 0.644990
0.646017 0.646017 0.646017
0.647037 0.647037 0.647037
0.648053 0.648053 0.648053
0.649063 0.649063 0.649063
0.650070 0.650070 0.650070
0.651070 0.651070 0.651070
0.652066 0.652066 0.652066
0.653057 0.653057 0.653057
0.654043 0.654043 0.654043
0.655024 0.655024 0.655024
0.656000 0.656000 0.656000
0.656972 0.656972 0.656972
0.657939 0.657939 0.657939
0.658901 0.658901 0.658901
0.659859 0.659859 0.659859
0.660812 0.660812 0.660812
0.661761 0.661761 0.661761
0.662705 0.662705 0.662705
0.663644 0.663644 0.663644
0.664580 0.664580 0.664580
0.665511 0.665511 0.665511
0.666437 0.666437 0.666437
0.667359 0.667359 0.667359
0.668278 0.668278 0.668278
0.669191 0.669191 0.669191
0.670101 0.670101 0.670101
0.671006 0.671006 0.671006
0.671907 0.671907 0.671907
0.672805 0.672805 0.672805
0.673698 0.673698 0.673698
0.674587 0.674587 0.674587
0.675472 0.675472 0.675472
0.676354 0.676354 0.676354
0.677231 0.677231 0.677231
0.678104 0.678104 0.678104
0.678974 0.678974 0.678974
0.679839 0.679839 0.679839
0.680702 0.680702 0.680702
0.681560 0.681560 0.681560
0.682415 0.682415 0.682415
0.683265 0.683265 0.683265
0.684112 0.684112 0.684112
0.684957 0.684957 0.684957
0.685797 0.685797 0.685797
0.686633 0.686633 0.686633
0.687465 0.687465 0.687465
0.688295 0.688295 0.688295
0.689121 0.689121 0.689121
0.689943 0.689943 0.689943
0.690762 0.690762 0.690762
0.691578 0.691578 0.691578
0.692390 0.692390 0.692390
0.693199 0.693199 0.693199
0.694004 0.694004 0.694004
0.694806 0.694806 0.694806
0.695605 0.695605 0.695605
0.696400 0.696400 0.696400
0.697193 0.697193 0.697193
0.697983 0.697983 0.697983
0.698769 0.698769 0.698769
0.699551 0.699551 0.699551
0.700331 0.700331 0.700331
0.701107 0.701107 0.701107
0.701881 0.701881 0.701881
0.702652 0.702652 0.702652
0.703419 0.703419 0.703419
0.704183 0.704183 0.704183
0.704944 0.704944 0.704944
0.705702 0.705702 0.705702
0.706458 0.706458 0.706458
0.707211 0.707211 0.707211
0.707960 0.707960 0.707960
0.708707 0.708707 0.708707
0.709451 0.709451 0.709451
0.710191 0.710191 0.710191
0.710929 0.710929 0.710929
0.711665 0.711665 0.711665
0.712398 0.712398 0.712398
0.713127 0.713127 0.713127
0.713854 0.713854 0.713854
0.714578 0.714578 0.714578
0.715300 0.715300 0.715300
0.716019 0.716019 0.716019
0.716735 0.716735 0.716735
0.717449 0.717449 0.717449
0.718160 0.718160 0.718160
0.718868 0.718868 0.718868
0.719573 0.719573 0.719573
0.720276 0.720276 0.720276
0.720976 0.720976 0.720976
0.721675 0.721675 0.721675
0.722371 0.722371 0.722371
0.723063 0.723063 0.723063
0.723754 0.723754 0.723754
0.724441 0.724441 0.724441
0.725127 0.725127 0.725127
0.725809 0.725809 0.725809
0.726490 0.726490 0.726490
0.727169 0.727169 0.727169
0.727844 0.727844 0.727844
0.728518 0.728518 0.728518
0.729188 0.729188 0.729188
0.729857 0.729857 0.729857
0.730523 0.730523 0.730523
0.731187 0.731187 0.731187
0.731849 0.731849 0.731849
0.732509 0.732509 0.732509
0.733165 0.733165 0.733165
0.733820 0.733820 0.733820
0.734473 0.734473 0.734473
0.735123 0.735123 0.735123
0.735771 0.735771 0.735771
0.736417 0.736417 0.736417
0.737060 0.737060 0.737060
0.737702 0.737702 0.737702
0.738341 0.738341 0.738341
0.738979 0.738979 0.738979
0.739613 0.739613 0.739613
0.740246 0.740246 0.740246
0.740877 0.740877 0.740877
0.741505 0.741505 0.741505
0.742132 0.742132 0.742132
0.742756 0.742756 0.742756
0.743379 0.743379 0.743379
0.744000 0.744000 0.744000
0.744618 0.744618 0.744618
0.745234 0.745234 0.745234
0.745849 0.745849 0.745849
0.746461 0.746461 0.746461
0.747071 0.747071 0.747071
0.747679 0.747679 0.747679
0.748285 0.748285 0.748285
0.748890 0.748890 0.748890
0.749493 0.749493 0.749493
0.750093 0.750093 0.750093
0.750692 0.750692 0.750692
0.751289 0.751289 0.751289
0.751883 0.751883 0.751883
0.752476 0.752476 0.752476
0.753067 0.753067 0.753067
0.753656 0.753656 0.753656
0.754243 0.754243 0.754243
0.754829 0.754829 0.754829
0.755413 0.755413 0.755413
0.755994 0.755994 0.755994
0.756575 0.756575 0.756575
0.757153 0.757153 0.757153
0.757730 0.757730 0.757730
0.758304 0.758304 0.758304
0.758877 0.758877 0.758877
0.759448 0.759448 0.759448
0.760017 0.760017 0.760017
0.760585 0.760585 0.760585
0.761151 0.761151 0.761151
0.761715 0.761715 0.761715
0.762278 0.762278 0.762278
0.762839 0.762839 0.762839
0.763398 0.763398 0.763398
0.763955 0.763955 0.763955
0.764511 0.764511 0.764511
0.765065 0.765065 0.765065
0.765617 0.765617 0.765617
0.766168 0.766168 0.766168
0.766717 0.766717 0.766717
0.767264 0.767264 0.767264
0.767810 0.767810 0.767810
0.768355 0.768355 0.768355
0.768897 0.768897 0.768897
0.769438 0.769438 0.769438
0.769977 0.769977 0.769977
0.770516 0.770516 0.770516
0.771052 0.771052 0.771052
0.771586 0.771586 0.771586
0.772120 0.772120 0.772120
0.772651 0.772651 0.772651
0.773181 0.773181 0.773181
0.773710 0.773710 0.773710
0.774237 0.774237 0.774237
0.774763 0.774763 0.774763
0.775287 0.775287 0.775287
0.775809 0.775809 0.775809
0.776330 0.776330 0.776330
0.776850 0.776850 0.776850
0.777368 0.777368 0.777368
0.777885 0.777885 0.777885
0.778400 0.778400 0.778400
0.778914 0.778914 0.778914
0.779426 0.779426 0.779426
0.779937 0.779937 0.779937
0.780446 0.780446 0.780446
0.780955 0.780955 0.780955
0.781461 0.781461 0.781461
0.781966 0.781966 0.781966
0.782470 0.782470 0.782470
0.782972 0.782972 0.782972
0.783474 0.783474 0.783474
0.783974 0.783974 0.783974
0.784472 0.784472 0.784472
0.784969 0.784969 0.784969
0.785464 0.785464 0.785464
0.785958 0.785958 0.785958
0.786451 0.786451 0.786451
0.786943 0.786943 0.786943
0.787433 0.787433 0.787433
0.787922 0.787922 0.787922
0.788410 0.788410 0.788410
0.788896 0.788896 0.788896
0.789381 0.789381 0.789381
0.789864 0.789864 0.789864
0.790347 0.790347 0.790347
0.790828 0.790828 0.790828
0.791308 0.791308 0.791308
0.791787 0.791787 0.791787
0.792264 0.792264 0.792264
0.792740 0.792740 0.792740
0.793215 0.793215 0.793215
0.793688 0.793688 0.793688
0.794160 0.794160 0.794160
0.794632 0.794632 0.794632
0.795101 0.795101 0.795101
0.795570 0.795570 0.795570
0.796037 0.796037 0.796037
0.796503 0.796503 0.796503
0.796968 0.796968 0.796968
0.797433 0.797433 0.797433
0.797895 0.797895 0.797895
0.798356 0.798356 0.798356
0.798816 0.798816 0.798816
0.799275 0.799275 0.799275
0.799733 0.799733 0.799733
0.800189 0.800189 0.800189
0.800645 0.800645 0.800645
0.801100 0.801100 0.801100
0.801553 0.801553 0.801553
0.802005 0.802005 0.802005
0.802456 0.802456 0.802456
0.802905 0.802905 0.802905
0.803354 0.803354 0.803354
0.803801 0.803801 0.803801
0.804248 0.804248 0.804248
0.804694 0.804694 0.804694
0.805138 0.805138 0.805138
0.805581 0.805581 0.805581
0.806023 0.806023 0.806023
0.806463 0.806463 0.806463
0.806903 0.806903 0.806903
0.807342 0.807342 0.807342
0.807779 0.807779 0.807779
0.808216 0.808216 0.808216
0.808652 0.808652 0.808652
0.809086 0.809086 0.809086
0.809519 0.809519 0.809519
0.809951 0.809951 0.809951
0.810382 0.810382 0.810382
0.810811 0.810811 0.810811
0.811238 0.811238 0.811238
0.811664 0.811664 0.811664
0.812088 0.812088 0.812088
0.812511 0.812511 0.812511
0.812932 0.812932 0.812932
0.813351 0.813351 0.813351
0.813769 0.813769 0.813769
0.814186 0.814186 0.814186
0.814601 0.814601 0.814601
0.815014 0.815014 0.815014
0.815427 0.815427 0.815427
0.815838 0.815838 0.815838
0.816247 0.816247 0.816247
0.816654 0.816654 0.816654
0.817061 0.817061 0.817061
0.817465 0.817465 0.817465
0.817869 0.817869 0.817869
0.818270 0.818270 0.818270
0.818671 0.818671 0.818671
0.819070 0.819070 0.819070
0.819468 0.819468 0.819468
0.819864 0.819864 0.819864
0.820259 0.820259 0.820259
0.820653 0.820653 0.820653
0.821045 0.821045 0.821045
0.821435 0.821435 0.821435
0.821825 0.821825 0.821825
0.822213 0.822213 0.822213
0.822599 0.822599 0.822599
0.822984 0.822984 0.822984
0.823369 0.823369 0.823369
0.823752 0.823752 0.823752
0.824133 0.824133 0.824133
0.824513 0.824513 0.824513
0.824892 0.824892 0.824892
0.825269 0.825269 0.825269
0.825645 0.825645 0.825645
0.826020 0.826020 0.826020
0.826393 0.826393 0.826393
0.826765 0.826765 0.826765
0.827136 0.827136 0.827136
0.827507 0.827507 0.827507
0.827875 0.827875 0.827875
0.828243 0.828243 0.828243
0.828609 0.828609 0.828609
0.828973 0.828973 0.828973
0.829337 0.829337 0.829337
0.829699 0.829699 0.829699
0.830060 0.830060 0.830060
0.830420 0.830420 0.830420
0.830778 0.830778 0.830778
0.831136 0.831136 0.831136
0.831492 0.831492 0.831492
0.831848 0.831848 0.831848
0.832202 0.832202 0.832202
0.832555 0.832555 0.832555
0.832906 0.832906 0.832906
0.833256 0.833256 0.833256
0.833606 0.833606 0.833606
0.833954 0.833954 0.833954
0.834300 0.834300 0.834300
0.834646 0.834646 0.834646
0.834991 0.834991 0.834991
0.835334 0.835334 0.835334
0.835677 0.835677 0.835677
0.836018 0.836018 0.836018
0.836359 0.836359 0.836359
0.836698 0.836698 0.836698
0.837036 0.837036 0.837036
0.837373 0.837373 0.837373
0.837708 0.837708 0.837708
0.838043 0.838043 0.838043
0.838376 0.838376 0.838376
0.838709 0.838709 0.838709
0.839040 0.839040 0.839040
0.839371 0.839371 0.839371
0.839700 0.839700 0.839700
0.840028 0.840028 0.840028
0.840356 0.840356 0.840356
0.840682 0.840682 0.840682
0.841007 0.841007 0.841007
0.841331 0.841331 0.841331
0.841654 0.841654 0.841654
0.841976 0.841976 0.841976
0.842297 0.842297 0.842297
0.842617 0.842617 0.842617
0.842936 0.842936 0.842936
0.843254 0.843254 0.843254
0.843571 0.843571 0.843571
0.843887 0.843887 0.843887
0.844202 0.844202 0.844202
0.844516 0.844516 0.844516
0.844829 0.844829 0.844829
0.845141 0.845141 0.845141
0.845452 0.845452 0.845452
0.845762 0.845762 0.845762
0.846072 0.846072 0.846072
0.846380 0.846380 0.846380
0.846687 0.846687 0.846687
0.846993 0.846993 0.846993
0.847299 0.847299 0.847299
0.847603 0.847603 0.847603
0.847906 0.847906 0.847906
0.848209 0.848209 0.848209
0.848510 0.848510 0.848510
0.848811 0.848811 0.848811
0.849110 0.849110 0.849110
0.849409 0.849409 0.849409
0.849707 0.849707 0.849707
0.850004 0.850004 0.850004
0.850300 0.850300 0.850300
0.850595 0.850595 0.850595
0.850889 0.850889 0.850889
0.851183 0.851183 0.851183
0.851476 0.851476 0.851476
0.851767 0.851767 0.851767
0.852058 0.852058 0.852058
0.852348 0.852348 0.852348
0.852637 0.852637 0.852637
0.852925 0.852925 0.852925
0.853212 0.853212 0.853212
0.853498 0.853498 0.853498
0.853783 0.853783 0.853783
0.854068 0.854068 0.854068
0.854352 0.854352 0.854352
0.854635 0.854635 0.854635
0.854917 0.854917 0.854917
0.855198 0.855198 0.855198
0.855479 0.855479 0.855479
0.855758 0.855758 0.855758
0.856037 0.856037 0.856037
0.856315 0.856315 0.856315
0.856592 0.856592 0.856592
0.856869 0.856869 0.856869
0.857144 0.857144 0.857144
0.857419 0.857419 0.857419
0.857693 0.857693 0.857693
0.857966 0.857966 0.857966
0.858238 0.858238 0.858238
0.858509 0.858509 0.858509
0.858780 0.858780 0.858780
0.859050 0.859050 0.859050
0.859319 0.859319 0.859319
0.859587 0.859587 0.859587
0.859854 0.859854 0.859854
0.860121 0.860121 0.860121
0.860387 0.860387 0.860387
0.860652 0.860652 0.860652
0.860917 0.860917 0.860917
0.861181 0.861181 0.861181
0.861443 0.861443 0.861443
0.861706 0.861706 0.861706
0.861967 0.861967 0.861967
0.862227 0.862227 0.862227
0.862487 0.862487 0.862487
0.862747 0.862747 0.862747
0.863005 0.863005 0.863005
0.863263 0.863263 0.863263
0.863520 0.863520 0.863520
0.863776 0.863776 0.863776
0.864032 0.864032 0.864032
0.864286 0.864286 0.864286
0.864540 0.864540 0.864540
0.864794 0.864794 0.864794
0.865046 0.865046 0.865046
0.865298 0.865298 0.865298
0.865549 0.865549 0.865549
0.865800 0.865800 0.865800
0.866049 0.866049 0.866049
0.866298 0.866298 0.866298
0.866547 0.866547 0.866547
0.866795 0.866795 0.866795
0.867042 0.867042 0.867042
0.867288 0.867288 0.867288
0.867533 0.867533 0.867533
0.867778 0.867778 0.867778
0.868022 0.868022 0.868022
0.868266 0.868266 0.868266
0.868508 0.868508 0.868508
0.868751 0.868751 0.868751
0.868993 0.868993 0.868993
0.869234 0.869234 0.869234
0.869474 0.869474 0.869474
0.869713 0.869713 0.869713
0.869952 0.869952 0.869952
0.870190 0.870190 0.870190
0.870428 0.870428 0.870428
0.870664 0.870664 0.870664
0.870901 0.870901 0.870901
0.871136 0.871136 0.871136
0.871371 0.871371 0.871371
0.871606 0.871606 0.871606
0.871839 0.871839 0.871839
0.872072 0.872072 0.872072
0.872305 0.872305 0.872305
0.872536 0.872536 0.872536
0.872768 0.872768 0.872768
0.872998 0.872998 0.872998
0.873228 0.873228 0.873228
0.873457 0.873457 0.873457
0.873686 0.873686 0.873686
0.873914 0.873914 0.873914
0.874141 0.874141 0.874141
0.874368 0.874368 0.874368
0.874594 0.874594 0.874594
0.874820 0.874820 0.874820
0.875045 0.875045 0.875045
0.875269 0.875269 0.875269
0.875493 0.875493 0.875493
0.875717 0.875717 0.875717
0.875939 0.875939 0.875939
0.876161 0.876161 0.876161
0.876382 0.876382 0.876382
0.876603 0.876603 0.876603
0.876823 0.876823 0.876823
0.877043 0.877043 0.877043
0.877262 0.877262 0.877262
0.877480 0.877480 0.877480
0.877698 0.877698 0.877698
0.877915 0.877915 0.877915
0.878132 0.878132 0.878132
0.878348 0.878348 0.878348
0.878564 0.878564 0.878564
0.878779 0.878779 0.878779
0.878994 0.878994 0.878994
0.879208 0.879208 0.879208
0.879421 0.879421 0.879421
0.879634 0.879634 0.879634
0.879846 0.879846 0.879846
0.880058 0.880058 0.880058
0.880269 0.880269 0.880269
0.880480 0.880480 0.880480
0.880690 0.880690 0.880690
0.880899 0.880899 0.880899
0.881108 0.881108 0.881108
0.881316 0.881316 0.881316
0.881524 0.881524 0.881524
0.881731 0.881731 0.881731
0.881938 0.881938 0.881938
0.882144 0.882144 0.882144
0.882350 0.882350 0.882350
0.882555 0.882555 0.882555
0.882761 0.882761 0.882761
0.882965 0.882965 0.882965
0.883168 0.883168 0.883168
0.883372 0.883372 0.883372
0.883574 0.883574 0.883574
0.883776 0.883776 0.883776
0.883978 0.883978 0.883978
0.884179 0.884179 0.884179
0.884379 0.884379 0.884379
0.884579 0.884579 0.884579
0.884779 0.884779 0.884779
0.884977 0.884977 0.884977
0.885176 0.885176 0.885176
0.885374 0.885374 0.885374
0.885571 0.885571 0.885571
0.885768 0.885768 0.885768
0.885965 0.885965 0.885965
0.886161 0.886161 0.886161
0.886357 0.886357 0.886357
0.886552 0.886552 0.886552
0.886747 0.886747 0.886747
0.886941 0.886941 0.886941
0.887134 0.887134 0.887134
0.887327 0.887327 0.887327
0.887520 0.887520 0.887520
0.887712 0.887712 0.887712
0.887903 0.887903 0.887903
0.888095 0.888095 0.888095
0.888285 0.888285 0.888285
0.888475 0.888475 0.888475
0.888665 0.888665 0.888665
0.888854 0.888854 0.888854
0.889043 0.889043 0.889043
0.889231 0.889231 0.889231
0.889419 0.889419 0.889419
0.889607 0.889607 0.889607
0.889793 0.889793 0.889793
0.889980 0.889980 0.889980
0.890166 0.890166 0.890166
0.890352 0.890352 0.890352
0.890537 0.890537 0.890537
0.890722 0.890722 0.890722
0.890906 0.890906 0.890906
0.891090 0.891090 0.891090
0.891273 0.891273 0.891273
0.891456 0.891456 0.891456
0.891638 0.891638 0.891638
0.891820 0.891820 0.891820
0.892002 0.892002 0.892002
0.892183 0.892183 0.892183
0.892363 0.892363 0.892363
0.892544 0.892544 0.892544
0.892723 0.892723 0.892723
0.892903 0.892903 0.892903
0.893081 0.893081 0.893081
0.893260 0.893260 0.893260
0.893438 0.893438 0.893438
0.893615 0.893615 0.893615
0.893793 0.893793 0.893793
0.893969 0.893969 0.893969
0.894146 0.894146 0.894146
0.894322 0.894322 0.894322
0.894498 0.894498 0.894498
0.894673 0.894673 0.894673
0.894848 0.894848 0.894848
0.895022 0.895022 0.895022
0.895196 0.895196 0.895196
0.895369 0.895369 0.895369
0.895542 0.895542 0.895542
0.895714 0.895714 0.895714
0.895887 0.895887 0.895887
0.896058 0.896058 0.896058
0.896230 0.896230 0.896230
0.896400 0.896400 0.896400
0.896571 0.896571 0.896571
0.896741 0.896741 0.896741
0.896911 0.896911 0.896911
0.897080 0.897080 0.897080
0.897249 0.897249 0.897249
0.897417 0.897417 0.897417
0.897586 0.897586 0.897586
0.897753 0.897753 0.897753
0.897921 0.897921 0.897921
0.898087 0.898087 0.898087
0.898254 0.898254 0.898254
0.898421 0.898421 0.898421
0.898586 0.898586 0.898586
0.898752 0.898752 0.898752
0.898917 0.898917 0.898917
0.899082 0.899082 0.899082
0.899246 0.899246 0.899246
0.899410 0.899410 0.899410
0.899573 0.899573 0.899573
0.899736 0.899736 0.899736
0.899899 0.899899 0.899899
0.900061 0.900061 0.900061
0.900223 0.900223 0.900223
0.900385 0.900385 0.900385
0.900546 0.900546 0.900546
0.900707 0.900707 0.900707
0.900867 0.900867 0.900867
0.901027 0.901027 0.901027
0.901187 0.901187 0.901187
0.901347 0.901347 0.901347
0.901506 0.901506 0.901506
0.901664 0.901664 0.901664
0.901822 0.901822 0.901822
0.901980 0.901980 0.901980
0.902138 0.902138 0.902138
0.902295 0.902295 0.902295
0.902452 0.902452 0.902452
0.902608 0.902608 0.902608
0.902764 0.902764 0.902764
0.902921 0.902921 0.902921
0.903076 0.903076 0.903076
0.903231 0.903231 0.903231
0.903386 0.903386 0.903386
0.903540 0.903540 0.903540
0.903694 0.903694 0.903694
0.903848 0.903848 0.903848
0.904001 0.904001 0.904001
0.904154 0.904154 0.904154
0.904307 0.904307 0.904307
0.904459 0.904459 0.904459
0.904611 0.904611 0.904611
0.904763 0.904763 0.904763
0.904914 0.904914 0.904914
0.905065 0.905065 0.905065
0.905215 0.905215 0.905215
0.905366 0.905366 0.905366
0.905515 0.905515 0.905515
0.905665 0.905665 0.905665
0.905814 0.905814 0.905814
0.905963 0.905963 0.905963
0.906112 0.906112 0.906112
0.906260 0.906260 0.906260
0.906408 0.906408 0.906408
0.906555 0.906555 0.906555
0.906702 0.906702 0.906702
0.906850 0.906850 0.906850
0.906996 0.906996 0.906996
0.907142 0.907142 0.907142
0.907288 0.907288 0.907288
0.907434 0.907434 0.907434
0.907579 0.907579 0.907579
0.907724 0.907724 0.907724
0.907869 0.907869 0.907869
0.908013 0.908013 0.908013
0.908157 0.908157 0.908157
0.908302 0.908302 0.908302
0.908445 0.908445 0.908445
0.908588 0.908588 0.908588
0.908731 0.908731 0.908731
0.908873 0.908873 0.908873
0.909015 0.909015 0.909015
0.909157 0.909157 0.909157
0.909299 0.909299 0.909299
0.909440 0.909440 0.909440
0.909581 0.909581 0.909581
0.909721 0.909721 0.909721
0.909861 0.909861 0.909861
0.910002 0.910002 0.910002
0.910141 0.910141 0.910141
0.910281 0.910281 0.910281
0.910420 0.910420 0.910420
0.910558 0.910558 0.910558
