lut/AlexaV3_EI1280_WYSIWYG_EE_nuke1d.cube
# Alexa conversion LUT, lin2video. Full in/full out.
# created by alexalutconv (2.02)

LUT_1D_SIZE 4096
0.000000 0.000000 0.000000
0.000000 0.000000 0.000000
0.000000 0.000000 0.000000
0.000000 0.000000 0.000000
0.000000 0.000000 0.000000
0.000000 0.000000 0.000000
0.000000 0.000000 0.000000
0.000000 0.000000 0.000000
0.000000 0.000000 0.000000
0.000000 0.000000 0.000000
0.000000 0.000000 0.000000
0.000000 0.000000 0.000000
0.000000 0.000000 0.000000
0.000000 0.000000 0.000000
0.000000 0.000000 0.000000
0.000000 0.000000 0.000000
0.017178 0.017178 0.017178
0.067411 0.067411 0.067411
0.118067 0.118067 0.118067
0.157332 0.157332 0.157332
0.192198 0.192198 0.192198
0.225091 0.225091 0.225091
0.255149 0.255149 0.255149
0.282383 0.282383 0.282383
0.307043 0.307043 0.307043
0.329420 0.329420 0.329420
0.349790 0.349790 0.349790
0.368394 0.368394 0.368394
0.385441 0.385441 0.385441
0.401114 0.401114 0.401114
0.415633 0.415633 0.415633
0.429174 0.429174 0.429174
0.441859 0.441859 0.441859
0.453785 0.453785 0.453785
0.465038 0.465038 0.465038
0.475686 0.475686 0.475686
0.485791 0.485791 0.485791
0.495403 0.495403 0.495403
0.504566 0.504566 0.504566
0.513319 0.513319 0.513319
0.521697 0.521697 0.521697
0.529729 0.529729 0.529729
0.537440 0.537440 0.537440
0.544857 0.544857 0.544857
0.551998 0.551998 0.551998
0.558883 0.558883 0.558883
0.565530 0.565530 0.565530
0.571953 0.571953 0.571953
0.578166 0.578166 0.578166
0.584182 0.584182 0.584182
0.590013 0.590013 0.590013
0.595668 0.595668 0.595668
0.601160 0.601160 0.601160
0.606494 0.606494 0.606494
0.611681 0.611681 0.611681
0.616728 0.616728 0.616728
0.621641 0.621641 0.621641
0.626428 0.626428 0.626428
0.631093 0.631093 0.631093
0.635644 0.635644 0.635644
0.640085 0.640085 0.640085
0.644422 0.644422 0.644422
0.648657 0.648657 0.648657
0.652797 0.652797 0.652797
0.656845 0.656845 0.656845
0.660805 0.660805 0.660805
0.664680 0.664680 0.664680
0.668474 0.668474 0.668474
0.672189 0.672189 0.672189
0.675830 0.675830 0.675830
0.679398 0.679398 0.679398
0.682896 0.682896 0.682896
0.686328 0.686328 0.686328
0.689694 0.689694 0.689694
0.692998 0.692998 0.692998
0.696242 0.696242 0.696242
0.699427 0.699427 0.699427
0.702556 0.702556 0.702556
0.705631 0.705631 0.705631
0.708652 0.708652 0.708652
0.711623 0.711623 0.711623
0.714543 0.714543 0.714543
0.717416 0.717416 0.717416
0.720243 0.720243 0.720243
0.723023 0.723023 0.723023
0.725761 0.725761 0.725761
0.728456 0.728456 0.728456
0.731109 0.731109 0.731109
0.733722 0.733722 0.733722
0.736296 0.736296 0.736296
0.738832 0.738832 0.738832
0.741332 0.741332 0.741332
0.743795 0.743795 0.743795
0.746223 0.746223 0.746223
0.748617 0.748617 0.748617
0.750978 0.750978 0.750978
0.753306 0.753306 0.753306
0.755604 0.755604 0.755604
0.757870 0.757870 0.757870
0.760106 0.760106 0.760106
0.762313 0.762313 0.762313
0.764491 0.764491 0.764491
0.766641 0.766641 0.766641
0.768765 0.768765 0.768765
0.770861 0.770861 0.770861
0.772932 0.772932 0.772932
0.774977 0.774977 0.774977
0.776997 0.776997 0.776997
0.778993 0.778993 0.778993
0.780965 0.780965 0.780965
0.782914 0.782914 0.782914
0.784841 0.784841 0.784841
0.786745 0.786745 0.786745
0.788627 0.788627 0.788627
0.790488 0.790488 0.790488
0.792328 0.792328 0.792328
0.794147 0.794147 0.794147
0.795947 0.795947 0.795947
0.797727 0.797727 0.797727
0.799488 0.799488 0.799488
0.801229 0.801229 0.801229
0.802946 0.802946 0.802946
0.804636 0.804636 0.804636
0.806300 0.806300 0.806300
0.807939 0.807939 0.807939
0.809553 0.809553 0.809553
0.811143 0.811143 0.811143
0.812709 0.812709 0.812709
0.814253 0.814253 0.814253
0.815773 0.815773 0.815773
0.817272 0.817272 0.817272
0.818749 0.818749 0.818749
0.820205 0.820205 0.820205
0.821641 0.821641 0.821641
0.823056 0.823056 0.823056
0.824451 0.824451 0.824451
0.825827 0.825827 0.825827
0.827184 0.827184 0.827184
0.828523 0.828523 0.828523
0.829844 0.829844 0.829844
0.831146 0.831146 0.831146
0.832431 0.832431 0.832431
0.833699 0.833699 0.833699
0.834951 0.834951 0.834951
0.836185 0.836185 0.836185
0.837404 0.837404 0.837404
0.838607 0.838607 0.838607
0.839795 0.839795 0.839795
0.840967 0.840967 0.840967
0.842124 0.842124 0.842124
0.843268 0.843268 0.843268
0.844396 0.844396 0.844396
0.845510 0.845510 0.845510
0.846611 0.846611 0.846611
0.847698 0.847698 0.847698
0.848772 0.848772 0.848772
0.849833 0.849833 0.849833
0.850881 0.850881 0.850881
0.851917 0.851917 0.851917
0.852940 0.852940 0.852940
0.853950 0.853950 0.853950
0.854950 0.854950 0.854950
0.855937 0.855937 0.855937
0.856913 0.856913 0.856913
0.857877 0.857877 0.857877
0.858831 0.858831 0.858831
0.859774 0.859774 0.859774
0.860706 0.860706 0.860706
0.861627 0.861627 0.861627
0.862538 0.862538 0.862538
0.863438 0.863438 0.863438
0.864329 0.864329 0.864329
0.865210 0.865210 0.865210
0.866082 0.866082 0.866082
0.866943 0.866943 0.866943
0.867795 0.867795 0.867795
0.868638 0.868638 0.868638
0.869472 0.869472 0.869472
0.870297 0.870297 0.870297
0.871113 0.871113 0.871113
0.871920 0.871920 0.871920
0.872719 0.872719 0.872719
0.873510 0.873510 0.873510
0.874292 0.874292 0.874292
0.875067 0.875067 0.875067
0.875833 0.875833 0.875833
0.876591 0.876591 0.876591
0.877341 0.877341 0.877341
0.878085 0.878085 0.878085
0.878820 0.878820 0.878820
0.879547 0.879547 0.879547
0.880269 0.880269 0.880269
0.880982 0.880982 0.880982
0.881688 0.881688 0.881688
0.882387 0.882387 0.882387
0.883080 0.883080 0.883080
0.883765 0.883765 0.883765
0.884444 0.884444 0.884444
0.885116 0.885116 0.885116
0.885783 0.885783 0.885783
0.886442 0.886442 0.886442
0.887095 0.887095 0.887095
0.887742 0.887742 0.887742
0.888383 0.888383 0.888383
0.889017 0.889017 0.889017
0.889646 0.889646 0.889646
0.890268 0.890268 0.890268
0.890886 0.890886 0.890886
0.891497 0.891497 0.891497
0.892102 0.892102 0.892102
0.892702 0.892702 0.892702
0.893297 0.893297 0.893297
0.893886 0.893886 0.893886
0.894470 0.894470 0.894470
0.895048 0.895048 0.895048
0.895621 0.895621 0.895621
0.896189 0.896189 0.896189
0.896752 0.896752 0.896752
0.897310 0.897310 0.897310
0.897863 0.897863 0.897863
0.898411 0.898411 0.898411
0.898954 0.898954 0.898954
0.899493 0.899493 0.899493
0.900027 0.900027 0.900027
0.900556 0.900556 0.900556
0.901080 0.901080 0.901080
0.901600 0.901600 0.901600
0.902116 0.902116 0.902116
0.902628 0.902628 0.902628
0.903134 0.903134 0.903134
0.903637 0.903637 0.903637
0.904135 0.904135 0.904135
0.904629 0.904629 0.904629
0.905119 0.905119 0.905119
0.905604 0.905604 0.905604
0.906087 0.906087 0.906087
0.906564 0.906564 0.906564
0.907038 0.907038 0.907038
0.907508 0.907508 0.907508
0.907974 0.907974 0.907974
0.908436 0.908436 0.908436
0.908894 0.908894 0.908894
0.909349 0.909349 0.909349
0.909801 0.909801 0.909801
0.910248 0.910248 0.910248
0.910692 0.910692 0.910692
0.911132 0.911132 0.911132
0.911568 0.911568 0.911568
0.912002 0.912002 0.912002
0.912431 0.912431 0.912431
0.912858 0.912858 0.912858
0.913281 0.913281 0.913281
0.913701 0.913701 0.913701
0.914118 0.914118 0.914118
0.914531 0.914531 0.914531
0.914941 0.914941 0.914941
0.915348 0.915348 0.915348
0.915751 0.915751 0.915751
0.916152 0.916152 0.916152
0.916549 0.916549 0.916549
0.916944 0.916944 0.916944
0.917335 0.917335 0.917335
0.917725 0.917725 0.917725
0.918110 0.918110 0.918110
0.918493 0.918493 0.918493
0.918872 0.918872 0.918872
0.919249 0.919249 0.919249
0.919624 0.919624 0.919624
0.919995 0.919995 0.919995
0.920363 0.920363 0.920363
0.920729 0.920729 0.920729
0.921092 0.921092 0.921092
0.921453 0.921453 0.921453
0.921811 0.921811 0.921811
0.922167 0.922167 0.922167
0.922520 0.922520 0.922520
0.922870 0.922870 0.922870
0.923217 0.923217 0.923217
0.923562 0.923562 0.923562
0.923905 0.923905 0.923905
0.924245 0.924245 0.924245
0.924583 0.924583 0.924583
0.924918 0.924918 0.924918
0.925251 0.925251 0.925251
0.925582 0.925582 0.925582
0.925910 0.925910 0.925910
0.926236 0.926236 0.926236
0.926560 0.926560 0.926560
0.926882 0.926882 0.926882
0.927201 0.927201 0.927201
0.927518 0.927518 0.927518
0.927833 0.927833 0.927833
0.928145 0.928145 0.928145
0.928456 0.928456 0.928456
0.928764 0.928764 0.928764
0.929070 0.929070 0.929070
0.929374 0.929374 0.929374
0.929676 0.929676 0.929676
0.929976 0.929976 0.929976
0.930274 0.930274 0.930274
0.930570 0.930570 0.930570
0.930864 0.930864 0.930864
0.931156 0.931156 0.931156
0.931446 0.931446 0.931446
0.931734 0.931734 0.931734
0.932020 0.932020 0.932020
0.932305 0.932305 0.932305
0.932587 0.932587 0.932587
0.932867 0.932867 0.932867
0.933146 0.933146 0.933146
0.933423 0.933423 0.933423
0.933698 0.933698 0.933698
0.933971 0.933971 0.933971
0.934243 0.934243 0.934243
0.934512 0.934512 0.934512
0.934780 0.934780 0.934780
0.935046 0.935046 0.935046
0.935311 0.935311 0.935311
0.935573 0.935573 0.935573
0.935834 0.935834 0.935834
0.936094 0.936094 0.936094
0.936351 0.936351 0.936351
0.936608 0.936608 0.936608
0.936862 0.936862 0.936862
0.937115 0.937115 0.937115
0.937366 0.937366 0.937366
0.937616 0.937616 0.937616
0.937864 0.937864 0.937864
0.938111 0.938111 0.938111
0.938355 0.938355 0.938355
0.938599 0.938599 0.938599
0.938841 0.938841 0.938841
0.939081 0.939081 0.939081
0.939321 0.939321 0.939321
0.939558 0.939558 0.939558
0.939794 0.939794 0.939794
0.940029 0.940029 0.940029
0.940262 0.940262 0.940262
0.940493 0.940493 0.940493
0.940724 0.940724 0.940724
0.940953 0.940953 0.940953
0.941180 0.941180 0.941180
0.941406 0.941406 0.941406
0.941631 0.941631 0.941631
0.941854 0.941854 0.941854
0.942077 0.942077 0.942077
0.942297 0.942297 0.942297
0.942517 0.942517 0.942517
0.942735 0.942735 0.942735
0.942951 0.942951 0.942951
0.943167 0.943167 0.943167
0.943381 0.943381 0.943381
0.943594 0.943594 0.943594
0.943806 0.943806 0.943806
0.944016 0.944016 0.944016
0.944225 0.944225 0.944225
0.944433 0.944433 0.944433
0.944640 0.944640 0.944640
0.944845 0.944845 0.944845
0.945050 0.945050 0.945050
0.945253 0.945253 0.945253
0.945455 0.945455 0.945455
0.945656 0.945656 0.945656
0.945855 0.945855 0.945855
0.946054 0.946054 0.946054
0.946251 0.946251 0.946251
0.946447 0.946447 0.946447
0.946642 0.946642 0.946642
0.946836 0.946836 0.946836
0.947029 0.947029 0.947029
0.947221 0.947221 0.947221
0.947412 0.947412 0.947412
0.947601 0.947601 0.947601
0.947790 0.947790 0.947790
0.947978 0.947978 0.947978
0.948164 0.948164 0.948164
0.948349 0.948349 0.948349
0.948534 0.948534 0.948534
0.948717 0.948717 0.948717
0.948899 0.948899 0.948899
0.949080 0.949080 0.949080
0.949260 0.949260 0.949260
0.949440 0.949440 0.949440
0.949618 0.949618 0.949618
0.949796 0.949796 0.949796
0.949972 0.949972 0.949972
0.950148 0.950148 0.950148
0.950322 0.950322 0.950322
0.950495 0.950495 0.950495
0.950668 0.950668 0.950668
0.950839 0.950839 0.950839
0.951010 0.951010 0.951010
0.951179 0.951179 0.951179
0.951348 0.951348 0.951348
0.951516 0.951516 0.951516
0.951682 0.951682 0.951682
0.951848 0.951848 0.951848
0.952014 0.952014 0.952014
0.952178 0.952178 0.952178
0.952342 0.952342 0.952342
0.952504 0.952504 0.952504
0.952666 0.952666 0.952666
0.952827 0.952827 0.952827
0.952986 0.952986 0.952986
0.953145 0.953145 0.953145
0.953304 0.953304 0.953304
0.953461 0.953461 0.953461
0.953617 0.953617 0.953617
0.953773 0.953773 0.953773
0.953928 0.953928 0.953928
0.954082 0.954082 0.954082
0.954235 0.954235 0.954235
0.954387 0.954387 0.954387
0.954540 0.954540 0.954540
0.954691 0.954691 0.954691
0.954841 0.954841 0.954841
0.954990 0.954990 0.954990
0.955139 0.955139 0.955139
0.955286 0.955286 0.955286
0.955433 0.955433 0.955433
0.955580 0.955580 0.955580
0.955725 0.955725 0.955725
0.955870 0.955870 0.955870
0.956014 0.956014 0.956014
0.956157 0.956157 0.956157
0.956300 0.956300 0.956300
0.956441 0.956441 0.956441
0.956582 0.956582 0.956582
0.956723 0.956723 0.956723
0.956862 0.956862 0.956862
0.957001 0.957001 0.957001
0.957140 0.957140 0.957140
0.957278 0.957278 0.957278
0.957414 0.957414 0.957414
0.957551 0.957551 0.957551
0.957686 0.957686 0.957686
0.957821 0.957821 0.957821
0.957955 0.957955 0.957955
0.958089 0.958089 0.958089
0.958222 0.958222 0.958222
0.958354 0.958354 0.958354
0.958485 0.958485 0.958485
0.958616 0.958616 0.958616
0.958746 0.958746 0.958746
0.958876 0.958876 0.958876
0.959005 0.959005 0.959005
0.959133 0.959133 0.959133
0.959261 0.959261 0.959261
0.959388 0.959388 0.959388
0.959514 0.959514 0.959514
0.959640 0.959640 0.959640
0.959765 0.959765 0.959765
0.959890 0.959890 0.959890
0.960014 0.960014 0.960014
0.960137 0.960137 0.960137
0.960260 0.960260 0.960260
0.960382 0.960382 0.960382
0.960503 0.960503 0.960503
0.960625 0.960625 0.960625
0.960745 0.960745 0.960745
0.960865 0.960865 0.960865
0.960985 0.960985 0.960985
0.961103 0.961103 0.961103
0.961221 0.961221 0.961221
0.961339 0.961339 0.961339
0.961456 0.961456 0.961456
0.961573 0.961573 0.961573
0.961689 0.961689 0.961689
0.961804 0.961804 0.961804
0.961919 0.961919 0.961919
0.962033 0.962033 0.962033
0.962147 0.962147 0.962147
0.962260 0.962260 0.962260
0.962372 0.962372 0.962372
0.962485 0.962485 0.962485
0.962596 0.962596 0.962596
0.962707 0.962707 0.962707
0.962818 0.962818 0.962818
0.962928 0.962928 0.962928
0.963037 0.963037 0.963037
0.963146 0.963146 0.963146
0.963255 0.963255 0.963255
0.963363 0.963363 0.963363
0.963470 0.963470 0.963470
0.963577 0.963577 0.963577
0.963684 0.963684 0.963684
0.963790 0.963790 0.963790
0.963895 0.963895 0.963895
0.964000 0.964000 0.964000
0.964105 0.964105 0.964105
0.964209 0.964209 0.964209
0.964313 0.964313 0.964313
0.964416 0.964416 0.964416
0.964519 0.964519 0.964519
0.964622 0.964622 0.964622
0.964723 0.964723 0.964723
0.964825 0.964825 0.964825
0.964926 0.964926 0.964926
0.965026 0.965026 0.965026
0.965126 0.965126 0.965126
0.965225 0.965225 0.965225
0.965324 0.965324 0.965324
0.965423 0.965423 0.965423
0.965521 0.965521 0.965521
0.965619 0.965619 0.965619
0.965716 0.965716 0.965716
0.965813 0.965813 0.965813
0.965909 0.965909 0.965909
0.966005 0.966005 0.966005
0.966101 0.966101 0.966101
0.966196 0.966196 0.966196
0.966290 0.966290 0.966290
0.966385 0.966385 0.966385
0.966478 0.966478 0.966478
0.966572 0.966572 0.966572
0.966665 0.966665 0.966665
0.966757 0.966757 0.966757
0.966850 0.966850 0.966850
0.966941 0.966941 0.966941
0.967033 0.967033 0.967033
0.967124 0.967124 0.967124
0.967214 0.967214 0.967214
0.967305 0.967305 0.967305
0.967394 0.967394 0.967394
0.967484 0.967484 0.967484
0.967573 0.967573 0.967573
0.967661 0.967661 0.967661
0.967750 0.967750 0.967750
0.967838 0.967838 0.967838
0.967925 0.967925 0.967925
0.968012 0.968012 0.968012
0.968099 0.968099 0.968099
0.968185 0.968185 0.968185
0.968271 0.968271 0.968271
0.968357 0.968357 0.968357
0.968442 0.968442 0.968442
0.968527 0.968527 0.968527
0.968612 0.968612 0.968612
0.968697 0.968697 0.968697
0.968780 0.968780 0.968780
0.968864 0.968864 0.968864
0.968947 0.968947 0.968947
0.969030 0.969030 0.969030
0.969112 0.969112 0.969112
0.969194 0.969194 0.969194
0.969276 0.969276 0.969276
0.969357 0.969357 0.969357
0.969438 0.969438 0.969438
0.969519 0.969519 0.969519
0.969599 0.969599 0.969599
0.969679 0.969679 0.969679
0.969759 0.969759 0.969759
0.969838 0.969838 0.969838
0.969917 0.969917 0.969917
0.969996 0.969996 0.969996
0.970074 0.970074 0.970074
0.970152 0.970152 0.970152
0.970230 0.970230 0.970230
0.970307 0.970307 0.970307
0.970384 0.970384 0.970384
0.970461 0.970461 0.970461
0.970537 0.970537 0.970537
0.970613 0.970613 0.970613
0.970689 0.970689 0.970689
0.970764 0.970764 0.970764
0.970840 0.970840 0.970840
0.970914 0.970914 0.970914
0.970989 0.970989 0.970989
0.971063 0.971063 0.971063
0.971137 0.971137 0.971137
0.971211 0.971211 0.971211
0.971284 0.971284 0.971284
0.971357 0.971357 0.971357
0.971430 0.971430 0.971430
0.971502 0.971502 0.971502
0.971574 0.971574 0.971574
0.971646 0.971646 0.971646
0.971718 0.971718 0.971718
0.971789 0.971789 0.971789
0.971860 0.971860 0.971860
0.971930 0.971930 0.971930
0.972001 0.972001 0.972001
0.972071 0.972071 0.972071
0.972141 0.972141 0.972141
0.972210 0.972210 0.972210
0.972280 0.972280 0.972280
0.972348 0.972348 0.972348
0.972417 0.972417 0.972417
0.972486 0.972486 0.972486
0.972554 0.972554 0.972554
0.972622 0.972622 0.972622
0.972689 0.972689 0.972689
0.972757 0.972757 0.972757
0.972824 0.972824 0.972824
0.972891 0.972891 0.972891
0.972957 0.972957 0.972957
0.973023 0.973023 0.973023
0.973089 0.973089 0.973089
0.973155 0.973155 0.973155
0.973221 0.973221 0.973221
0.973286 0.973286 0.973286
0.973351 0.973351 0.973351
0.973415 0.973415 0.973415
0.973480 0.973480 0.973480
0.973544 0.973544 0.973544
0.973608 0.973608 0.973608
0.973672 0.973672 0.973672
0.973735 0.973735 0.973735
0.973799 0.973799 0.973799
0.973862 0.973862 0.973862
0.973925 0.973925 0.973925
0.973987 0.973987 0.973987
0.974050 0.974050 0.974050
0.974112 0.974112 0.974112
0.974173 0.974173 0.974173
0.974235 0.974235 0.974235
0.974296 0.974296 0.974296
0.974357 0.974357 0.974357
0.974418 0.974418 0.974418
0.974478 0.974478 0.974478
0.974539 0.974539 0.974539
0.974599 0.974599 0.974599
0.974659 0.974659 0.974659
0.974718 0.974718 0.974718
0.974778 0.974778 0.974778
0.974837 0.974837 0.974837
0.974896 0.974896 0.974896
0.974954 0.974954 0.974954
0.975013 0.975013 0.975013
0.975071 0.975071 0.975071
0.975129 0.975129 0.975129
0.975187 0.975187 0.975187
0.975245 0.975245 0.975245
0.975302 0.975302 0.975302
0.975359 0.975359 0.975359
0.975416 0.975416 0.975416
0.975473 0.975473 0.975473
0.975529 0.975529 0.975529
0.975586 0.975586 0.975586
0.975642 0.975642 0.975642
0.975698 0.975698 0.975698
0.975754 0.975754 0.975754
0.975809 0.975809 0.975809
0.975865 0.975865 0.975865
0.975920 0.975920 0.975920
0.975974 0.975974 0.975974
0.976029 0.976029 0.976029
0.976084 0.976084 0.976084
0.976138 0.976138 0.976138
0.976192 0.976192 0.976192
0.976246 0.976246 0.976246
0.976299 0.976299 0.976299
0.976353 0.976353 0.976353
0.976406 0.976406 0.976406
0.976459 0.976459 0.976459
0.976512 0.976512 0.976512
0.976564 0.976564 0.976564
0.976617 0.976617 0.976617
0.976669 0.976669 0.976669
0.976721 0.976721 0.976721
0.976773 0.976773 0.976773
0.976825 0.976825 0.976825
0.976876 0.976876 0.976876
0.976927 0.976927 0.976927
0.976979 0.976979 0.976979
0.977029 0.977029 0.977029
0.977080 0.977080 0.977080
0.977131 0.977131 0.977131
0.977181 0.977181 0.977181
0.977231 0.977231 0.977231
0.977281 0.977281 0.977281
0.977331 0.977331 0.977331
0.977381 0.977381 0.977381
0.977430 0.977430 0.977430
0.977479 0.977479 0.977479
0.977529 0.977529 0.977529
0.977577 0.977577 0.977577
0.977626 0.977626 0.977626
0.977675 0.977675 0.977675
0.977723 0.977723 0.977723
0.977771 0.977771 0.977771
0.977819 0.977819 0.977819
0.977867 0.977867 0.977867
0.977915 0.977915 0.977915
0.977962 0.977962 0.977962
0.978010 0.978010 0.978010
0.978057 0.978057 0.978057
0.978104 0.978104 0.978104
0.978151 0.978151 0.978151
0.978197 0.978197 0.978197
0.978244 0.978244 0.978244
0.978290 0.978290 0.978290
0.978336 0.978336 0.978336
0.978382 0.978382 0.978382
0.978428 0.978428 0.978428
0.978474 0.978474 0.978474
0.978519 0.978519 0.978519
0.978565 0.978565 0.978565
0.978610 0.978610 0.978610
0.978655 0.978655 0.978655
0.978700 0.978700 0.978700
0.978744 0.978744 0.978744
0.978789 0.978789 0.978789
0.978833 0.978833 0.978833
0.978878 0.978878 0.978878
0.978922 0.978922 0.978922
0.978966 0.978966 0.978966
0.979009 0.979009 0.979009
0.979053 0.979053 0.979053
0.979096 0.979096 0.979096
0.979140 0.979140 0.979140
0.979183 0.979183 0.979183
0.979226 0.979226 0.979226
0.979269 0.979269 0.979269
0.979312 0.979312 0.979312
0.979354 0.979354 0.979354
0.979396 0.979396 0.979396
0.979439 0.979439 0.979439
0.979481 0.979481 0.979481
0.979523 0.979523 0.979523
0.979565 0.979565 0.979565
0.979606 0.979606 0.979606
0.979648 0.979648 0.979648
0.979689 0.979689 0.979689
0.979730 0.979730 0.979730
0.979772 0.979772 0.979772
0.979813 0.979813 0.979813
0.979854 0.979854 0.979854
0.979895 0.979895 0.979895
0.979935 0.979935 0.979935
0.979976 0.979976 0.979976
0.980016 0.980016 0.980016
0.980056 0.980056 0.980056
0.980096 0.980096 0.980096
0.980136 0.980136 0.980136
0.980175 0.980175 0.980175
0.980215 0.980215 0.980215
0.980254 0.980254 0.980254
0.980294 0.980294 0.980294
0.980333 0.980333 0.980333
0.980372 0.980372 0.980372
0.980411 0.980411 0.980411
0.980449 0.980449 0.980449
0.980488 0.980488 0.980488
0.980527 0.980527 0.980527
0.980565 0.980565 0.980565
0.980603 0.980603 0.980603
0.980641 0.980641 0.980641
0.980679 0.980679 0.980679
0.980717 0.980717 0.980717
0.980755 0.980755 0.980755
0.980792 0.980792 0.980792
0.980830 0.980830 0.980830
0.980867 0.980867 0.980867
0.980904 0.980904 0.980904
0.980942 0.980942 0.980942
0.980979 0.980979 0.980979
0.981015 0.981015 0.981015
0.981052 0.981052 0.981052
0.981089 0.981089 0.981089
0.981125 0.981125 0.981125
0.981162 0.981162 0.981162
0.981198 0.981198 0.981198
0.981234 0.981234 0.981234
0.981270 0.981270 0.981270
0.981306 0.981306 0.981306
0.981341 0.981341 0.981341
0.981377 0.981377 0.981377
0.981413 0.981413 0.981413
0.981448 0.981448 0.981448
0.981483 0.981483 0.981483
0.981518 0.981518 0.981518
0.981553 0.981553 0.981553
0.981588 0.981588 0.981588
0.981623 0.981623 0.981623
0.981658 0.981658 0.981658
0.981692 0.981692 0.981692
0.981727 0.981727 0.981727
0.981761 0.981761 0.981761
0.981795 0.981795 0.981795
0.981830 0.981830 0.981830
0.981864 0.981864 0.981864
0.981898 0.981898 0.981898
0.981931 0.981931 0.981931
0.981965 0.981965 0.981965
0.981999 0.981999 0.981999
0.982032 0.982032 0.982032
0.982065 0.982065 0.982065
0.982099 0.982099 0.982099
0.982132 0.982132 0.982132
0.982165 0.982165 0.982165
0.982198 0.982198 0.982198
0.982230 0.982230 0.982230
0.982263 0.982263 0.982263
0.982296 0.982296 0.982296
0.982328 0.982328 0.982328
0.982361 0.982361 0.982361
0.982393 0.982393 0.982393
0.982425 0.982425 0.982425
0.982457 0.982457 0.982457
0.982489 0.982489 0.982489
0.982521 0.982521 0.982521
0.982553 0.982553 0.982553
0.982584 0.982584 0.982584
0.982616 0.982616 0.982616
0.982647 0.982647 0.982647
0.982679 0.982679 0.982679
0.982710 0.982710 0.982710
0.982741 0.982741 0.982741
0.982772 0.982772 0.982772
0.982803 0.982803 0.982803
0.982834 0.982834 0.982834
0.982865 0.982865 0.982865
0.982895 0.982895 0.982895
0.982926 0.982926 0.982926
0.982956 0.982956 0.982956
0.982987 0.982987 0.982987
0.983017 0.983017 0.983017
0.983047 0.983047 0.983047
0.983077 0.983077 0.983077
0.983107 0.983107 0.983107
0.983137 0.983137 0.983137
0.983167 0.983167 0.983167
0.983197 0.983197 0.983197
0.983226 0.983226 0.983226
0.983256 0.983256 0.983256
0.983285 0.983285 0.983285
0.983315 0.983315 0.983315
0.983344 0.983344 0.983344
0.983373 0.983373 0.983373
0.983402 0.983402 0.983402
0.983431 0.983431 0.983431
0.983461 0.983461 0.983461
0.983489 0.983489 0.983489
0.983518 0.983518 0.983518
0.983547 0.983547 0.983547
0.983575 0.983575 0.983575
0.983603 0.983603 0.983603
0.983632 0.983632 0.983632
0.983660 0.983660 0.983660
0.983688 0.983688 0.983688
0.983716 0.983716 0.983716
0.983744 0.983744 0.983744
0.983772 0.983772 0.983772
0.983800 0.983800 0.983800
0.983827 0.983827 0.983827
0.983855 0.983855 0.983855
0.983883 0.983883 0.983883
0.983910 0.983910 0.983910
0.983937 0.983937 0.983937
0.983965 0.983965 0.983965
0.983992 0.983992 0.983992
0.984019 0.984019 0.984019
0.984046 0.984046 0.984046
0.984073 0.984073 0.984073
0.984100 0.984100 0.984100
0.984127 0.984127 0.984127
0.984153 0.984153 0.984153
0.984180 0.984180 0.984180
0.984206 0.984206 0.984206
0.984233 0.984233 0.984233
0.984259 0.984259 0.984259
0.984285 0.984285 0.984285
0.984312 0.984312 0.984312
0.984338 0.984338 0.984338
0.984364 0.984364 0.984364
0.984390 0.984390 0.984390
0.984416 0.984416 0.984416
0.984441 0.984441 0.984441
0.984467 0.984467 0.984467
0.984493 0.984493 0.984493
0.984518 0.984518 0.984518
0.984544 0.984544 0.984544
0.984569 0.984569 0.984569
0.984595 0.984595 0.984595
0.984620 0.984620 0.984620
0.984645 0.984645 0.984645
0.984670 0.984670 0.984670
0.984695 0.984695 0.984695
0.984720 0.984720 0.984720
0.984745 0.984745 0.984745
0.984770 0.984770 0.984770
0.984794 0.984794 0.984794
0.984819 0.984819 0.984819
0.984844 0.984844 0.984844
