lut/AlexaV3_EI2560_WYSIWYG_EE_nuke1d.cube
# Alexa conversion LUT, lin2video. Full in/full out.
# created by alexalutconv (2.02)

LUT_1D_SIZE 4096
0.000000 0.000000 0.000000
0.000000 0.000000 0.000000
0.000000 0.000000 0.000000
0.000000 0.000000 0.000000
0.000000 0.000000 0.000000
0.000000 0.000000 0.000000
0.000000 0.000000 0.000000
0.000000 0.000000 0.000000
0.000000 0.000000 0.000000
0.000000 0.000000 0.000000
0.000000 0.000000 0.000000
0.000000 0.000000 0.000000
0.000000 0.000000 0.000000
0.000000 0.000000 0.000000
0.000000 0.000000 0.000000
0.000000 0.000000 0.000000
0.019432 0.019432 0.019432
0.119698 0.119698 0.119698
0.194994 0.194994 0.194994
0.257768 0.257768 0.257768
0.308866 0.308866 0.308866
0.350665 0.350665 0.350665
0.385388 0.385388 0.385388
0.414727 0.414727 0.414727
0.440173 0.440173 0.440173
0.462636 0.462636 0.462636
0.482730 0.482730 0.482730
0.500896 0.500896 0.500896
0.517463 0.517463 0.517463
0.532681 0.532681 0.532681
0.546749 0.546749 0.546749
0.559821 0.559821 0.559821
0.572026 0.572026 0.572026
0.583467 0.583467 0.583467
0.594231 0.594231 0.594231
0.604390 0.604390 0.604390
0.614006 0.614006 0.614006
0.623132 0.623132 0.623132
0.631814 0.631814 0.631814
0.640090 0.640090 0.640090
0.647995 0.647995 0.647995
0.655561 0.655561 0.655561
0.662812 0.662812 0.662812
0.669774 0.669774 0.669774
0.676465 0.676465 0.676465
0.682908 0.682908 0.682908
0.689118 0.689118 0.689118
0.695111 0.695111 0.695111
0.700900 0.700900 0.700900
0.706497 0.706497 0.706497
0.711916 0.711916 0.711916
0.717165 0.717165 0.717165
0.722256 0.722256 0.722256
0.727195 0.727195 0.727195
0.731992 0.731992 0.731992
0.736655 0.736655 0.736655
0.741190 0.741190 0.741190
0.745603 0.745603 0.745603
0.749900 0.749900 0.749900
0.754087 0.754087 0.754087
0.758170 0.758170 0.758170
0.762153 0.762153 0.762153
0.766039 0.766039 0.766039
0.769835 0.769835 0.769835
0.773542 0.773542 0.773542
0.777166 0.777166 0.777166
0.780709 0.780709 0.780709
0.784175 0.784175 0.784175
0.787568 0.787568 0.787568
0.790889 0.790889 0.790889
0.794141 0.794141 0.794141
0.797328 0.797328 0.797328
0.800449 0.800449 0.800449
0.803490 0.803490 0.803490
0.806446 0.806446 0.806446
0.809320 0.809320 0.809320
0.812116 0.812116 0.812116
0.814838 0.814838 0.814838
0.817488 0.817488 0.817488
0.820068 0.820068 0.820068
0.822583 0.822583 0.822583
0.825034 0.825034 0.825034
0.827424 0.827424 0.827424
0.829756 0.829756 0.829756
0.832030 0.832030 0.832030
0.834250 0.834250 0.834250
0.836418 0.836418 0.836418
0.838535 0.838535 0.838535
0.840603 0.840603 0.840603
0.842623 0.842623 0.842623
0.844599 0.844599 0.844599
0.846529 0.846529 0.846529
0.848418 0.848418 0.848418
0.850265 0.850265 0.850265
0.852073 0.852073 0.852073
0.853841 0.853841 0.853841
0.855573 0.855573 0.855573
0.857269 0.857269 0.857269
0.858929 0.858929 0.858929
0.860556 0.860556 0.860556
0.862150 0.862150 0.862150
0.863712 0.863712 0.863712
0.865243 0.865243 0.865243
0.866743 0.866743 0.866743
0.868215 0.868215 0.868215
0.869659 0.869659 0.869659
0.871074 0.871074 0.871074
0.872464 0.872464 0.872464
0.873827 0.873827 0.873827
0.875165 0.875165 0.875165
0.876479 0.876479 0.876479
0.877768 0.877768 0.877768
0.879035 0.879035 0.879035
0.880278 0.880278 0.880278
0.881500 0.881500 0.881500
0.882700 0.882700 0.882700
0.883879 0.883879 0.883879
0.885038 0.885038 0.885038
0.886177 0.886177 0.886177
0.887297 0.887297 0.887297
0.888398 0.888398 0.888398
0.889481 0.889481 0.889481
0.890545 0.890545 0.890545
0.891592 0.891592 0.891592
0.892622 0.892622 0.892622
0.893636 0.893636 0.893636
0.894633 0.894633 0.894633
0.895613 0.895613 0.895613
0.896579 0.896579 0.896579
0.897530 0.897530 0.897530
0.898465 0.898465 0.898465
0.899386 0.899386 0.899386
0.900294 0.900294 0.900294
0.901187 0.901187 0.901187
0.902066 0.902066 0.902066
0.902932 0.902932 0.902932
0.903786 0.903786 0.903786
0.904627 0.904627 0.904627
0.905455 0.905455 0.905455
0.906272 0.906272 0.906272
0.907076 0.907076 0.907076
0.907869 0.907869 0.907869
0.908651 0.908651 0.908651
0.909421 0.909421 0.909421
0.910180 0.910180 0.910180
0.910929 0.910929 0.910929
0.911667 0.911667 0.911667
0.912396 0.912396 0.912396
0.913113 0.913113 0.913113
0.913822 0.913822 0.913822
0.914520 0.914520 0.914520
0.915209 0.915209 0.915209
0.915889 0.915889 0.915889
0.916560 0.916560 0.916560
0.917222 0.917222 0.917222
0.917875 0.917875 0.917875
0.918519 0.918519 0.918519
0.919155 0.919155 0.919155
0.919783 0.919783 0.919783
0.920403 0.920403 0.920403
0.921014 0.921014 0.921014
0.921618 0.921618 0.921618
0.922214 0.922214 0.922214
0.922803 0.922803 0.922803
0.923384 0.923384 0.923384
0.923958 0.923958 0.923958
0.924525 0.924525 0.924525
0.925085 0.925085 0.925085
0.925638 0.925638 0.925638
0.926184 0.926184 0.926184
0.926724 0.926724 0.926724
0.927257 0.927257 0.927257
0.927783 0.927783 0.927783
0.928304 0.928304 0.928304
0.928818 0.928818 0.928818
0.929326 0.929326 0.929326
0.929827 0.929827 0.929827
0.930324 0.930324 0.930324
0.930815 0.930815 0.930815
0.931299 0.931299 0.931299
0.931778 0.931778 0.931778
0.932252 0.932252 0.932252
0.932720 0.932720 0.932720
0.933183 0.933183 0.933183
0.933640 0.933640 0.933640
0.934092 0.934092 0.934092
0.934539 0.934539 0.934539
0.934982 0.934982 0.934982
0.935419 0.935419 0.935419
0.935852 0.935852 0.935852
0.936279 0.936279 0.936279
0.936702 0.936702 0.936702
0.937122 0.937122 0.937122
0.937535 0.937535 0.937535
0.937944 0.937944 0.937944
0.938349 0.938349 0.938349
0.938750 0.938750 0.938750
0.939146 0.939146 0.939146
0.939539 0.939539 0.939539
0.939927 0.939927 0.939927
0.940311 0.940311 0.940311
0.940690 0.940690 0.940690
0.941066 0.941066 0.941066
0.941438 0.941438 0.941438
0.941806 0.941806 0.941806
0.942170 0.942170 0.942170
0.942531 0.942531 0.942531
0.942888 0.942888 0.942888
0.943241 0.943241 0.943241
0.943591 0.943591 0.943591
0.943937 0.943937 0.943937
0.944279 0.944279 0.944279
0.944618 0.944618 0.944618
0.944954 0.944954 0.944954
0.945287 0.945287 0.945287
0.945616 0.945616 0.945616
0.945942 0.945942 0.945942
0.946265 0.946265 0.946265
0.946584 0.946584 0.946584
0.946900 0.946900 0.946900
0.947214 0.947214 0.947214
0.947524 0.947524 0.947524
0.947831 0.947831 0.947831
0.948136 0.948136 0.948136
0.948438 0.948438 0.948438
0.948736 0.948736 0.948736
0.949032 0.949032 0.949032
0.949324 0.949324 0.949324
0.949614 0.949614 0.949614
0.949902 0.949902 0.949902
0.950186 0.950186 0.950186
0.950468 0.950468 0.950468
0.950748 0.950748 0.950748
0.951024 0.951024 0.951024
0.951300 0.951300 0.951300
0.951571 0.951571 0.951571
0.951840 0.951840 0.951840
0.952107 0.952107 0.952107
0.952371 0.952371 0.952371
0.952633 0.952633 0.952633
0.952893 0.952893 0.952893
0.953150 0.953150 0.953150
0.953405 0.953405 0.953405
0.953657 0.953657 0.953657
0.953908 0.953908 0.953908
0.954156 0.954156 0.954156
0.954402 0.954402 0.954402
0.954645 0.954645 0.954645
0.954888 0.954888 0.954888
0.955127 0.955127 0.955127
0.955365 0.955365 0.955365
0.955600 0.955600 0.955600
0.955833 0.955833 0.955833
0.956065 0.956065 0.956065
0.956294 0.956294 0.956294
0.956521 0.956521 0.956521
0.956746 0.956746 0.956746
0.956970 0.956970 0.956970
0.957191 0.957191 0.957191
0.957411 0.957411 0.957411
0.957628 0.957628 0.957628
0.957844 0.957844 0.957844
0.958058 0.958058 0.958058
0.958271 0.958271 0.958271
0.958481 0.958481 0.958481
0.958690 0.958690 0.958690
0.958898 0.958898 0.958898
0.959103 0.959103 0.959103
0.959307 0.959307 0.959307
0.959508 0.959508 0.959508
0.959709 0.959709 0.959709
0.959907 0.959907 0.959907
0.960104 0.960104 0.960104
0.960299 0.960299 0.960299
0.960493 0.960493 0.960493
0.960685 0.960685 0.960685
0.960876 0.960876 0.960876
0.961065 0.961065 0.961065
0.961253 0.961253 0.961253
0.961439 0.961439 0.961439
0.961623 0.961623 0.961623
0.961806 0.961806 0.961806
0.961988 0.961988 0.961988
0.962168 0.962168 0.962168
0.962347 0.962347 0.962347
0.962524 0.962524 0.962524
0.962700 0.962700 0.962700
0.962875 0.962875 0.962875
0.963048 0.963048 0.963048
0.963220 0.963220 0.963220
0.963391 0.963391 0.963391
0.963560 0.963560 0.963560
0.963728 0.963728 0.963728
0.963895 0.963895 0.963895
0.964060 0.964060 0.964060
0.964225 0.964225 0.964225
0.964388 0.964388 0.964388
0.964549 0.964549 0.964549
0.964710 0.964710 0.964710
0.964869 0.964869 0.964869
0.965027 0.965027 0.965027
0.965183 0.965183 0.965183
0.965339 0.965339 0.965339
0.965493 0.965493 0.965493
0.965646 0.965646 0.965646
0.965799 0.965799 0.965799
0.965949 0.965949 0.965949
0.966099 0.966099 0.966099
0.966248 0.966248 0.966248
0.966396 0.966396 0.966396
0.966542 0.966542 0.966542
0.966687 0.966687 0.966687
0.966832 0.966832 0.966832
0.966975 0.966975 0.966975
0.967117 0.967117 0.967117
0.967259 0.967259 0.967259
0.967399 0.967399 0.967399
0.967538 0.967538 0.967538
0.967676 0.967676 0.967676
0.967813 0.967813 0.967813
0.967949 0.967949 0.967949
0.968085 0.968085 0.968085
0.968219 0.968219 0.968219
0.968352 0.968352 0.968352
0.968484 0.968484 0.968484
0.968616 0.968616 0.968616
0.968746 0.968746 0.968746
0.968876 0.968876 0.968876
0.969004 0.969004 0.969004
0.969132 0.969132 0.969132
0.969259 0.969259 0.969259
0.969385 0.969385 0.969385
0.969510 0.969510 0.969510
0.969634 0.969634 0.969634
0.969757 0.969757 0.969757
0.969879 0.969879 0.969879
0.970002 0.970002 0.970002
0.970122 0.970122 0.970122
0.970242 0.970242 0.970242
0.970361 0.970361 0.970361
0.970479 0.970479 0.970479
0.970597 0.970597 0.970597
0.970713 0.970713 0.970713
0.970829 0.970829 0.970829
0.970944 0.970944 0.970944
0.971058 0.971058 0.971058
0.971172 0.971172 0.971172
0.971284 0.971284 0.971284
0.971397 0.971397 0.971397
0.971508 0.971508 0.971508
0.971619 0.971619 0.971619
0.971728 0.971728 0.971728
0.971837 0.971837 0.971837
0.971945 0.971945 0.971945
0.972053 0.972053 0.972053
0.972159 0.972159 0.972159
0.972265 0.972265 0.972265
0.972371 0.972371 0.972371
0.972475 0.972475 0.972475
0.972579 0.972579 0.972579
0.972683 0.972683 0.972683
0.972785 0.972785 0.972785
0.972887 0.972887 0.972887
0.972989 0.972989 0.972989
0.973090 0.973090 0.973090
0.973190 0.973190 0.973190
0.973289 0.973289 0.973289
0.973387 0.973387 0.973387
0.973485 0.973485 0.973485
0.973583 0.973583 0.973583
0.973680 0.973680 0.973680
0.973776 0.973776 0.973776
0.973871 0.973871 0.973871
0.973966 0.973966 0.973966
0.974060 0.974060 0.974060
0.974154 0.974154 0.974154
0.974247 0.974247 0.974247
0.974339 0.974339 0.974339
0.974431 0.974431 0.974431
0.974522 0.974522 0.974522
0.974613 0.974613 0.974613
0.974703 0.974703 0.974703
0.974793 0.974793 0.974793
0.974882 0.974882 0.974882
0.974971 0.974971 0.974971
0.975059 0.975059 0.975059
0.975146 0.975146 0.975146
0.975233 0.975233 0.975233
0.975319 0.975319 0.975319
0.975405 0.975405 0.975405
0.975490 0.975490 0.975490
0.975575 0.975575 0.975575
0.975659 0.975659 0.975659
0.975742 0.975742 0.975742
0.975825 0.975825 0.975825
0.975908 0.975908 0.975908
0.975990 0.975990 0.975990
0.976072 0.976072 0.976072
0.976153 0.976153 0.976153
0.976233 0.976233 0.976233
0.976313 0.976313 0.976313
0.976393 0.976393 0.976393
0.976472 0.976472 0.976472
0.976551 0.976551 0.976551
0.976629 0.976629 0.976629
0.976706 0.976706 0.976706
0.976783 0.976783 0.976783
0.976860 0.976860 0.976860
0.976936 0.976936 0.976936
0.977011 0.977011 0.977011
0.977086 0.977086 0.977086
0.977161 0.977161 0.977161
0.977235 0.977235 0.977235
0.977309 0.977309 0.977309
0.977382 0.977382 0.977382
0.977455 0.977455 0.977455
0.977528 0.977528 0.977528
0.977599 0.977599 0.977599
0.977671 0.977671 0.977671
0.977742 0.977742 0.977742
0.977812 0.977812 0.977812
0.977882 0.977882 0.977882
0.977952 0.977952 0.977952
0.978021 0.978021 0.978021
0.978090 0.978090 0.978090
0.978158 0.978158 0.978158
0.978226 0.978226 0.978226
0.978294 0.978294 0.978294
0.978361 0.978361 0.978361
0.978428 0.978428 0.978428
0.978494 0.978494 0.978494
0.978560 0.978560 0.978560
0.978625 0.978625 0.978625
0.978690 0.978690 0.978690
0.978755 0.978755 0.978755
0.978819 0.978819 0.978819
0.978883 0.978883 0.978883
0.978947 0.978947 0.978947
0.979010 0.979010 0.979010
0.979072 0.979072 0.979072
0.979135 0.979135 0.979135
0.979197 0.979197 0.979197
0.979258 0.979258 0.979258
0.979319 0.979319 0.979319
0.979380 0.979380 0.979380
0.979441 0.979441 0.979441
0.979501 0.979501 0.979501
0.979561 0.979561 0.979561
0.979620 0.979620 0.979620
0.979679 0.979679 0.979679
0.979738 0.979738 0.979738
0.979796 0.979796 0.979796
0.979854 0.979854 0.979854
0.979912 0.979912 0.979912
0.979969 0.979969 0.979969
0.980026 0.980026 0.980026
0.980083 0.980083 0.980083
0.980139 0.980139 0.980139
0.980195 0.980195 0.980195
0.980251 0.980251 0.980251
0.980306 0.980306 0.980306
0.980362 0.980362 0.980362
0.980416 0.980416 0.980416
0.980471 0.980471 0.980471
0.980525 0.980525 0.980525
0.980579 0.980579 0.980579
0.980632 0.980632 0.980632
0.980685 0.980685 0.980685
0.980738 0.980738 0.980738
0.980791 0.980791 0.980791
0.980844 0.980844 0.980844
0.980896 0.980896 0.980896
0.980947 0.980947 0.980947
0.980999 0.980999 0.980999
0.981050 0.981050 0.981050
0.981101 0.981101 0.981101
0.981151 0.981151 0.981151
0.981202 0.981202 0.981202
0.981252 0.981252 0.981252
0.981301 0.981301 0.981301
0.981351 0.981351 0.981351
0.981400 0.981400 0.981400
0.981449 0.981449 0.981449
0.981497 0.981497 0.981497
0.981546 0.981546 0.981546
0.981594 0.981594 0.981594
0.981641 0.981641 0.981641
0.981689 0.981689 0.981689
0.981736 0.981736 0.981736
0.981783 0.981783 0.981783
0.981830 0.981830 0.981830
0.981876 0.981876 0.981876
0.981923 0.981923 0.981923
0.981969 0.981969 0.981969
0.982014 0.982014 0.982014
0.982060 0.982060 0.982060
0.982105 0.982105 0.982105
0.982150 0.982150 0.982150
0.982195 0.982195 0.982195
0.982239 0.982239 0.982239
0.982283 0.982283 0.982283
0.982327 0.982327 0.982327
0.982371 0.982371 0.982371
0.982415 0.982415 0.982415
0.982458 0.982458 0.982458
0.982501 0.982501 0.982501
0.982544 0.982544 0.982544
0.982586 0.982586 0.982586
0.982629 0.982629 0.982629
0.982671 0.982671 0.982671
0.982713 0.982713 0.982713
0.982755 0.982755 0.982755
0.982796 0.982796 0.982796
0.982837 0.982837 0.982837
0.982878 0.982878 0.982878
0.982919 0.982919 0.982919
0.982960 0.982960 0.982960
0.983000 0.983000 0.983000
0.983040 0.983040 0.983040
0.983080 0.983080 0.983080
0.983120 0.983120 0.983120
0.983160 0.983160 0.983160
0.983199 0.983199 0.983199
0.983238 0.983238 0.983238
0.983277 0.983277 0.983277
0.983316 0.983316 0.983316
0.983354 0.983354 0.983354
0.983393 0.983393 0.983393
0.983431 0.983431 0.983431
0.983469 0.983469 0.983469
0.983507 0.983507 0.983507
0.983544 0.983544 0.983544
0.983581 0.983581 0.983581
0.983619 0.983619 0.983619
0.983656 0.983656 0.983656
0.983692 0.983692 0.983692
0.983729 0.983729 0.983729
0.983765 0.983765 0.983765
0.983802 0.983802 0.983802
0.983838 0.983838 0.983838
0.983874 0.983874 0.983874
0.983909 0.983909 0.983909
0.983945 0.983945 0.983945
0.983980 0.983980 0.983980
0.984015 0.984015 0.984015
0.984050 0.984050 0.984050
0.984085 0.984085 0.984085
0.984120 0.984120 0.984120
0.984154 0.984154 0.984154
0.984188 0.984188 0.984188
0.984222 0.984222 0.984222
0.984256 0.984256 0.984256
0.984290 0.984290 0.984290
0.984324 0.984324 0.984324
0.984357 0.984357 0.984357
0.984390 0.984390 0.984390
0.984424 0.984424 0.984424
0.984456 0.984456 0.984456
0.984489 0.984489 0.984489
0.984522 0.984522 0.984522
0.984554 0.984554 0.984554
0.984587 0.984587 0.984587
0.984619 0.984619 0.984619
0.984651 0.984651 0.984651
0.984682 0.984682 0.984682
0.984714 0.984714 0.984714
0.984746 0.984746 0.984746
0.984777 0.984777 0.984777
0.984808 0.984808 0.984808
0.984839 0.984839 0.984839
0.984870 0.984870 0.984870
0.984901 0.984901 0.984901
0.984931 0.984931 0.984931
0.984962 0.984962 0.984962
0.984992 0.984992 0.984992
0.985022 0.985022 0.985022
0.985053 0.985053 0.985053
0.985083 0.985083 0.985083
0.985113 0.985113 0.985113
0.985142 0.985142 0.985142
0.985172 0.985172 0.985172
0.985201 0.985201 0.985201
0.985230 0.985230 0.985230
0.985259 0.985259 0.985259
0.985288 0.985288 0.985288
0.985317 0.985317 0.985317
0.985346 0.985346 0.985346
0.985374 0.985374 0.985374
0.985402 0.985402 0.985402
0.985431 0.985431 0.985431
0.985459 0.985459 0.985459
0.985487 0.985487 0.985487
0.985514 0.985514 0.985514
0.985542 0.985542 0.985542
0.985570 0.985570 0.985570
0.985597 0.985597 0.985597
0.985624 0.985624 0.985624
0.985652 0.985652 0.985652
0.985679 0.985679 0.985679
0.985706 0.985706 0.985706
0.985732 0.985732 0.985732
0.985759 0.985759 0.985759
0.985786 0.985786 0.985786
0.985812 0.985812 0.985812
0.985838 0.985838 0.985838
0.985864 0.985864 0.985864
0.985890 0.985890 0.985890
0.985916 0.985916 0.985916
0.985942 0.985942 0.985942
0.985968 0.985968 0.985968
0.985994 0.985994 0.985994
0.986019 0.986019 0.986019
0.986044 0.986044 0.986044
0.986070 0.986070 0.986070
0.986095 0.986095 0.986095
0.986120 0.986120 0.986120
0.986145 0.986145 0.986145
0.986169 0.986169 0.986169
0.986194 0.986194 0.986194
0.986219 0.986219 0.986219
0.986243 0.986243 0.986243
0.986267 0.986267 0.986267
0.986292 0.986292 0.986292
0.986316 0.986316 0.986316
0.986340 0.986340 0.986340
0.986364 0.986364 0.986364
0.986387 0.986387 0.986387
0.986411 0.986411 0.986411
0.986435 0.986435 0.986435
0.986458 0.986458 0.986458
0.986482 0.986482 0.986482
0.986505 0.986505 0.986505
0.986528 0.986528 0.986528
0.986551 0.986551 0.986551
0.986574 0.986574 0.986574
0.986597 0.986597 0.986597
0.986620 0.986620 0.986620
0.986642 0.986642 0.986642
0.986665 0.986665 0.986665
0.986687 0.986687 0.986687
0.986710 0.986710 0.986710
0.986733 0.986733 0.986733
0.986755 0.986755 0.986755
0.986777 0.986777 0.986777
0.986799 0.986799 0.986799
0.986821 0.986821 0.986821
0.986843 0.986843 0.986843
0.986864 0.986864 0.986864
0.986886 0.986886 0.986886
0.986908 0.986908 0.986908
0.986929 0.986929 0.986929
0.986950 0.986950 0.986950
0.986972 0.986972 0.986972
0.986993 0.986993 0.986993
0.987014 0.987014 0.987014
0.987035 0.987035 0.987035
0.987056 0.987056 0.987056
0.987076 0.987076 0.987076
0.987097 0.987097 0.987097
0.987118 0.987118 0.987118
0.987138 0.987138 0.987138
0.987159 0.987159 0.987159
0.987179 0.987179 0.987179
0.987199 0.987199 0.987199
0.987219 0.987219 0.987219
0.987240 0.987240 0.987240
0.987260 0.987260 0.987260
0.987279 0.987279 0.987279
0.987299 0.987299 0.987299
0.987319 0.987319 0.987319
0.987339 0.987339 0.987339
0.987358 0.987358 0.987358
0.987378 0.987378 0.987378
0.987397 0.987397 0.987397
0.987417 0.987417 0.987417
0.987436 0.987436 0.987436
0.987455 0.987455 0.987455
0.987474 0.987474 0.987474
0.987493 0.987493 0.987493
0.987512 0.987512 0.987512
0.987531 0.987531 0.987531
0.987550 0.987550 0.987550
0.987569 0.987569 0.987569
0.987587 0.987587 0.987587
0.987606 0.987606 0.987606
0.987624 0.987624 0.987624
0.987643 0.987643 0.987643
0.987661 0.987661 0.987661
0.987679 0.987679 0.987679
0.987697 0.987697 0.987697
0.987716 0.987716 0.987716
0.987734 0.987734 0.987734
0.987752 0.987752 0.987752
0.987769 0.987769 0.987769
0.987787 0.987787 0.987787
0.987805 0.987805 0.987805
0.987823 0.987823 0.987823
0.987840 0.987840 0.987840
0.987858 0.987858 0.987858
0.987875 0.987875 0.987875
0.987893 0.987893 0.987893
0.987910 0.987910 0.987910
0.987927 0.987927 0.987927
0.987944 0.987944 0.987944
0.987962 0.987962 0.987962
0.987979 0.987979 0.987979
0.987996 0.987996 0.987996
0.988013 0.988013 0.988013
0.988029 0.988029 0.988029
0.988046 0.988046 0.988046
0.988063 0.988063 0.988063
0.988080 0.988080 0.988080
0.988096 0.988096 0.988096
0.988113 0.988113 0.988113
0.988129 0.988129 0.988129
0.988145 0.988145 0.988145
0.988162 0.988162 0.988162
0.988178 0.988178 0.988178
0.988194 0.988194 0.988194
0.988210 0.988210 0.988210
0.988226 0.988226 0.988226
0.988242 0.988242 0.988242
0.988258 0.988258 0.988258
0.988274 0.988274 0.988274
0.988290 0.988290 0.988290
0.988306 0.988306 0.988306
0.988321 0.988321 0.988321
0.988337 0.988337 0.988337
0.988353 0.988353 0.988353
0.988368 0.988368 0.988368
0.988384 0.988384 0.988384
0.988399 0.988399 0.988399
0.988414 0.988414 0.988414
0.988430 0.988430 0.988430
0.988445 0.988445 0.988445
0.988460 0.988460 0.988460
0.988475 0.988475 0.988475
0.988490 0.988490 0.988490
0.988505 0.988505 0.988505
0.988520 0.988520 0.988520
0.988535 0.988535 0.988535
0.988550 0.988550 0.988550
0.988564 0.988564 0.988564
0.988579 0.988579 0.988579
0.988594 0.988594 0.988594
0.988608 0.988608 0.988608
0.988623 0.988623 0.988623
0.988637 0.988637 0.988637
0.988652 0.988652 0.988652
0.988666 0.988666 0.988666
0.988681 0.988681 0.988681
0.988695 0.988695 0.988695
0.988709 0.988709 0.988709
0.988723 0.988723 0.988723
0.988737 0.988737 0.988737
0.988751 0.988751 0.988751
0.988765 0.988765 0.988765
0.988779 0.988779 0.988779
0.988793 0.988793 0.988793
0.988807 0.988807 0.988807
0.988821 0.988821 0.988821
0.988835 0.988835 0.988835
0.988848 0.988848 0.988848
0.988862 0.988862 0.988862
0.988876 0.988876 0.988876
0.988889 0.988889 0.988889
0.988903 0.988903 0.988903
0.988916 0.988916 0.988916
0.988929 0.988929 0.988929
0.988943 0.988943 0.988943
0.988956 0.988956 0.988956
0.988969 0.988969 0.988969
0.988982 0.988982 0.988982
0.988996 0.988996 0.988996
0.989009 0.989009 0.989009
0.989022 0.989022 0.989022
0.989035 0.989035 0.989035
0.989048 0.989048 0.989048
0.989061 0.989061 0.989061
0.989074 0.989074 0.989074
0.989086 0.989086 0.989086
0.989099 0.989099 0.989099
0.989112 0.989112 0.989112
0.989125 0.989125 0.989125
0.989137 0.989137 0.989137
0.989150 0.989150 0.989150
0.989162 0.989162 0.989162
0.989175 0.989175 0.989175
0.989187 0.989187 0.989187
0.989200 0.989200 0.989200
0.989212 0.989212 0.989212
0.989224 0.989224 0.989224
0.989237 0.989237 0.989237
0.989249 0.989249 0.989249
0.989261 0.989261 0.989261
0.989273 0.989273 0.989273
0.989285 0.989285 0.989285
0.989298 0.989298 0.989298
0.989310 0.989310 0.989310
0.989322 0.989322 0.989322
0.989333 0.989333 0.989333
0.989345 0.989345 0.989345
0.989357 0.989357 0.989357
0.989369 0.989369 0.989369
0.989381 0.989381 0.989381
0.989393 0.989393 0.989393
0.989404 0.989404 0.989404
0.989416 0.989416 0.989416
0.989428 0.989428 0.989428
0.989439 0.989439 0.989439
0.989451 0.989451 0.989451
0.989462 0.989462 0.989462
0.989474 0.989474 0.989474
0.989485 0.989485 0.989485
0.989496 0.989496 0.989496
0.989508 0.989508 0.989508
0.989519 0.989519 0.989519
0.989530 0.989530 0.989530
0.989542 0.989542 0.989542
0.989553 0.989553 0.989553
0.989564 0.989564 0.989564
0.989575 0.989575 0.989575
0.989586 0.989586 0.989586
0.989597 0.989597 0.989597
0.989608 0.989608 0.989608
0.989619 0.989619 0.989619
0.989630 0.989630 0.989630
0.989641 0.989641 0.989641
0.989652 0.989652 0.989652
0.989663 0.989663 0.989663
0.989673 0.989673 0.989673
0.989684 0.989684 0.989684
0.989695 0.989695 0.989695
0.989706 0.989706 0.989706
0.989716 0.989716 0.989716
0.989727 0.989727 0.989727
0.989737 0.989737 0.989737
0.989748 0.989748 0.989748
0.989758 0.989758 0.989758
0.989769 0.989769 0.989769
0.989779 0.989779 0.989779
0.989790 0.989790 0.989790
0.989800 0.989800 0.989800
0.989810 0.989810 0.989810
0.989821 0.989821 0.989821
0.989831 0.989831 0.989831
0.989841 0.989841 0.989841
0.989851 0.989851 0.989851
0.989861 0.989861 0.989861
0.989872 0.989872 0.989872
0.989882 0.989882 0.989882
0.989892 0.989892 0.989892
0.989902 0.989902 0.989902
0.989912 0.989912 0.989912
0.989922 0.989922 0.989922
0.989932 0.989932 0.989932
0.989942 0.989942 0.989942
0.989951 0.989951 0.989951
0.989961 0.989961 0.989961
0.989971 0.989971 0.989971
0.989981 0.989981 0.989981
0.989991 0.989991 0.989991
0.990000 0.990000 0.990000
0.990010 0.990010 0.990010
0.990020 0.990020 0.990020
0.990029 0.990029 0.990029
0.990039 0.990039 0.990039
0.990048 0.990048 0.990048
0.990058 0.990058 0.990058
0.990067 0.990067 0.990067
0.990077 0.990077 0.990077
0.990086 0.990086 0.990086
0.990096 0.990096 0.990096
0.990105 0.990105 0.990105
0.990114 0.990114 0.990114
0.990124 0.990124 0.990124
0.990133 0.990133 0.990133
0.990142 0.990142 0.990142
0.990152 0.990152 0.990152
0.990161 0.990161 0.990161
0.990170 0.990170 0.990170
0.990179 0.990179 0.990179
0.990188 0.990188 0.990188
0.990197 0.990197 0.990197
0.990206 0.990206 0.990206
