lut/AlexaV3_EI0160_WYSIWYG_EE_nuke1d.cube
# Alexa conversion LUT, lin2video. Full in/full out.
# created by alexalutconv (2.02)

LUT_1D_SIZE 4096
0.000000 0.000000 0.000000
0.000000 0.000000 0.000000
0.000000 0.000000 0.000000
0.000000 0.000000 0.000000
0.000000 0.000000 0.000000
0.000000 0.000000 0.000000
0.000000 0.000000 0.000000
0.000000 0.000000 0.000000
0.000000 0.000000 0.000000
0.000000 0.000000 0.000000
0.000000 0.000000 0.000000
0.000000 0.000000 0.000000
0.000000 0.000000 0.000000
0.000000 0.000000 0.000000
0.004341 0.004341 0.004341
0.009561 0.009561 0.009561
0.015033 0.015033 0.015033
0.020780 0.020780 0.020780
0.026819 0.026819 0.026819
0.033178 0.033178 0.033178
0.039952 0.039952 0.039952
0.046950 0.046950 0.046950
0.054160 0.054160 0.054160
0.061425 0.061425 0.061425
0.068355 0.068355 0.068355
0.074978 0.074978 0.074978
0.081335 0.081335 0.081335
0.087460 0.087460 0.087460
0.093377 0.093377 0.093377
0.099109 0.099109 0.099109
0.104674 0.104674 0.104674
0.110085 0.110085 0.110085
0.115358 0.115358 0.115358
0.120501 0.120501 0.120501
0.125525 0.125525 0.125525
0.130438 0.130438 0.130438
0.135247 0.135247 0.135247
0.139959 0.139959 0.139959
0.144580 0.144580 0.144580
0.149116 0.149116 0.149116
0.153569 0.153569 0.153569
0.157946 0.157946 0.157946
0.162251 0.162251 0.162251
0.166492 0.166492 0.166492
0.170737 0.170737 0.170737
0.174994 0.174994 0.174994
0.179255 0.179255 0.179255
0.183514 0.183514 0.183514
0.187765 0.187765 0.187765
0.192002 0.192002 0.192002
0.196221 0.196221 0.196221
0.200419 0.200419 0.200419
0.204594 0.204594 0.204594
0.208740 0.208740 0.208740
0.212859 0.212859 0.212859
0.216946 0.216946 0.216946
0.221000 0.221000 0.221000
0.225021 0.225021 0.225021
0.229006 0.229006 0.229006
0.232955 0.232955 0.232955
0.236868 0.236868 0.236868
0.240743 0.240743 0.240743
0.244582 0.244582 0.244582
0.248381 0.248381 0.248381
0.252143 0.252143 0.252143
0.255867 0.255867 0.255867
0.259551 0.259551 0.259551
0.263197 0.263197 0.263197
0.266806 0.266806 0.266806
0.270376 0.270376 0.270376
0.273908 0.273908 0.273908
0.277402 0.277402 0.277402
0.280858 0.280858 0.280858
0.284277 0.284277 0.284277
0.287659 0.287659 0.287659
0.291004 0.291004 0.291004
0.294313 0.294313 0.294313
0.297586 0.297586 0.297586
0.300822 0.300822 0.300822
0.304024 0.304024 0.304024
0.307191 0.307191 0.307191
0.310323 0.310323 0.310323
0.313421 0.313421 0.313421
0.316485 0.316485 0.316485
0.319515 0.319515 0.319515
0.322513 0.322513 0.322513
0.325478 0.325478 0.325478
0.328410 0.328410 0.328410
0.331311 0.331311 0.331311
0.334181 0.334181 0.334181
0.337019 0.337019 0.337019
0.339827 0.339827 0.339827
0.342605 0.342605 0.342605
0.345353 0.345353 0.345353
0.348071 0.348071 0.348071
0.350761 0.350761 0.350761
0.353422 0.353422 0.353422
0.356054 0.356054 0.356054
0.358659 0.358659 0.358659
0.361236 0.361236 0.361236
0.363786 0.363786 0.363786
0.366309 0.366309 0.366309
0.368806 0.368806 0.368806
0.371277 0.371277 0.371277
0.373722 0.373722 0.373722
0.376141 0.376141 0.376141
0.378536 0.378536 0.378536
0.380905 0.380905 0.380905
0.383251 0.383251 0.383251
0.385572 0.385572 0.385572
0.387869 0.387869 0.387869
0.390143 0.390143 0.390143
0.392394 0.392394 0.392394
0.394622 0.394622 0.394622
0.396828 0.396828 0.396828
0.399011 0.399011 0.399011
0.401173 0.401173 0.401173
0.403312 0.403312 0.403312
0.405431 0.405431 0.405431
0.407528 0.407528 0.407528
0.409606 0.409606 0.409606
0.411667 0.411667 0.411667
0.413708 0.413708 0.413708
0.415732 0.415732 0.415732
0.417737 0.417737 0.417737
0.419725 0.419725 0.419725
0.421696 0.421696 0.421696
0.423650 0.423650 0.423650
0.425588 0.425588 0.425588
0.427508 0.427508 0.427508
0.429414 0.429414 0.429414
0.431303 0.431303 0.431303
0.433177 0.433177 0.433177
0.435036 0.435036 0.435036
0.436879 0.436879 0.436879
0.438708 0.438708 0.438708
0.440522 0.440522 0.440522
0.442322 0.442322 0.442322
0.444107 0.444107 0.444107
0.445879 0.445879 0.445879
0.447637 0.447637 0.447637
0.449381 0.449381 0.449381
0.451112 0.451112 0.451112
0.452830 0.452830 0.452830
0.454535 0.454535 0.454535
0.456227 0.456227 0.456227
0.457907 0.457907 0.457907
0.459574 0.459574 0.459574
0.461230 0.461230 0.461230
0.462872 0.462872 0.462872
0.464503 0.464503 0.464503
0.466123 0.466123 0.466123
0.467730 0.467730 0.467730
0.469327 0.469327 0.469327
0.470913 0.470913 0.470913
0.472486 0.472486 0.472486
0.474050 0.474050 0.474050
0.475603 0.475603 0.475603
0.477144 0.477144 0.477144
0.478676 0.478676 0.478676
0.480196 0.480196 0.480196
0.481707 0.481707 0.481707
0.483208 0.483208 0.483208
0.484698 0.484698 0.484698
0.486180 0.486180 0.486180
0.487650 0.487650 0.487650
0.489112 0.489112 0.489112
0.490564 0.490564 0.490564
0.492006 0.492006 0.492006
0.493440 0.493440 0.493440
0.494864 0.494864 0.494864
0.496280 0.496280 0.496280
0.497686 0.497686 0.497686
0.499083 0.499083 0.499083
0.500472 0.500472 0.500472
0.501852 0.501852 0.501852
0.503224 0.503224 0.503224
0.504588 0.504588 0.504588
0.505942 0.505942 0.505942
0.507289 0.507289 0.507289
0.508628 0.508628 0.508628
0.509959 0.509959 0.509959
0.511281 0.511281 0.511281
0.512597 0.512597 0.512597
0.513903 0.513903 0.513903
0.515203 0.515203 0.515203
0.516495 0.516495 0.516495
0.517779 0.517779 0.517779
0.519057 0.519057 0.519057
0.520326 0.520326 0.520326
0.521589 0.521589 0.521589
0.522844 0.522844 0.522844
0.524093 0.524093 0.524093
0.525333 0.525333 0.525333
0.526567 0.526567 0.526567
0.527795 0.527795 0.527795
0.529016 0.529016 0.529016
0.530229 0.530229 0.530229
0.531437 0.531437 0.531437
0.532637 0.532637 0.532637
0.533832 0.533832 0.533832
0.535019 0.535019 0.535019
0.536201 0.536201 0.536201
0.537376 0.537376 0.537376
0.538544 0.538544 0.538544
0.539707 0.539707 0.539707
0.540864 0.540864 0.540864
0.542014 0.542014 0.542014
0.543159 0.543159 0.543159
0.544297 0.544297 0.544297
0.545429 0.545429 0.545429
0.546557 0.546557 0.546557
0.547677 0.547677 0.547677
0.548792 0.548792 0.548792
0.549903 0.549903 0.549903
0.551006 0.551006 0.551006
0.552104 0.552104 0.552104
0.553198 0.553198 0.553198
0.554285 0.554285 0.554285
0.555367 0.555367 0.555367
0.556444 0.556444 0.556444
0.557516 0.557516 0.557516
0.558582 0.558582 0.558582
0.559643 0.559643 0.559643
0.560699 0.560699 0.560699
0.561749 0.561749 0.561749
0.562795 0.562795 0.562795
0.563836 0.563836 0.563836
0.564872 0.564872 0.564872
0.565902 0.565902 0.565902
0.566929 0.566929 0.566929
0.567950 0.567950 0.567950
0.568966 0.568966 0.568966
0.569977 0.569977 0.569977
0.570985 0.570985 0.570985
0.571987 0.571987 0.571987
0.572984 0.572984 0.572984
0.573977 0.573977 0.573977
0.574966 0.574966 0.574966
0.575950 0.575950 0.575950
0.576929 0.576929 0.576929
0.577904 0.577904 0.577904
0.578875 0.578875 0.578875
0.579842 0.579842 0.579842
0.580803 0.580803 0.580803
0.581761 0.581761 0.581761
0.582715 0.582715 0.582715
0.583664 0.583664 0.583664
0.584609 0.584609 0.584609
0.585550 0.585550 0.585550
0.586488 0.586488 0.586488
0.587420 0.587420 0.587420
0.588349 0.588349 0.588349
0.589274 0.589274 0.589274
0.590195 0.590195 0.590195
0.591112 0.591112 0.591112
0.592025 0.592025 0.592025
0.592934 0.592934 0.592934
0.593839 0.593839 0.593839
0.594741 0.594741 0.594741
0.595639 0.595639 0.595639
0.596532 0.596532 0.596532
0.597422 0.597422 0.597422
0.598310 0.598310 0.598310
0.599192 0.599192 0.599192
0.600071 0.600071 0.600071
0.600947 0.600947 0.600947
0.601819 0.601819 0.601819
0.602688 0.602688 0.602688
0.603553 0.603553 0.603553
0.604414 0.604414 0.604414
0.605272 0.605272 0.605272
0.606126 0.606126 0.606126
0.606978 0.606978 0.606978
0.607826 0.607826 0.607826
0.608670 0.608670 0.608670
0.609511 0.609511 0.609511
0.610348 0.610348 0.610348
0.611183 0.611183 0.611183
0.612015 0.612015 0.612015
0.612842 0.612842 0.612842
0.613667 0.613667 0.613667
0.614488 0.614488 0.614488
0.615306 0.615306 0.615306
0.616122 0.616122 0.616122
0.616934 0.616934 0.616934
0.617743 0.617743 0.617743
0.618549 0.618549 0.618549
0.619351 0.619351 0.619351
0.620151 0.620151 0.620151
0.620949 0.620949 0.620949
0.621742 0.621742 0.621742
0.622533 0.622533 0.622533
0.623320 0.623320 0.623320
0.624105 0.624105 0.624105
0.624887 0.624887 0.624887
0.625667 0.625667 0.625667
0.626443 0.626443 0.626443
0.627216 0.627216 0.627216
0.627987 0.627987 0.627987
0.628754 0.628754 0.628754
0.629519 0.629519 0.629519
0.630281 0.630281 0.630281
0.631041 0.631041 0.631041
0.631798 0.631798 0.631798
0.632551 0.632551 0.632551
0.633302 0.633302 0.633302
0.634051 0.634051 0.634051
0.634797 0.634797 0.634797
0.635541 0.635541 0.635541
0.636281 0.636281 0.636281
0.637019 0.637019 0.637019
0.637754 0.637754 0.637754
0.638487 0.638487 0.638487
0.639217 0.639217 0.639217
0.639945 0.639945 0.639945
0.640671 0.640671 0.640671
0.641393 0.641393 0.641393
0.642113 0.642113 0.642113
0.642831 0.642831 0.642831
0.643546 0.643546 0.643546
0.644258 0.644258 0.644258
0.644969 0.644969 0.644969
0.645678 0.645678 0.645678
0.646383 0.646383 0.646383
0.647086 0.647086 0.647086
0.647787 0.647787 0.647787
0.648485 0.648485 0.648485
0.649181 0.649181 0.649181
0.649875 0.649875 0.649875
0.650566 0.650566 0.650566
0.651256 0.651256 0.651256
0.651943 0.651943 0.651943
0.652627 0.652627 0.652627
0.653309 0.653309 0.653309
0.653989 0.653989 0.653989
0.654667 0.654667 0.654667
0.655343 0.655343 0.655343
0.656016 0.656016 0.656016
0.656688 0.656688 0.656688
0.657357 0.657357 0.657357
0.658024 0.658024 0.658024
0.658689 0.658689 0.658689
0.659351 0.659351 0.659351
0.660012 0.660012 0.660012
0.660670 0.660670 0.660670
0.661326 0.661326 0.661326
0.661981 0.661981 0.661981
0.662633 0.662633 0.662633
0.663284 0.663284 0.663284
0.663932 0.663932 0.663932
0.664578 0.664578 0.664578
0.665222 0.665222 0.665222
0.665864 0.665864 0.665864
0.666503 0.666503 0.666503
0.667141 0.667141 0.667141
0.667778 0.667778 0.667778
0.668412 0.668412 0.668412
0.669044 0.669044 0.669044
0.669674 0.669674 0.669674
0.670303 0.670303 0.670303
0.670929 0.670929 0.670929
0.671553 0.671553 0.671553
0.672176 0.672176 0.672176
0.672796 0.672796 0.672796
0.673416 0.673416 0.673416
0.674032 0.674032 0.674032
0.674647 0.674647 0.674647
0.675261 0.675261 0.675261
0.675872 0.675872 0.675872
0.676482 0.676482 0.676482
0.677089 0.677089 0.677089
0.677695 0.677695 0.677695
0.678299 0.678299 0.678299
0.678902 0.678902 0.678902
0.679502 0.679502 0.679502
0.680101 0.680101 0.680101
0.680699 0.680699 0.680699
0.681294 0.681294 0.681294
0.681887 0.681887 0.681887
0.682479 0.682479 0.682479
0.683069 0.683069 0.683069
0.683657 0.683657 0.683657
0.684244 0.684244 0.684244
0.684830 0.684830 0.684830
0.685413 0.685413 0.685413
0.685994 0.685994 0.685994
0.686574 0.686574 0.686574
0.687153 0.687153 0.687153
0.687730 0.687730 0.687730
0.688305 0.688305 0.688305
0.688878 0.688878 0.688878
0.689450 0.689450 0.689450
0.690020 0.690020 0.690020
0.690589 0.690589 0.690589
0.691156 0.691156 0.691156
0.691721 0.691721 0.691721
0.692285 0.692285 0.692285
0.692847 0.692847 0.692847
0.693409 0.693409 0.693409
0.693968 0.693968 0.693968
0.694525 0.694525 0.694525
0.695081 0.695081 0.695081
0.695636 0.695636 0.695636
0.696189 0.696189 0.696189
0.696740 0.696740 0.696740
0.697290 0.697290 0.697290
0.697839 0.697839 0.697839
0.698386 0.698386 0.698386
0.698931 0.698931 0.698931
0.699475 0.699475 0.699475
0.700018 0.700018 0.700018
0.700559 0.700559 0.700559
0.701099 0.701099 0.701099
0.701637 0.701637 0.701637
0.702174 0.702174 0.702174
0.702709 0.702709 0.702709
0.703243 0.703243 0.703243
0.703776 0.703776 0.703776
0.704307 0.704307 0.704307
0.704837 0.704837 0.704837
0.705365 0.705365 0.705365
0.705892 0.705892 0.705892
0.706418 0.706418 0.706418
0.706942 0.706942 0.706942
0.707465 0.707465 0.707465
0.707986 0.707986 0.707986
0.708506 0.708506 0.708506
0.709025 0.709025 0.709025
0.709542 0.709542 0.709542
0.710058 0.710058 0.710058
0.710573 0.710573 0.710573
0.711086 0.711086 0.711086
0.711598 0.711598 0.711598
0.712109 0.712109 0.712109
0.712618 0.712618 0.712618
0.713127 0.713127 0.713127
0.713634 0.713634 0.713634
0.714139 0.714139 0.714139
0.714643 0.714643 0.714643
0.715146 0.715146 0.715146
0.715648 0.715648 0.715648
0.716149 0.716149 0.716149
0.716648 0.716648 0.716648
0.717146 0.717146 0.717146
0.717643 0.717643 0.717643
0.718138 0.718138 0.718138
0.718632 0.718632 0.718632
0.719125 0.719125 0.719125
0.719617 0.719617 0.719617
0.720108 0.720108 0.720108
0.720597 0.720597 0.720597
0.721085 0.721085 0.721085
0.721572 0.721572 0.721572
0.722058 0.722058 0.722058
0.722542 0.722542 0.722542
0.723026 0.723026 0.723026
0.723509 0.723509 0.723509
0.723990 0.723990 0.723990
0.724469 0.724469 0.724469
0.724948 0.724948 0.724948
0.725425 0.725425 0.725425
0.725902 0.725902 0.725902
0.726377 0.726377 0.726377
0.726851 0.726851 0.726851
0.727324 0.727324 0.727324
0.727796 0.727796 0.727796
0.728267 0.728267 0.728267
0.728736 0.728736 0.728736
0.729205 0.729205 0.729205
0.729672 0.729672 0.729672
0.730138 0.730138 0.730138
0.730603 0.730603 0.730603
0.731068 0.731068 0.731068
0.731531 0.731531 0.731531
0.731992 0.731992 0.731992
0.732453 0.732453 0.732453
0.732913 0.732913 0.732913
0.733371 0.733371 0.733371
0.733829 0.733829 0.733829
0.734285 0.734285 0.734285
0.734741 0.734741 0.734741
0.735195 0.735195 0.735195
0.735649 0.735649 0.735649
0.736101 0.736101 0.736101
0.736552 0.736552 0.736552
0.737002 0.737002 0.737002
0.737451 0.737451 0.737451
0.737899 0.737899 0.737899
0.738346 0.738346 0.738346
0.738793 0.738793 0.738793
0.739238 0.739238 0.739238
0.739682 0.739682 0.739682
0.740125 0.740125 0.740125
0.740567 0.740567 0.740567
0.741008 0.741008 0.741008
0.741447 0.741447 0.741447
0.741886 0.741886 0.741886
0.742325 0.742325 0.742325
0.742762 0.742762 0.742762
0.743198 0.743198 0.743198
0.743633 0.743633 0.743633
0.744067 0.744067 0.744067
0.744500 0.744500 0.744500
0.744933 0.744933 0.744933
0.745364 0.745364 0.745364
0.745794 0.745794 0.745794
0.746223 0.746223 0.746223
0.746652 0.746652 0.746652
0.747080 0.747080 0.747080
0.747506 0.747506 0.747506
0.747932 0.747932 0.747932
0.748356 0.748356 0.748356
0.748780 0.748780 0.748780
0.749203 0.749203 0.749203
0.749624 0.749624 0.749624
0.750045 0.750045 0.750045
0.750466 0.750466 0.750466
0.750885 0.750885 0.750885
0.751303 0.751303 0.751303
0.751721 0.751721 0.751721
0.752137 0.752137 0.752137
0.752552 0.752552 0.752552
0.752967 0.752967 0.752967
0.753380 0.753380 0.753380
0.753793 0.753793 0.753793
0.754205 0.754205 0.754205
0.754617 0.754617 0.754617
0.755027 0.755027 0.755027
0.755437 0.755437 0.755437
0.755845 0.755845 0.755845
0.756252 0.756252 0.756252
0.756659 0.756659 0.756659
0.757065 0.757065 0.757065
0.757470 0.757470 0.757470
0.757874 0.757874 0.757874
0.758277 0.758277 0.758277
0.758680 0.758680 0.758680
0.759082 0.759082 0.759082
0.759483 0.759483 0.759483
0.759883 0.759883 0.759883
0.760282 0.760282 0.760282
0.760680 0.760680 0.760680
0.761078 0.761078 0.761078
0.761474 0.761474 0.761474
0.761870 0.761870 0.761870
0.762265 0.762265 0.762265
0.762659 0.762659 0.762659
0.763053 0.763053 0.763053
0.763445 0.763445 0.763445
0.763838 0.763838 0.763838
0.764229 0.764229 0.764229
0.764619 0.764619 0.764619
0.765008 0.765008 0.765008
0.765397 0.765397 0.765397
0.765784 0.765784 0.765784
0.766171 0.766171 0.766171
0.766558 0.766558 0.766558
0.766943 0.766943 0.766943
0.767328 0.767328 0.767328
0.767712 0.767712 0.767712
0.768095 0.768095 0.768095
0.768478 0.768478 0.768478
0.768859 0.768859 0.768859
0.769240 0.769240 0.769240
0.769620 0.769620 0.769620
0.769999 0.769999 0.769999
0.770378 0.770378 0.770378
0.770756 0.770756 0.770756
0.771133 0.771133 0.771133
0.771509 0.771509 0.771509
0.771885 0.771885 0.771885
0.772260 0.772260 0.772260
0.772634 0.772634 0.772634
0.773008 0.773008 0.773008
0.773380 0.773380 0.773380
0.773752 0.773752 0.773752
0.774123 0.774123 0.774123
0.774494 0.774494 0.774494
0.774863 0.774863 0.774863
0.775232 0.775232 0.775232
0.775600 0.775600 0.775600
0.775968 0.775968 0.775968
0.776335 0.776335 0.776335
0.776701 0.776701 0.776701
0.777067 0.777067 0.777067
0.777432 0.777432 0.777432
0.777796 0.777796 0.777796
0.778159 0.778159 0.778159
0.778522 0.778522 0.778522
0.778884 0.778884 0.778884
0.779245 0.779245 0.779245
0.779605 0.779605 0.779605
0.779965 0.779965 0.779965
0.780324 0.780324 0.780324
0.780683 0.780683 0.780683
0.781041 0.781041 0.781041
0.781398 0.781398 0.781398
0.781754 0.781754 0.781754
0.782110 0.782110 0.782110
0.782466 0.782466 0.782466
0.782820 0.782820 0.782820
0.783174 0.783174 0.783174
0.783527 0.783527 0.783527
0.783880 0.783880 0.783880
0.784231 0.784231 0.784231
0.784583 0.784583 0.784583
0.784933 0.784933 0.784933
0.785283 0.785283 0.785283
0.785632 0.785632 0.785632
0.785980 0.785980 0.785980
0.786329 0.786329 0.786329
0.786676 0.786676 0.786676
0.787023 0.787023 0.787023
0.787369 0.787369 0.787369
0.787714 0.787714 0.787714
0.788059 0.788059 0.788059
0.788403 0.788403 0.788403
0.788746 0.788746 0.788746
0.789089 0.789089 0.789089
0.789431 0.789431 0.789431
0.789773 0.789773 0.789773
0.790114 0.790114 0.790114
0.790454 0.790454 0.790454
0.790794 0.790794 0.790794
0.791133 0.791133 0.791133
0.791471 0.791471 0.791471
0.791809 0.791809 0.791809
0.792147 0.792147 0.792147
0.792483 0.792483 0.792483
0.792819 0.792819 0.792819
0.793155 0.793155 0.793155
0.793489 0.793489 0.793489
0.793824 0.793824 0.793824
0.794157 0.794157 0.794157
0.794490 0.794490 0.794490
0.794823 0.794823 0.794823
0.795154 0.795154 0.795154
0.795486 0.795486 0.795486
0.795816 0.795816 0.795816
0.796147 0.796147 0.796147
0.796476 0.796476 0.796476
0.796805 0.796805 0.796805
0.797133 0.797133 0.797133
0.797461 0.797461 0.797461
0.797788 0.797788 0.797788
0.798115 0.798115 0.798115
0.798441 0.798441 0.798441
0.798767 0.798767 0.798767
0.799091 0.799091 0.799091
0.799416 0.799416 0.799416
0.799739 0.799739 0.799739
0.800062 0.800062 0.800062
0.800385 0.800385 0.800385
0.800707 0.800707 0.800707
0.801029 0.801029 0.801029
0.801349 0.801349 0.801349
0.801670 0.801670 0.801670
0.801989 0.801989 0.801989
0.802309 0.802309 0.802309
0.802628 0.802628 0.802628
0.802946 0.802946 0.802946
0.803264 0.803264 0.803264
0.803581 0.803581 0.803581
0.803897 0.803897 0.803897
0.804213 0.804213 0.804213
0.804529 0.804529 0.804529
0.804844 0.804844 0.804844
0.805158 0.805158 0.805158
0.805472 0.805472 0.805472
0.805785 0.805785 0.805785
0.806098 0.806098 0.806098
0.806411 0.806411 0.806411
0.806722 0.806722 0.806722
0.807033 0.807033 0.807033
0.807344 0.807344 0.807344
0.807654 0.807654 0.807654
0.807963 0.807963 0.807963
0.808272 0.808272 0.808272
0.808581 0.808581 0.808581
0.808889 0.808889 0.808889
0.809197 0.809197 0.809197
0.809504 0.809504 0.809504
0.809811 0.809811 0.809811
0.810117 0.810117 0.810117
0.810422 0.810422 0.810422
0.810727 0.810727 0.810727
0.811031 0.811031 0.811031
0.811335 0.811335 0.811335
0.811639 0.811639 0.811639
0.811942 0.811942 0.811942
0.812244 0.812244 0.812244
0.812546 0.812546 0.812546
0.812848 0.812848 0.812848
0.813149 0.813149 0.813149
0.813450 0.813450 0.813450
0.813750 0.813750 0.813750
0.814049 0.814049 0.814049
0.814348 0.814348 0.814348
0.814646 0.814646 0.814646
0.814944 0.814944 0.814944
0.815242 0.815242 0.815242
0.815539 0.815539 0.815539
0.815835 0.815835 0.815835
0.816132 0.816132 0.816132
0.816427 0.816427 0.816427
0.816722 0.816722 0.816722
0.817016 0.817016 0.817016
0.817310 0.817310 0.817310
0.817602 0.817602 0.817602
0.817894 0.817894 0.817894
0.818185 0.818185 0.818185
0.818476 0.818476 0.818476
0.818765 0.818765 0.818765
0.819054 0.819054 0.819054
0.819343 0.819343 0.819343
0.819630 0.819630 0.819630
0.819917 0.819917 0.819917
0.820204 0.820204 0.820204
0.820490 0.820490 0.820490
0.820775 0.820775 0.820775
0.821059 0.821059 0.821059
0.821342 0.821342 0.821342
0.821625 0.821625 0.821625
0.821907 0.821907 0.821907
0.822189 0.822189 0.822189
0.822469 0.822469 0.822469
0.822749 0.822749 0.822749
0.823029 0.823029 0.823029
0.823307 0.823307 0.823307
0.823585 0.823585 0.823585
0.823864 0.823864 0.823864
0.824140 0.824140 0.824140
0.824417 0.824417 0.824417
0.824692 0.824692 0.824692
0.824967 0.824967 0.824967
0.825241 0.825241 0.825241
0.825514 0.825514 0.825514
0.825787 0.825787 0.825787
0.826059 0.826059 0.826059
0.826331 0.826331 0.826331
0.826602 0.826602 0.826602
0.826872 0.826872 0.826872
0.827142 0.827142 0.827142
0.827411 0.827411 0.827411
0.827679 0.827679 0.827679
0.827948 0.827948 0.827948
0.828215 0.828215 0.828215
0.828481 0.828481 0.828481
0.828747 0.828747 0.828747
0.829012 0.829012 0.829012
0.829277 0.829277 0.829277
0.829541 0.829541 0.829541
0.829804 0.829804 0.829804
0.830067 0.830067 0.830067
0.830329 0.830329 0.830329
0.830591 0.830591 0.830591
0.830851 0.830851 0.830851
0.831112 0.831112 0.831112
0.831372 0.831372 0.831372
0.831631 0.831631 0.831631
0.831890 0.831890 0.831890
0.832148 0.832148 0.832148
0.832405 0.832405 0.832405
0.832662 0.832662 0.832662
0.832918 0.832918 0.832918
0.833174 0.833174 0.833174
0.833429 0.833429 0.833429
0.833683 0.833683 0.833683
0.833937 0.833937 0.833937
0.834190 0.834190 0.834190
0.834443 0.834443 0.834443
0.834695 0.834695 0.834695
0.834947 0.834947 0.834947
0.835198 0.835198 0.835198
0.835448 0.835448 0.835448
0.835698 0.835698 0.835698
0.835948 0.835948 0.835948
0.836197 0.836197 0.836197
0.836445 0.836445 0.836445
0.836692 0.836692 0.836692
0.836939 0.836939 0.836939
0.837186 0.837186 0.837186
0.837432 0.837432 0.837432
0.837677 0.837677 0.837677
0.837922 0.837922 0.837922
0.838166 0.838166 0.838166
0.838410 0.838410 0.838410
0.838653 0.838653 0.838653
0.838895 0.838895 0.838895
0.839137 0.839137 0.839137
0.839379 0.839379 0.839379
0.839620 0.839620 0.839620
0.839860 0.839860 0.839860
0.840101 0.840101 0.840101
0.840341 0.840341 0.840341
0.840579 0.840579 0.840579
0.840818 0.840818 0.840818
0.841056 0.841056 0.841056
0.841293 0.841293 0.841293
0.841529 0.841529 0.841529
0.841766 0.841766 0.841766
0.842001 0.842001 0.842001
0.842237 0.842237 0.842237
0.842471 0.842471 0.842471
0.842705 0.842705 0.842705
0.842939 0.842939 0.842939
0.843172 0.843172 0.843172
0.843405 0.843405 0.843405
0.843637 0.843637 0.843637
0.843868 0.843868 0.843868
0.844100 0.844100 0.844100
0.844330 0.844330 0.844330
0.844560 0.844560 0.844560
0.844791 0.844791 0.844791
0.845020 0.845020 0.845020
0.845248 0.845248 0.845248
0.845476 0.845476 0.845476
0.845704 0.845704 0.845704
0.845931 0.845931 0.845931
0.846158 0.846158 0.846158
0.846384 0.846384 0.846384
0.846609 0.846609 0.846609
0.846835 0.846835 0.846835
0.847059 0.847059 0.847059
0.847283 0.847283 0.847283
0.847507 0.847507 0.847507
0.847730 0.847730 0.847730
0.847953 0.847953 0.847953
0.848175 0.848175 0.848175
0.848397 0.848397 0.848397
0.848618 0.848618 0.848618
0.848840 0.848840 0.848840
0.849060 0.849060 0.849060
0.849280 0.849280 0.849280
0.849499 0.849499 0.849499
0.849718 0.849718 0.849718
0.849937 0.849937 0.849937
0.850155 0.850155 0.850155
0.850373 0.850373 0.850373
0.850590 0.850590 0.850590
0.850807 0.850807 0.850807
0.851023 0.851023 0.851023
0.851238 0.851238 0.851238
0.851454 0.851454 0.851454
0.851668 0.851668 0.851668
0.851883 0.851883 0.851883
0.852097 0.852097 0.852097
0.852310 0.852310 0.852310
0.852523 0.852523 0.852523
0.852736 0.852736 0.852736
0.852948 0.852948 0.852948
0.853160 0.853160 0.853160
0.853371 0.853371 0.853371
0.853582 0.853582 0.853582
0.853792 0.853792 0.853792
0.854002 0.854002 0.854002
0.854212 0.854212 0.854212
0.854421 0.854421 0.854421
0.854630 0.854630 0.854630
0.854838 0.854838 0.854838
0.855046 0.855046 0.855046
0.855253 0.855253 0.855253
0.855460 0.855460 0.855460
0.855667 0.855667 0.855667
0.855873 0.855873 0.855873
0.856078 0.856078 0.856078
0.856283 0.856283 0.856283
0.856488 0.856488 0.856488
0.856692 0.856692 0.856692
0.856896 0.856896 0.856896
0.857100 0.857100 0.857100
0.857303 0.857303 0.857303
0.857506 0.857506 0.857506
0.857708 0.857708 0.857708
0.857910 0.857910 0.857910
0.858111 0.858111 0.858111
0.858313 0.858313 0.858313
0.858513 0.858513 0.858513
0.858713 0.858713 0.858713
0.858913 0.858913 0.858913
0.859112 0.859112 0.859112
0.859311 0.859311 0.859311
0.859510 0.859510 0.859510
0.859708 0.859708 0.859708
