lut/AlexaV3_EI2000_WYSIWYG_EE_nuke1d.cube
# Alexa conversion LUT, lin2video. Full in/full out.
# created by alexalutconv (2.02)

LUT_1D_SIZE 4096
0.000000 0.000000 0.000000
0.000000 0.000000 0.000000
0.000000 0.000000 0.000000
0.000000 0.000000 0.000000
0.000000 0.000000 0.000000
0.000000 0.000000 0.000000
0.000000 0.000000 0.000000
0.000000 0.000000 0.000000
0.000000 0.000000 0.000000
0.000000 0.000000 0.000000
0.000000 0.000000 0.000000
0.000000 0.000000 0.000000
0.000000 0.000000 0.000000
0.000000 0.000000 0.000000
0.000000 0.000000 0.000000
0.000000 0.000000 0.000000
0.018459 0.018459 0.018459
0.098430 0.098430 0.098430
0.163154 0.163154 0.163154
0.216772 0.216772 0.216772
0.263655 0.263655 0.263655
0.303617 0.303617 0.303617
0.337807 0.337807 0.337807
0.367313 0.367313 0.367313
0.393006 0.393006 0.393006
0.415640 0.415640 0.415640
0.435925 0.435925 0.435925
0.454295 0.454295 0.454295
0.471075 0.471075 0.471075
0.486511 0.486511 0.486511
0.500798 0.500798 0.500798
0.514089 0.514089 0.514089
0.526512 0.526512 0.526512
0.538168 0.538168 0.538168
0.549144 0.549144 0.549144
0.559513 0.559513 0.559513
0.569335 0.569335 0.569335
0.578664 0.578664 0.578664
0.587544 0.587544 0.587544
0.596017 0.596017 0.596017
0.604113 0.604113 0.604113
0.611867 0.611867 0.611867
0.619303 0.619303 0.619303
0.626445 0.626445 0.626445
0.633316 0.633316 0.633316
0.639933 0.639933 0.639933
0.646314 0.646314 0.646314
0.652475 0.652475 0.652475
0.658429 0.658429 0.658429
0.664190 0.664190 0.664190
0.669768 0.669768 0.669768
0.675174 0.675174 0.675174
0.680419 0.680419 0.680419
0.685510 0.685510 0.685510
0.690456 0.690456 0.690456
0.695266 0.695266 0.695266
0.699944 0.699944 0.699944
0.704500 0.704500 0.704500
0.708937 0.708937 0.708937
0.713262 0.713262 0.713262
0.717480 0.717480 0.717480
0.721596 0.721596 0.721596
0.725614 0.725614 0.725614
0.729539 0.729539 0.729539
0.733374 0.733374 0.733374
0.737124 0.737124 0.737124
0.740792 0.740792 0.740792
0.744381 0.744381 0.744381
0.747894 0.747894 0.747894
0.751334 0.751334 0.751334
0.754704 0.754704 0.754704
0.758007 0.758007 0.758007
0.761245 0.761245 0.761245
0.764420 0.764420 0.764420
0.767535 0.767535 0.767535
0.770590 0.770590 0.770590
0.773591 0.773591 0.773591
0.776536 0.776536 0.776536
0.779429 0.779429 0.779429
0.782271 0.782271 0.782271
0.785064 0.785064 0.785064
0.787809 0.787809 0.787809
0.790508 0.790508 0.790508
0.793161 0.793161 0.793161
0.795772 0.795772 0.795772
0.798340 0.798340 0.798340
0.800865 0.800865 0.800865
0.803334 0.803334 0.803334
0.805748 0.805748 0.805748
0.808107 0.808107 0.808107
0.810415 0.810415 0.810415
0.812672 0.812672 0.812672
0.814880 0.814880 0.814880
0.817042 0.817042 0.817042
0.819158 0.819158 0.819158
0.821230 0.821230 0.821230
0.823259 0.823259 0.823259
0.825247 0.825247 0.825247
0.827194 0.827194 0.827194
0.829103 0.829103 0.829103
0.830974 0.830974 0.830974
0.832809 0.832809 0.832809
0.834608 0.834608 0.834608
0.836372 0.836372 0.836372
0.838103 0.838103 0.838103
0.839802 0.839802 0.839802
0.841469 0.841469 0.841469
0.843105 0.843105 0.843105
0.844712 0.844712 0.844712
0.846290 0.846290 0.846290
0.847838 0.847838 0.847838
0.849361 0.849361 0.849361
0.850855 0.850855 0.850855
0.852324 0.852324 0.852324
0.853768 0.853768 0.853768
0.855187 0.855187 0.855187
0.856581 0.856581 0.856581
0.857953 0.857953 0.857953
0.859301 0.859301 0.859301
0.860627 0.860627 0.860627
0.861932 0.861932 0.861932
0.863214 0.863214 0.863214
0.864477 0.864477 0.864477
0.865719 0.865719 0.865719
0.866942 0.866942 0.866942
0.868145 0.868145 0.868145
0.869329 0.869329 0.869329
0.870495 0.870495 0.870495
0.871643 0.871643 0.871643
0.872773 0.872773 0.872773
0.873887 0.873887 0.873887
0.874983 0.874983 0.874983
0.876064 0.876064 0.876064
0.877127 0.877127 0.877127
0.878176 0.878176 0.878176
0.879209 0.879209 0.879209
0.880226 0.880226 0.880226
0.881230 0.881230 0.881230
0.882219 0.882219 0.882219
0.883194 0.883194 0.883194
0.884155 0.884155 0.884155
0.885104 0.885104 0.885104
0.886037 0.886037 0.886037
0.886959 0.886959 0.886959
0.887868 0.887868 0.887868
0.888765 0.888765 0.888765
0.889648 0.889648 0.889648
0.890521 0.890521 0.890521
0.891382 0.891382 0.891382
0.892231 0.892231 0.892231
0.893068 0.893068 0.893068
0.893896 0.893896 0.893896
0.894712 0.894712 0.894712
0.895518 0.895518 0.895518
0.896312 0.896312 0.896312
0.897098 0.897098 0.897098
0.897872 0.897872 0.897872
0.898637 0.898637 0.898637
0.899393 0.899393 0.899393
0.900139 0.900139 0.900139
0.900876 0.900876 0.900876
0.901603 0.901603 0.901603
0.902322 0.902322 0.902322
0.903032 0.903032 0.903032
0.903733 0.903733 0.903733
0.904426 0.904426 0.904426
0.905110 0.905110 0.905110
0.905785 0.905785 0.905785
0.906454 0.906454 0.906454
0.907114 0.907114 0.907114
0.907766 0.907766 0.907766
0.908411 0.908411 0.908411
0.909048 0.909048 0.909048
0.909678 0.909678 0.909678
0.910301 0.910301 0.910301
0.910916 0.910916 0.910916
0.911524 0.911524 0.911524
0.912126 0.912126 0.912126
0.912721 0.912721 0.912721
0.913308 0.913308 0.913308
0.913889 0.913889 0.913889
0.914464 0.914464 0.914464
0.915033 0.915033 0.915033
0.915595 0.915595 0.915595
0.916151 0.916151 0.916151
0.916702 0.916702 0.916702
0.917246 0.917246 0.917246
0.917784 0.917784 0.917784
0.918316 0.918316 0.918316
0.918842 0.918842 0.918842
0.919364 0.919364 0.919364
0.919879 0.919879 0.919879
0.920389 0.920389 0.920389
0.920894 0.920894 0.920894
0.921393 0.921393 0.921393
0.921888 0.921888 0.921888
0.922377 0.922377 0.922377
0.922861 0.922861 0.922861
0.923339 0.923339 0.923339
0.923814 0.923814 0.923814
0.924283 0.924283 0.924283
0.924748 0.924748 0.924748
0.925208 0.925208 0.925208
0.925663 0.925663 0.925663
0.926113 0.926113 0.926113
0.926559 0.926559 0.926559
0.927002 0.927002 0.927002
0.927439 0.927439 0.927439
0.927872 0.927872 0.927872
0.928301 0.928301 0.928301
0.928725 0.928725 0.928725
0.929146 0.929146 0.929146
0.929563 0.929563 0.929563
0.929975 0.929975 0.929975
0.930383 0.930383 0.930383
0.930788 0.930788 0.930788
0.931188 0.931188 0.931188
0.931585 0.931585 0.931585
0.931978 0.931978 0.931978
0.932368 0.932368 0.932368
0.932754 0.932754 0.932754
0.933136 0.933136 0.933136
0.933515 0.933515 0.933515
0.933890 0.933890 0.933890
0.934261 0.934261 0.934261
0.934629 0.934629 0.934629
0.934994 0.934994 0.934994
0.935356 0.935356 0.935356
0.935714 0.935714 0.935714
0.936070 0.936070 0.936070
0.936421 0.936421 0.936421
0.936770 0.936770 0.936770
0.937115 0.937115 0.937115
0.937457 0.937457 0.937457
0.937797 0.937797 0.937797
0.938133 0.938133 0.938133
0.938466 0.938466 0.938466
0.938797 0.938797 0.938797
0.939125 0.939125 0.939125
0.939450 0.939450 0.939450
0.939771 0.939771 0.939771
0.940090 0.940090 0.940090
0.940407 0.940407 0.940407
0.940720 0.940720 0.940720
0.941031 0.941031 0.941031
0.941339 0.941339 0.941339
0.941644 0.941644 0.941644
0.941947 0.941947 0.941947
0.942248 0.942248 0.942248
0.942546 0.942546 0.942546
0.942842 0.942842 0.942842
0.943135 0.943135 0.943135
0.943425 0.943425 0.943425
0.943713 0.943713 0.943713
0.943999 0.943999 0.943999
0.944282 0.944282 0.944282
0.944563 0.944563 0.944563
0.944841 0.944841 0.944841
0.945117 0.945117 0.945117
0.945391 0.945391 0.945391
0.945663 0.945663 0.945663
0.945933 0.945933 0.945933
0.946200 0.946200 0.946200
0.946465 0.946465 0.946465
0.946729 0.946729 0.946729
0.946990 0.946990 0.946990
0.947249 0.947249 0.947249
0.947506 0.947506 0.947506
0.947761 0.947761 0.947761
0.948014 0.948014 0.948014
0.948265 0.948265 0.948265
0.948513 0.948513 0.948513
0.948760 0.948760 0.948760
0.949005 0.949005 0.949005
0.949248 0.949248 0.949248
0.949489 0.949489 0.949489
0.949728 0.949728 0.949728
0.949966 0.949966 0.949966
0.950201 0.950201 0.950201
0.950435 0.950435 0.950435
0.950667 0.950667 0.950667
0.950897 0.950897 0.950897
0.951126 0.951126 0.951126
0.951353 0.951353 0.951353
0.951578 0.951578 0.951578
0.951802 0.951802 0.951802
0.952023 0.952023 0.952023
0.952243 0.952243 0.952243
0.952462 0.952462 0.952462
0.952678 0.952678 0.952678
0.952893 0.952893 0.952893
0.953107 0.953107 0.953107
0.953319 0.953319 0.953319
0.953529 0.953529 0.953529
0.953738 0.953738 0.953738
0.953945 0.953945 0.953945
0.954150 0.954150 0.954150
0.954355 0.954355 0.954355
0.954557 0.954557 0.954557
0.954759 0.954759 0.954759
0.954958 0.954958 0.954958
0.955157 0.955157 0.955157
0.955353 0.955353 0.955353
0.955549 0.955549 0.955549
0.955743 0.955743 0.955743
0.955936 0.955936 0.955936
0.956127 0.956127 0.956127
0.956317 0.956317 0.956317
0.956505 0.956505 0.956505
0.956693 0.956693 0.956693
0.956879 0.956879 0.956879
0.957064 0.957064 0.957064
0.957247 0.957247 0.957247
0.957429 0.957429 0.957429
0.957610 0.957610 0.957610
0.957790 0.957790 0.957790
0.957968 0.957968 0.957968
0.958145 0.958145 0.958145
0.958321 0.958321 0.958321
0.958495 0.958495 0.958495
0.958669 0.958669 0.958669
0.958841 0.958841 0.958841
0.959012 0.959012 0.959012
0.959182 0.959182 0.959182
0.959351 0.959351 0.959351
0.959518 0.959518 0.959518
0.959684 0.959684 0.959684
0.959850 0.959850 0.959850
0.960014 0.960014 0.960014
0.960177 0.960177 0.960177
0.960339 0.960339 0.960339
0.960500 0.960500 0.960500
0.960659 0.960659 0.960659
0.960818 0.960818 0.960818
0.960976 0.960976 0.960976
0.961132 0.961132 0.961132
0.961288 0.961288 0.961288
0.961442 0.961442 0.961442
0.961596 0.961596 0.961596
0.961748 0.961748 0.961748
0.961900 0.961900 0.961900
0.962050 0.962050 0.962050
0.962200 0.962200 0.962200
0.962348 0.962348 0.962348
0.962496 0.962496 0.962496
0.962643 0.962643 0.962643
0.962788 0.962788 0.962788
0.962933 0.962933 0.962933
0.963077 0.963077 0.963077
0.963220 0.963220 0.963220
0.963361 0.963361 0.963361
0.963502 0.963502 0.963502
0.963643 0.963643 0.963643
0.963782 0.963782 0.963782
0.963920 0.963920 0.963920
0.964058 0.964058 0.964058
0.964195 0.964195 0.964195
0.964330 0.964330 0.964330
0.964465 0.964465 0.964465
0.964599 0.964599 0.964599
0.964732 0.964732 0.964732
0.964865 0.964865 0.964865
0.964996 0.964996 0.964996
0.965127 0.965127 0.965127
0.965256 0.965256 0.965256
0.965385 0.965385 0.965385
0.965514 0.965514 0.965514
0.965641 0.965641 0.965641
0.965769 0.965769 0.965769
0.965894 0.965894 0.965894
0.966020 0.966020 0.966020
0.966144 0.966144 0.966144
0.966267 0.966267 0.966267
0.966390 0.966390 0.966390
0.966512 0.966512 0.966512
0.966633 0.966633 0.966633
0.966754 0.966754 0.966754
0.966874 0.966874 0.966874
0.966993 0.966993 0.966993
0.967111 0.967111 0.967111
0.967229 0.967229 0.967229
0.967346 0.967346 0.967346
0.967462 0.967462 0.967462
0.967578 0.967578 0.967578
0.967693 0.967693 0.967693
0.967807 0.967807 0.967807
0.967921 0.967921 0.967921
0.968034 0.968034 0.968034
0.968146 0.968146 0.968146
0.968257 0.968257 0.968257
0.968368 0.968368 0.968368
0.968478 0.968478 0.968478
0.968588 0.968588 0.968588
0.968697 0.968697 0.968697
0.968805 0.968805 0.968805
0.968913 0.968913 0.968913
0.969019 0.969019 0.969019
0.969126 0.969126 0.969126
0.969231 0.969231 0.969231
0.969337 0.969337 0.969337
0.969441 0.969441 0.969441
0.969545 0.969545 0.969545
0.969648 0.969648 0.969648
0.969751 0.969751 0.969751
0.969853 0.969853 0.969853
0.969954 0.969954 0.969954
0.970056 0.970056 0.970056
0.970156 0.970156 0.970156
0.970256 0.970256 0.970256
0.970355 0.970355 0.970355
0.970454 0.970454 0.970454
0.970552 0.970552 0.970552
0.970650 0.970650 0.970650
0.970747 0.970747 0.970747
0.970843 0.970843 0.970843
0.970939 0.970939 0.970939
0.971034 0.971034 0.971034
0.971129 0.971129 0.971129
0.971223 0.971223 0.971223
0.971317 0.971317 0.971317
0.971410 0.971410 0.971410
0.971503 0.971503 0.971503
0.971595 0.971595 0.971595
0.971687 0.971687 0.971687
0.971778 0.971778 0.971778
0.971868 0.971868 0.971868
0.971958 0.971958 0.971958
0.972048 0.972048 0.972048
0.972137 0.972137 0.972137
0.972226 0.972226 0.972226
0.972314 0.972314 0.972314
0.972402 0.972402 0.972402
0.972489 0.972489 0.972489
0.972575 0.972575 0.972575
0.972662 0.972662 0.972662
0.972747 0.972747 0.972747
0.972833 0.972833 0.972833
0.972918 0.972918 0.972918
0.973003 0.973003 0.973003
0.973086 0.973086 0.973086
0.973170 0.973170 0.973170
0.973253 0.973253 0.973253
0.973335 0.973335 0.973335
0.973418 0.973418 0.973418
0.973499 0.973499 0.973499
0.973581 0.973581 0.973581
0.973661 0.973661 0.973661
0.973742 0.973742 0.973742
0.973822 0.973822 0.973822
0.973901 0.973901 0.973901
0.973980 0.973980 0.973980
0.974059 0.974059 0.974059
0.974137 0.974137 0.974137
0.974215 0.974215 0.974215
0.974292 0.974292 0.974292
0.974369 0.974369 0.974369
0.974446 0.974446 0.974446
0.974522 0.974522 0.974522
0.974598 0.974598 0.974598
0.974673 0.974673 0.974673
0.974748 0.974748 0.974748
0.974823 0.974823 0.974823
0.974897 0.974897 0.974897
0.974971 0.974971 0.974971
0.975044 0.975044 0.975044
0.975117 0.975117 0.975117
0.975190 0.975190 0.975190
0.975262 0.975262 0.975262
0.975334 0.975334 0.975334
0.975406 0.975406 0.975406
0.975477 0.975477 0.975477
0.975547 0.975547 0.975547
0.975618 0.975618 0.975618
0.975688 0.975688 0.975688
0.975758 0.975758 0.975758
0.975827 0.975827 0.975827
0.975896 0.975896 0.975896
0.975965 0.975965 0.975965
0.976033 0.976033 0.976033
0.976101 0.976101 0.976101
0.976169 0.976169 0.976169
0.976237 0.976237 0.976237
0.976304 0.976304 0.976304
0.976370 0.976370 0.976370
0.976436 0.976436 0.976436
0.976502 0.976502 0.976502
0.976568 0.976568 0.976568
0.976633 0.976633 0.976633
0.976698 0.976698 0.976698
0.976763 0.976763 0.976763
0.976827 0.976827 0.976827
0.976891 0.976891 0.976891
0.976954 0.976954 0.976954
0.977017 0.977017 0.977017
0.977080 0.977080 0.977080
0.977143 0.977143 0.977143
0.977205 0.977205 0.977205
0.977267 0.977267 0.977267
0.977328 0.977328 0.977328
0.977390 0.977390 0.977390
0.977451 0.977451 0.977451
0.977511 0.977511 0.977511
0.977572 0.977572 0.977572
0.977632 0.977632 0.977632
0.977691 0.977691 0.977691
0.977751 0.977751 0.977751
0.977810 0.977810 0.977810
0.977869 0.977869 0.977869
0.977927 0.977927 0.977927
0.977985 0.977985 0.977985
0.978043 0.978043 0.978043
0.978101 0.978101 0.978101
0.978158 0.978158 0.978158
0.978215 0.978215 0.978215
0.978272 0.978272 0.978272
0.978328 0.978328 0.978328
0.978385 0.978385 0.978385
0.978440 0.978440 0.978440
0.978496 0.978496 0.978496
0.978551 0.978551 0.978551
0.978607 0.978607 0.978607
0.978661 0.978661 0.978661
0.978716 0.978716 0.978716
0.978770 0.978770 0.978770
0.978824 0.978824 0.978824
0.978878 0.978878 0.978878
0.978931 0.978931 0.978931
0.978984 0.978984 0.978984
0.979037 0.979037 0.979037
0.979090 0.979090 0.979090
0.979142 0.979142 0.979142
0.979195 0.979195 0.979195
0.979247 0.979247 0.979247
0.979298 0.979298 0.979298
0.979350 0.979350 0.979350
0.979401 0.979401 0.979401
0.979452 0.979452 0.979452
0.979502 0.979502 0.979502
0.979553 0.979553 0.979553
0.979603 0.979603 0.979603
0.979653 0.979653 0.979653
0.979702 0.979702 0.979702
0.979752 0.979752 0.979752
0.979801 0.979801 0.979801
0.979850 0.979850 0.979850
0.979899 0.979899 0.979899
0.979947 0.979947 0.979947
0.979995 0.979995 0.979995
0.980043 0.980043 0.980043
0.980091 0.980091 0.980091
0.980139 0.980139 0.980139
0.980186 0.980186 0.980186
0.980233 0.980233 0.980233
0.980280 0.980280 0.980280
0.980327 0.980327 0.980327
0.980374 0.980374 0.980374
0.980420 0.980420 0.980420
0.980466 0.980466 0.980466
0.980512 0.980512 0.980512
0.980558 0.980558 0.980558
0.980603 0.980603 0.980603
0.980648 0.980648 0.980648
0.980693 0.980693 0.980693
0.980738 0.980738 0.980738
0.980782 0.980782 0.980782
0.980827 0.980827 0.980827
0.980871 0.980871 0.980871
0.980915 0.980915 0.980915
0.980958 0.980958 0.980958
0.981002 0.981002 0.981002
0.981045 0.981045 0.981045
0.981088 0.981088 0.981088
0.981131 0.981131 0.981131
0.981174 0.981174 0.981174
0.981216 0.981216 0.981216
0.981259 0.981259 0.981259
0.981301 0.981301 0.981301
0.981343 0.981343 0.981343
0.981385 0.981385 0.981385
0.981426 0.981426 0.981426
0.981468 0.981468 0.981468
0.981509 0.981509 0.981509
0.981550 0.981550 0.981550
0.981591 0.981591 0.981591
0.981631 0.981631 0.981631
0.981672 0.981672 0.981672
0.981712 0.981712 0.981712
0.981752 0.981752 0.981752
0.981792 0.981792 0.981792
0.981831 0.981831 0.981831
0.981871 0.981871 0.981871
0.981910 0.981910 0.981910
0.981949 0.981949 0.981949
0.981988 0.981988 0.981988
0.982027 0.982027 0.982027
0.982066 0.982066 0.982066
0.982104 0.982104 0.982104
0.982142 0.982142 0.982142
0.982181 0.982181 0.982181
0.982219 0.982219 0.982219
0.982256 0.982256 0.982256
0.982294 0.982294 0.982294
0.982331 0.982331 0.982331
0.982369 0.982369 0.982369
0.982406 0.982406 0.982406
0.982443 0.982443 0.982443
0.982479 0.982479 0.982479
0.982516 0.982516 0.982516
0.982552 0.982552 0.982552
0.982589 0.982589 0.982589
0.982625 0.982625 0.982625
0.982661 0.982661 0.982661
0.982697 0.982697 0.982697
0.982732 0.982732 0.982732
0.982768 0.982768 0.982768
0.982803 0.982803 0.982803
0.982838 0.982838 0.982838
0.982873 0.982873 0.982873
0.982908 0.982908 0.982908
0.982943 0.982943 0.982943
0.982978 0.982978 0.982978
0.983012 0.983012 0.983012
0.983046 0.983046 0.983046
0.983080 0.983080 0.983080
0.983114 0.983114 0.983114
0.983148 0.983148 0.983148
0.983182 0.983182 0.983182
0.983215 0.983215 0.983215
0.983249 0.983249 0.983249
0.983282 0.983282 0.983282
0.983315 0.983315 0.983315
0.983348 0.983348 0.983348
0.983381 0.983381 0.983381
0.983414 0.983414 0.983414
0.983446 0.983446 0.983446
0.983479 0.983479 0.983479
0.983511 0.983511 0.983511
0.983543 0.983543 0.983543
0.983575 0.983575 0.983575
0.983607 0.983607 0.983607
0.983639 0.983639 0.983639
0.983670 0.983670 0.983670
0.983702 0.983702 0.983702
0.983733 0.983733 0.983733
0.983764 0.983764 0.983764
0.983795 0.983795 0.983795
0.983826 0.983826 0.983826
0.983857 0.983857 0.983857
0.983888 0.983888 0.983888
0.983918 0.983918 0.983918
0.983949 0.983949 0.983949
0.983979 0.983979 0.983979
0.984009 0.984009 0.984009
0.984039 0.984039 0.984039
0.984069 0.984069 0.984069
0.984099 0.984099 0.984099
0.984129 0.984129 0.984129
0.984158 0.984158 0.984158
0.984188 0.984188 0.984188
0.984217 0.984217 0.984217
0.984246 0.984246 0.984246
0.984275 0.984275 0.984275
0.984304 0.984304 0.984304
0.984333 0.984333 0.984333
0.984362 0.984362 0.984362
0.984390 0.984390 0.984390
0.984419 0.984419 0.984419
0.984447 0.984447 0.984447
0.984475 0.984475 0.984475
0.984504 0.984504 0.984504
0.984532 0.984532 0.984532
0.984559 0.984559 0.984559
0.984587 0.984587 0.984587
0.984615 0.984615 0.984615
0.984642 0.984642 0.984642
0.984670 0.984670 0.984670
0.984697 0.984697 0.984697
0.984724 0.984724 0.984724
0.984751 0.984751 0.984751
0.984778 0.984778 0.984778
0.984805 0.984805 0.984805
0.984832 0.984832 0.984832
0.984859 0.984859 0.984859
0.984885 0.984885 0.984885
0.984912 0.984912 0.984912
0.984938 0.984938 0.984938
0.984964 0.984964 0.984964
0.984991 0.984991 0.984991
0.985017 0.985017 0.985017
0.985043 0.985043 0.985043
0.985068 0.985068 0.985068
0.985094 0.985094 0.985094
0.985120 0.985120 0.985120
0.985145 0.985145 0.985145
0.985171 0.985171 0.985171
0.985196 0.985196 0.985196
0.985221 0.985221 0.985221
0.985246 0.985246 0.985246
0.985271 0.985271 0.985271
0.985296 0.985296 0.985296
0.985321 0.985321 0.985321
0.985346 0.985346 0.985346
0.985370 0.985370 0.985370
0.985395 0.985395 0.985395
0.985420 0.985420 0.985420
0.985444 0.985444 0.985444
0.985469 0.985469 0.985469
0.985493 0.985493 0.985493
0.985517 0.985517 0.985517
0.985541 0.985541 0.985541
0.985565 0.985565 0.985565
0.985588 0.985588 0.985588
0.985612 0.985612 0.985612
0.985636 0.985636 0.985636
0.985659 0.985659 0.985659
0.985682 0.985682 0.985682
0.985706 0.985706 0.985706
0.985729 0.985729 0.985729
0.985752 0.985752 0.985752
0.985775 0.985775 0.985775
0.985798 0.985798 0.985798
0.985821 0.985821 0.985821
0.985844 0.985844 0.985844
0.985866 0.985866 0.985866
0.985889 0.985889 0.985889
0.985912 0.985912 0.985912
0.985934 0.985934 0.985934
0.985956 0.985956 0.985956
0.985979 0.985979 0.985979
0.986001 0.986001 0.986001
0.986023 0.986023 0.986023
0.986045 0.986045 0.986045
0.986067 0.986067 0.986067
0.986089 0.986089 0.986089
0.986110 0.986110 0.986110
0.986132 0.986132 0.986132
0.986154 0.986154 0.986154
0.986175 0.986175 0.986175
0.986197 0.986197 0.986197
0.986218 0.986218 0.986218
0.986239 0.986239 0.986239
0.986260 0.986260 0.986260
0.986282 0.986282 0.986282
0.986303 0.986303 0.986303
0.986323 0.986323 0.986323
0.986344 0.986344 0.986344
0.986365 0.986365 0.986365
0.986386 0.986386 0.986386
0.986407 0.986407 0.986407
0.986427 0.986427 0.986427
0.986448 0.986448 0.986448
0.986468 0.986468 0.986468
0.986488 0.986488 0.986488
0.986509 0.986509 0.986509
0.986529 0.986529 0.986529
0.986549 0.986549 0.986549
0.986569 0.986569 0.986569
0.986589 0.986589 0.986589
0.986609 0.986609 0.986609
0.986629 0.986629 0.986629
0.986648 0.986648 0.986648
0.986668 0.986668 0.986668
0.986688 0.986688 0.986688
0.986707 0.986707 0.986707
0.986726 0.986726 0.986726
0.986746 0.986746 0.986746
0.986765 0.986765 0.986765
0.986784 0.986784 0.986784
0.986804 0.986804 0.986804
0.986823 0.986823 0.986823
0.986842 0.986842 0.986842
0.986861 0.986861 0.986861
0.986880 0.986880 0.986880
0.986898 0.986898 0.986898
0.986917 0.986917 0.986917
0.986936 0.986936 0.986936
0.986954 0.986954 0.986954
0.986973 0.986973 0.986973
0.986991 0.986991 0.986991
0.987010 0.987010 0.987010
0.987028 0.987028 0.987028
0.987047 0.987047 0.987047
0.987065 0.987065 0.987065
0.987083 0.987083 0.987083
0.987101 0.987101 0.987101
0.987119 0.987119 0.987119
0.987137 0.987137 0.987137
0.987155 0.987155 0.987155
0.987173 0.987173 0.987173
0.987190 0.987190 0.987190
0.987208 0.987208 0.987208
0.987226 0.987226 0.987226
0.987243 0.987243 0.987243
0.987261 0.987261 0.987261
0.987278 0.987278 0.987278
0.987296 0.987296 0.987296
0.987313 0.987313 0.987313
0.987330 0.987330 0.987330
0.987348 0.987348 0.987348
0.987365 0.987365 0.987365
0.987382 0.987382 0.987382
0.987399 0.987399 0.987399
0.987416 0.987416 0.987416
0.987433 0.987433 0.987433
0.987450 0.987450 0.987450
0.987466 0.987466 0.987466
0.987483 0.987483 0.987483
0.987500 0.987500 0.987500
0.987516 0.987516 0.987516
0.987533 0.987533 0.987533
0.987549 0.987549 0.987549
0.987566 0.987566 0.987566
0.987582 0.987582 0.987582
0.987599 0.987599 0.987599
0.987615 0.987615 0.987615
0.987631 0.987631 0.987631
0.987647 0.987647 0.987647
0.987663 0.987663 0.987663
0.987679 0.987679 0.987679
0.987695 0.987695 0.987695
0.987711 0.987711 0.987711
0.987727 0.987727 0.987727
0.987743 0.987743 0.987743
0.987759 0.987759 0.987759
0.987774 0.987774 0.987774
0.987790 0.987790 0.987790
0.987806 0.987806 0.987806
0.987821 0.987821 0.987821
0.987837 0.987837 0.987837
0.987852 0.987852 0.987852
0.987868 0.987868 0.987868
0.987883 0.987883 0.987883
0.987898 0.987898 0.987898
0.987914 0.987914 0.987914
0.987929 0.987929 0.987929
0.987944 0.987944 0.987944
0.987959 0.987959 0.987959
0.987974 0.987974 0.987974
0.987989 0.987989 0.987989
0.988004 0.988004 0.988004
0.988019 0.988019 0.988019
0.988034 0.988034 0.988034
0.988048 0.988048 0.988048
0.988063 0.988063 0.988063
0.988078 0.988078 0.988078
0.988093 0.988093 0.988093
0.988107 0.988107 0.988107
0.988122 0.988122 0.988122
0.988136 0.988136 0.988136
0.988151 0.988151 0.988151
0.988165 0.988165 0.988165
0.988179 0.988179 0.988179
0.988194 0.988194 0.988194
0.988208 0.988208 0.988208
0.988222 0.988222 0.988222
0.988236 0.988236 0.988236
0.988250 0.988250 0.988250
0.988264 0.988264 0.988264
0.988278 0.988278 0.988278
0.988292 0.988292 0.988292
0.988306 0.988306 0.988306
0.988320 0.988320 0.988320
0.988334 0.988334 0.988334
0.988348 0.988348 0.988348
0.988362 0.988362 0.988362
0.988375 0.988375 0.988375
0.988389 0.988389 0.988389
0.988403 0.988403 0.988403
0.988416 0.988416 0.988416
0.988430 0.988430 0.988430
0.988443 0.988443 0.988443
0.988457 0.988457 0.988457
0.988470 0.988470 0.988470
0.988483 0.988483 0.988483
0.988497 0.988497 0.988497
0.988510 0.988510 0.988510
0.988523 0.988523 0.988523
0.988536 0.988536 0.988536
0.988549 0.988549 0.988549
0.988562 0.988562 0.988562
0.988575 0.988575 0.988575
0.988589 0.988589 0.988589
0.988601 0.988601 0.988601
0.988614 0.988614 0.988614
0.988627 0.988627 0.988627
