lut/AlexaV3_EI1000_WYSIWYG_EE_nuke1d.cube
# Alexa conversion LUT, lin2video. Full in/full out.
# created by alexalutconv (2.02)

LUT_1D_SIZE 4096
0.000000 0.000000 0.000000
0.000000 0.000000 0.000000
0.000000 0.000000 0.000000
0.000000 0.000000 0.000000
0.000000 0.000000 0.000000
0.000000 0.000000 0.000000
0.000000 0.000000 0.000000
0.000000 0.000000 0.000000
0.000000 0.000000 0.000000
0.000000 0.000000 0.000000
0.000000 0.000000 0.000000
0.000000 0.000000 0.000000
0.000000 0.000000 0.000000
0.000000 0.000000 0.000000
0.000000 0.000000 0.000000
0.000000 0.000000 0.000000
0.016670 0.016670 0.016670
0.054012 0.054012 0.054012
0.097750 0.097750 0.097750
0.132085 0.132085 0.132085
0.161266 0.161266 0.161266
0.188412 0.188412 0.188412
0.214535 0.214535 0.214535
0.239045 0.239045 0.239045
0.261826 0.261826 0.261826
0.282937 0.282937 0.282937
0.302495 0.302495 0.302495
0.320635 0.320635 0.320635
0.337485 0.337485 0.337485
0.353166 0.353166 0.353166
0.367789 0.367789 0.367789
0.381451 0.381451 0.381451
0.394238 0.394238 0.394238
0.406239 0.406239 0.406239
0.417571 0.417571 0.417571
0.428308 0.428308 0.428308
0.438507 0.438507 0.438507
0.448219 0.448219 0.448219
0.457486 0.457486 0.457486
0.466347 0.466347 0.466347
0.474834 0.474834 0.474834
0.482978 0.482978 0.482978
0.490803 0.490803 0.490803
0.498333 0.498333 0.498333
0.505590 0.505590 0.505590
0.512591 0.512591 0.512591
0.519353 0.519353 0.519353
0.525892 0.525892 0.525892
0.532220 0.532220 0.532220
0.538351 0.538351 0.538351
0.544298 0.544298 0.544298
0.550068 0.550068 0.550068
0.555673 0.555673 0.555673
0.561121 0.561121 0.561121
0.566420 0.566420 0.566420
0.571579 0.571579 0.571579
0.576604 0.576604 0.576604
0.581500 0.581500 0.581500
0.586276 0.586276 0.586276
0.590935 0.590935 0.590935
0.595484 0.595484 0.595484
0.599927 0.599927 0.599927
0.604269 0.604269 0.604269
0.608514 0.608514 0.608514
0.612666 0.612666 0.612666
0.616730 0.616730 0.616730
0.620707 0.620707 0.620707
0.624603 0.624603 0.624603
0.628420 0.628420 0.628420
0.632160 0.632160 0.632160
0.635827 0.635827 0.635827
0.639424 0.639424 0.639424
0.642952 0.642952 0.642952
0.646415 0.646415 0.646415
0.649815 0.649815 0.649815
0.653154 0.653154 0.653154
0.656433 0.656433 0.656433
0.659655 0.659655 0.659655
0.662822 0.662822 0.662822
0.665935 0.665935 0.665935
0.668996 0.668996 0.668996
0.672007 0.672007 0.672007
0.674970 0.674970 0.674970
0.677884 0.677884 0.677884
0.680753 0.680753 0.680753
0.683578 0.683578 0.683578
0.686359 0.686359 0.686359
0.689098 0.689098 0.689098
0.691796 0.691796 0.691796
0.694454 0.694454 0.694454
0.697074 0.697074 0.697074
0.699657 0.699657 0.699657
0.702202 0.702202 0.702202
0.704712 0.704712 0.704712
0.707187 0.707187 0.707187
0.709628 0.709628 0.709628
0.712036 0.712036 0.712036
0.714413 0.714413 0.714413
0.716758 0.716758 0.716758
0.719071 0.719071 0.719071
0.721355 0.721355 0.721355
0.723610 0.723610 0.723610
0.725837 0.725837 0.725837
0.728036 0.728036 0.728036
0.730208 0.730208 0.730208
0.732353 0.732353 0.732353
0.734472 0.734472 0.734472
0.736565 0.736565 0.736565
0.738634 0.738634 0.738634
0.740679 0.740679 0.740679
0.742700 0.742700 0.742700
0.744698 0.744698 0.744698
0.746672 0.746672 0.746672
0.748625 0.748625 0.748625
0.750555 0.750555 0.750555
0.752465 0.752465 0.752465
0.754354 0.754354 0.754354
0.756222 0.756222 0.756222
0.758070 0.758070 0.758070
0.759898 0.759898 0.759898
0.761707 0.761707 0.761707
0.763497 0.763497 0.763497
0.765268 0.765268 0.765268
0.767021 0.767021 0.767021
0.768756 0.768756 0.768756
0.770474 0.770474 0.770474
0.772175 0.772175 0.772175
0.773859 0.773859 0.773859
0.775526 0.775526 0.775526
0.777176 0.777176 0.777176
0.778811 0.778811 0.778811
0.780430 0.780430 0.780430
0.782034 0.782034 0.782034
0.783622 0.783622 0.783622
0.785195 0.785195 0.785195
0.786754 0.786754 0.786754
0.788299 0.788299 0.788299
0.789829 0.789829 0.789829
0.791346 0.791346 0.791346
0.792848 0.792848 0.792848
0.794337 0.794337 0.794337
0.795814 0.795814 0.795814
0.797276 0.797276 0.797276
0.798726 0.798726 0.798726
0.800164 0.800164 0.800164
0.801589 0.801589 0.801589
0.803001 0.803001 0.803001
0.804397 0.804397 0.804397
0.805775 0.805775 0.805775
0.807136 0.807136 0.807136
0.808481 0.808481 0.808481
0.809809 0.809809 0.809809
0.811121 0.811121 0.811121
0.812417 0.812417 0.812417
0.813698 0.813698 0.813698
0.814963 0.814963 0.814963
0.816213 0.816213 0.816213
0.817449 0.817449 0.817449
0.818670 0.818670 0.818670
0.819877 0.819877 0.819877
0.821069 0.821069 0.821069
0.822249 0.822249 0.822249
0.823415 0.823415 0.823415
0.824567 0.824567 0.824567
0.825706 0.825706 0.825706
0.826833 0.826833 0.826833
0.827948 0.827948 0.827948
0.829049 0.829049 0.829049
0.830139 0.830139 0.830139
0.831217 0.831217 0.831217
0.832283 0.832283 0.832283
0.833337 0.833337 0.833337
0.834381 0.834381 0.834381
0.835412 0.835412 0.835412
0.836433 0.836433 0.836433
0.837443 0.837443 0.837443
0.838443 0.838443 0.838443
0.839431 0.839431 0.839431
0.840410 0.840410 0.840410
0.841378 0.841378 0.841378
0.842336 0.842336 0.842336
0.843285 0.843285 0.843285
0.844224 0.844224 0.844224
0.845153 0.845153 0.845153
0.846073 0.846073 0.846073
0.846983 0.846983 0.846983
0.847886 0.847886 0.847886
0.848778 0.848778 0.848778
0.849661 0.849661 0.849661
0.850537 0.850537 0.850537
0.851403 0.851403 0.851403
0.852261 0.852261 0.852261
0.853110 0.853110 0.853110
0.853951 0.853951 0.853951
0.854784 0.854784 0.854784
0.855610 0.855610 0.855610
0.856427 0.856427 0.856427
0.857237 0.857237 0.857237
0.858039 0.858039 0.858039
0.858833 0.858833 0.858833
0.859620 0.859620 0.859620
0.860400 0.860400 0.860400
0.861172 0.861172 0.861172
0.861937 0.861937 0.861937
0.862695 0.862695 0.862695
0.863447 0.863447 0.863447
0.864192 0.864192 0.864192
0.864929 0.864929 0.864929
0.865660 0.865660 0.865660
0.866385 0.866385 0.866385
0.867103 0.867103 0.867103
0.867814 0.867814 0.867814
0.868519 0.868519 0.868519
0.869219 0.869219 0.869219
0.869912 0.869912 0.869912
0.870598 0.870598 0.870598
0.871279 0.871279 0.871279
0.871955 0.871955 0.871955
0.872623 0.872623 0.872623
0.873287 0.873287 0.873287
0.873944 0.873944 0.873944
0.874596 0.874596 0.874596
0.875243 0.875243 0.875243
0.875884 0.875884 0.875884
0.876519 0.876519 0.876519
0.877149 0.877149 0.877149
0.877774 0.877774 0.877774
0.878394 0.878394 0.878394
0.879009 0.879009 0.879009
0.879618 0.879618 0.879618
0.880222 0.880222 0.880222
0.880822 0.880822 0.880822
0.881417 0.881417 0.881417
0.882007 0.882007 0.882007
0.882592 0.882592 0.882592
0.883172 0.883172 0.883172
0.883747 0.883747 0.883747
0.884318 0.884318 0.884318
0.884885 0.884885 0.884885
0.885447 0.885447 0.885447
0.886004 0.886004 0.886004
0.886557 0.886557 0.886557
0.887106 0.887106 0.887106
0.887650 0.887650 0.887650
0.888190 0.888190 0.888190
0.888727 0.888727 0.888727
0.889258 0.889258 0.889258
0.889786 0.889786 0.889786
0.890309 0.890309 0.890309
0.890829 0.890829 0.890829
0.891344 0.891344 0.891344
0.891856 0.891856 0.891856
0.892364 0.892364 0.892364
0.892868 0.892868 0.892868
0.893368 0.893368 0.893368
0.893864 0.893864 0.893864
0.894357 0.894357 0.894357
0.894846 0.894846 0.894846
0.895331 0.895331 0.895331
0.895812 0.895812 0.895812
0.896291 0.896291 0.896291
0.896766 0.896766 0.896766
0.897237 0.897237 0.897237
0.897705 0.897705 0.897705
0.898169 0.898169 0.898169
0.898630 0.898630 0.898630
0.899087 0.899087 0.899087
0.899542 0.899542 0.899542
0.899992 0.899992 0.899992
0.900440 0.900440 0.900440
0.900885 0.900885 0.900885
0.901327 0.901327 0.901327
0.901765 0.901765 0.901765
0.902200 0.902200 0.902200
0.902632 0.902632 0.902632
0.903061 0.903061 0.903061
0.903487 0.903487 0.903487
0.903910 0.903910 0.903910
0.904330 0.904330 0.904330
0.904748 0.904748 0.904748
0.905162 0.905162 0.905162
0.905574 0.905574 0.905574
0.905983 0.905983 0.905983
0.906389 0.906389 0.906389
0.906792 0.906792 0.906792
0.907192 0.907192 0.907192
0.907589 0.907589 0.907589
0.907984 0.907984 0.907984
0.908376 0.908376 0.908376
0.908766 0.908766 0.908766
0.909153 0.909153 0.909153
0.909537 0.909537 0.909537
0.909919 0.909919 0.909919
0.910298 0.910298 0.910298
0.910675 0.910675 0.910675
0.911050 0.911050 0.911050
0.911422 0.911422 0.911422
0.911791 0.911791 0.911791
0.912158 0.912158 0.912158
0.912522 0.912522 0.912522
0.912884 0.912884 0.912884
0.913244 0.913244 0.913244
0.913602 0.913602 0.913602
0.913957 0.913957 0.913957
0.914310 0.914310 0.914310
0.914660 0.914660 0.914660
0.915008 0.915008 0.915008
0.915354 0.915354 0.915354
0.915698 0.915698 0.915698
0.916040 0.916040 0.916040
0.916380 0.916380 0.916380
0.916718 0.916718 0.916718
0.917053 0.917053 0.917053
0.917386 0.917386 0.917386
0.917717 0.917717 0.917717
0.918046 0.918046 0.918046
0.918373 0.918373 0.918373
0.918698 0.918698 0.918698
0.919021 0.919021 0.919021
0.919342 0.919342 0.919342
0.919660 0.919660 0.919660
0.919977 0.919977 0.919977
0.920292 0.920292 0.920292
0.920605 0.920605 0.920605
0.920917 0.920917 0.920917
0.921226 0.921226 0.921226
0.921533 0.921533 0.921533
0.921839 0.921839 0.921839
0.922142 0.922142 0.922142
0.922444 0.922444 0.922444
0.922744 0.922744 0.922744
0.923043 0.923043 0.923043
0.923339 0.923339 0.923339
0.923634 0.923634 0.923634
0.923926 0.923926 0.923926
0.924218 0.924218 0.924218
0.924508 0.924508 0.924508
0.924795 0.924795 0.924795
0.925081 0.925081 0.925081
0.925366 0.925366 0.925366
0.925648 0.925648 0.925648
0.925929 0.925929 0.925929
0.926209 0.926209 0.926209
0.926487 0.926487 0.926487
0.926763 0.926763 0.926763
0.927037 0.927037 0.927037
0.927310 0.927310 0.927310
0.927582 0.927582 0.927582
0.927851 0.927851 0.927851
0.928120 0.928120 0.928120
0.928386 0.928386 0.928386
0.928652 0.928652 0.928652
0.928915 0.928915 0.928915
0.929177 0.929177 0.929177
0.929438 0.929438 0.929438
0.929698 0.929698 0.929698
0.929955 0.929955 0.929955
0.930211 0.930211 0.930211
0.930466 0.930466 0.930466
0.930720 0.930720 0.930720
0.930973 0.930973 0.930973
0.931223 0.931223 0.931223
0.931472 0.931472 0.931472
0.931720 0.931720 0.931720
0.931966 0.931966 0.931966
0.932211 0.932211 0.932211
0.932455 0.932455 0.932455
0.932698 0.932698 0.932698
0.932939 0.932939 0.932939
0.933179 0.933179 0.933179
0.933417 0.933417 0.933417
0.933654 0.933654 0.933654
0.933890 0.933890 0.933890
0.934125 0.934125 0.934125
0.934358 0.934358 0.934358
0.934590 0.934590 0.934590
0.934821 0.934821 0.934821
0.935051 0.935051 0.935051
0.935279 0.935279 0.935279
0.935506 0.935506 0.935506
0.935732 0.935732 0.935732
0.935957 0.935957 0.935957
0.936180 0.936180 0.936180
0.936402 0.936402 0.936402
0.936624 0.936624 0.936624
0.936844 0.936844 0.936844
0.937062 0.937062 0.937062
0.937280 0.937280 0.937280
0.937496 0.937496 0.937496
0.937712 0.937712 0.937712
0.937926 0.937926 0.937926
0.938139 0.938139 0.938139
0.938351 0.938351 0.938351
0.938562 0.938562 0.938562
0.938772 0.938772 0.938772
0.938980 0.938980 0.938980
0.939188 0.939188 0.939188
0.939395 0.939395 0.939395
0.939600 0.939600 0.939600
0.939804 0.939804 0.939804
0.940008 0.940008 0.940008
0.940210 0.940210 0.940210
0.940411 0.940411 0.940411
0.940612 0.940612 0.940612
0.940811 0.940811 0.940811
0.941010 0.941010 0.941010
0.941207 0.941207 0.941207
0.941403 0.941403 0.941403
0.941598 0.941598 0.941598
0.941792 0.941792 0.941792
0.941986 0.941986 0.941986
0.942178 0.942178 0.942178
0.942369 0.942369 0.942369
0.942560 0.942560 0.942560
0.942749 0.942749 0.942749
0.942937 0.942937 0.942937
0.943126 0.943126 0.943126
0.943312 0.943312 0.943312
0.943498 0.943498 0.943498
0.943683 0.943683 0.943683
0.943867 0.943867 0.943867
0.944049 0.944049 0.944049
0.944231 0.944231 0.944231
0.944413 0.944413 0.944413
0.944593 0.944593 0.944593
0.944772 0.944772 0.944772
0.944951 0.944951 0.944951
0.945128 0.945128 0.945128
0.945305 0.945305 0.945305
0.945481 0.945481 0.945481
0.945656 0.945656 0.945656
0.945831 0.945831 0.945831
0.946005 0.946005 0.946005
0.946177 0.946177 0.946177
0.946349 0.946349 0.946349
0.946520 0.946520 0.946520
0.946690 0.946690 0.946690
0.946859 0.946859 0.946859
0.947027 0.947027 0.947027
0.947195 0.947195 0.947195
0.947362 0.947362 0.947362
0.947528 0.947528 0.947528
0.947693 0.947693 0.947693
0.947858 0.947858 0.947858
0.948021 0.948021 0.948021
0.948184 0.948184 0.948184
0.948346 0.948346 0.948346
0.948508 0.948508 0.948508
0.948669 0.948669 0.948669
0.948829 0.948829 0.948829
0.948988 0.948988 0.948988
0.949147 0.949147 0.949147
0.949305 0.949305 0.949305
0.949461 0.949461 0.949461
0.949618 0.949618 0.949618
0.949773 0.949773 0.949773
0.949928 0.949928 0.949928
0.950082 0.950082 0.950082
0.950235 0.950235 0.950235
0.950388 0.950388 0.950388
0.950540 0.950540 0.950540
0.950691 0.950691 0.950691
0.950842 0.950842 0.950842
0.950992 0.950992 0.950992
0.951141 0.951141 0.951141
0.951289 0.951289 0.951289
0.951437 0.951437 0.951437
0.951584 0.951584 0.951584
0.951731 0.951731 0.951731
0.951877 0.951877 0.951877
0.952023 0.952023 0.952023
0.952167 0.952167 0.952167
0.952311 0.952311 0.952311
0.952454 0.952454 0.952454
0.952597 0.952597 0.952597
0.952739 0.952739 0.952739
0.952880 0.952880 0.952880
0.953021 0.953021 0.953021
0.953161 0.953161 0.953161
0.953300 0.953300 0.953300
0.953439 0.953439 0.953439
0.953577 0.953577 0.953577
0.953715 0.953715 0.953715
0.953852 0.953852 0.953852
0.953988 0.953988 0.953988
0.954124 0.954124 0.954124
0.954259 0.954259 0.954259
0.954394 0.954394 0.954394
0.954528 0.954528 0.954528
0.954661 0.954661 0.954661
0.954794 0.954794 0.954794
0.954926 0.954926 0.954926
0.955058 0.955058 0.955058
0.955189 0.955189 0.955189
0.955319 0.955319 0.955319
0.955449 0.955449 0.955449
0.955580 0.955580 0.955580
0.955708 0.955708 0.955708
0.955837 0.955837 0.955837
0.955965 0.955965 0.955965
0.956092 0.956092 0.956092
0.956218 0.956218 0.956218
0.956344 0.956344 0.956344
0.956470 0.956470 0.956470
0.956595 0.956595 0.956595
0.956719 0.956719 0.956719
0.956843 0.956843 0.956843
0.956967 0.956967 0.956967
0.957090 0.957090 0.957090
0.957212 0.957212 0.957212
0.957334 0.957334 0.957334
0.957455 0.957455 0.957455
0.957576 0.957576 0.957576
0.957696 0.957696 0.957696
0.957816 0.957816 0.957816
0.957936 0.957936 0.957936
0.958054 0.958054 0.958054
0.958173 0.958173 0.958173
0.958290 0.958290 0.958290
0.958408 0.958408 0.958408
0.958525 0.958525 0.958525
0.958641 0.958641 0.958641
0.958757 0.958757 0.958757
0.958872 0.958872 0.958872
0.958987 0.958987 0.958987
0.959101 0.959101 0.959101
0.959215 0.959215 0.959215
0.959329 0.959329 0.959329
0.959442 0.959442 0.959442
0.959554 0.959554 0.959554
0.959667 0.959667 0.959667
0.959779 0.959779 0.959779
0.959890 0.959890 0.959890
0.960001 0.960001 0.960001
0.960111 0.960111 0.960111
0.960221 0.960221 0.960221
0.960330 0.960330 0.960330
0.960439 0.960439 0.960439
0.960548 0.960548 0.960548
0.960656 0.960656 0.960656
0.960763 0.960763 0.960763
0.960871 0.960871 0.960871
0.960977 0.960977 0.960977
0.961084 0.961084 0.961084
0.961189 0.961189 0.961189
0.961295 0.961295 0.961295
0.961400 0.961400 0.961400
0.961504 0.961504 0.961504
0.961609 0.961609 0.961609
0.961712 0.961712 0.961712
0.961816 0.961816 0.961816
0.961919 0.961919 0.961919
0.962021 0.962021 0.962021
0.962123 0.962123 0.962123
0.962225 0.962225 0.962225
0.962326 0.962326 0.962326
0.962427 0.962427 0.962427
0.962528 0.962528 0.962528
0.962628 0.962628 0.962628
0.962727 0.962727 0.962727
0.962827 0.962827 0.962827
0.962926 0.962926 0.962926
0.963024 0.963024 0.963024
0.963122 0.963122 0.963122
0.963220 0.963220 0.963220
0.963317 0.963317 0.963317
0.963414 0.963414 0.963414
0.963511 0.963511 0.963511
0.963607 0.963607 0.963607
0.963703 0.963703 0.963703
0.963799 0.963799 0.963799
0.963894 0.963894 0.963894
0.963988 0.963988 0.963988
0.964083 0.964083 0.964083
0.964177 0.964177 0.964177
0.964270 0.964270 0.964270
0.964365 0.964365 0.964365
0.964457 0.964457 0.964457
0.964550 0.964550 0.964550
0.964642 0.964642 0.964642
0.964734 0.964734 0.964734
0.964825 0.964825 0.964825
0.964917 0.964917 0.964917
0.965007 0.965007 0.965007
0.965098 0.965098 0.965098
0.965188 0.965188 0.965188
0.965278 0.965278 0.965278
0.965367 0.965367 0.965367
0.965456 0.965456 0.965456
0.965545 0.965545 0.965545
0.965634 0.965634 0.965634
0.965722 0.965722 0.965722
0.965809 0.965809 0.965809
0.965897 0.965897 0.965897
0.965984 0.965984 0.965984
0.966071 0.966071 0.966071
0.966157 0.966157 0.966157
0.966243 0.966243 0.966243
0.966329 0.966329 0.966329
0.966414 0.966414 0.966414
0.966500 0.966500 0.966500
0.966584 0.966584 0.966584
0.966669 0.966669 0.966669
0.966753 0.966753 0.966753
0.966837 0.966837 0.966837
0.966920 0.966920 0.966920
0.967004 0.967004 0.967004
0.967087 0.967087 0.967087
0.967169 0.967169 0.967169
0.967252 0.967252 0.967252
0.967334 0.967334 0.967334
0.967415 0.967415 0.967415
0.967497 0.967497 0.967497
0.967578 0.967578 0.967578
0.967659 0.967659 0.967659
0.967739 0.967739 0.967739
0.967819 0.967819 0.967819
0.967899 0.967899 0.967899
0.967979 0.967979 0.967979
0.968058 0.968058 0.968058
0.968137 0.968137 0.968137
0.968216 0.968216 0.968216
0.968294 0.968294 0.968294
0.968373 0.968373 0.968373
0.968451 0.968451 0.968451
0.968528 0.968528 0.968528
0.968605 0.968605 0.968605
0.968682 0.968682 0.968682
0.968759 0.968759 0.968759
0.968836 0.968836 0.968836
0.968912 0.968912 0.968912
0.968988 0.968988 0.968988
0.969064 0.969064 0.969064
0.969139 0.969139 0.969139
0.969214 0.969214 0.969214
0.969289 0.969289 0.969289
0.969363 0.969363 0.969363
0.969438 0.969438 0.969438
0.969512 0.969512 0.969512
0.969586 0.969586 0.969586
0.969660 0.969660 0.969660
0.969733 0.969733 0.969733
0.969806 0.969806 0.969806
0.969879 0.969879 0.969879
0.969951 0.969951 0.969951
0.970023 0.970023 0.970023
0.970095 0.970095 0.970095
0.970167 0.970167 0.970167
0.970238 0.970238 0.970238
0.970310 0.970310 0.970310
0.970380 0.970380 0.970380
0.970451 0.970451 0.970451
0.970522 0.970522 0.970522
0.970592 0.970592 0.970592
0.970662 0.970662 0.970662
0.970731 0.970731 0.970731
0.970801 0.970801 0.970801
0.970870 0.970870 0.970870
0.970939 0.970939 0.970939
0.971008 0.971008 0.971008
0.971076 0.971076 0.971076
0.971144 0.971144 0.971144
0.971212 0.971212 0.971212
0.971280 0.971280 0.971280
0.971348 0.971348 0.971348
0.971415 0.971415 0.971415
0.971482 0.971482 0.971482
0.971549 0.971549 0.971549
0.971615 0.971615 0.971615
0.971682 0.971682 0.971682
0.971748 0.971748 0.971748
0.971814 0.971814 0.971814
0.971880 0.971880 0.971880
0.971946 0.971946 0.971946
0.972011 0.972011 0.972011
0.972076 0.972076 0.972076
0.972141 0.972141 0.972141
0.972205 0.972205 0.972205
0.972270 0.972270 0.972270
0.972334 0.972334 0.972334
0.972398 0.972398 0.972398
0.972462 0.972462 0.972462
0.972525 0.972525 0.972525
0.972588 0.972588 0.972588
0.972651 0.972651 0.972651
0.972714 0.972714 0.972714
0.972777 0.972777 0.972777
0.972839 0.972839 0.972839
0.972901 0.972901 0.972901
0.972963 0.972963 0.972963
0.973025 0.973025 0.973025
0.973086 0.973086 0.973086
0.973148 0.973148 0.973148
0.973209 0.973209 0.973209
0.973270 0.973270 0.973270
0.973331 0.973331 0.973331
0.973391 0.973391 0.973391
0.973451 0.973451 0.973451
0.973511 0.973511 0.973511
0.973571 0.973571 0.973571
0.973631 0.973631 0.973631
0.973691 0.973691 0.973691
0.973750 0.973750 0.973750
0.973809 0.973809 0.973809
0.973868 0.973868 0.973868
0.973927 0.973927 0.973927
0.973985 0.973985 0.973985
0.974043 0.974043 0.974043
0.974101 0.974101 0.974101
0.974159 0.974159 0.974159
0.974217 0.974217 0.974217
0.974275 0.974275 0.974275
0.974332 0.974332 0.974332
0.974389 0.974389 0.974389
0.974446 0.974446 0.974446
0.974503 0.974503 0.974503
0.974560 0.974560 0.974560
0.974616 0.974616 0.974616
0.974672 0.974672 0.974672
0.974728 0.974728 0.974728
0.974784 0.974784 0.974784
0.974840 0.974840 0.974840
0.974895 0.974895 0.974895
0.974951 0.974951 0.974951
0.975006 0.975006 0.975006
0.975061 0.975061 0.975061
0.975116 0.975116 0.975116
0.975171 0.975171 0.975171
0.975225 0.975225 0.975225
0.975279 0.975279 0.975279
0.975333 0.975333 0.975333
0.975387 0.975387 0.975387
0.975441 0.975441 0.975441
0.975494 0.975494 0.975494
0.975548 0.975548 0.975548
0.975601 0.975601 0.975601
0.975654 0.975654 0.975654
0.975707 0.975707 0.975707
0.975760 0.975760 0.975760
0.975812 0.975812 0.975812
0.975865 0.975865 0.975865
0.975917 0.975917 0.975917
0.975969 0.975969 0.975969
0.976021 0.976021 0.976021
0.976072 0.976072 0.976072
0.976124 0.976124 0.976124
0.976175 0.976175 0.976175
0.976226 0.976226 0.976226
0.976277 0.976277 0.976277
0.976328 0.976328 0.976328
0.976379 0.976379 0.976379
0.976429 0.976429 0.976429
0.976480 0.976480 0.976480
0.976530 0.976530 0.976530
0.976580 0.976580 0.976580
0.976630 0.976630 0.976630
0.976680 0.976680 0.976680
0.976729 0.976729 0.976729
0.976779 0.976779 0.976779
0.976828 0.976828 0.976828
0.976877 0.976877 0.976877
0.976926 0.976926 0.976926
0.976975 0.976975 0.976975
0.977023 0.977023 0.977023
0.977072 0.977072 0.977072
0.977120 0.977120 0.977120
0.977168 0.977168 0.977168
0.977216 0.977216 0.977216
0.977264 0.977264 0.977264
0.977312 0.977312 0.977312
0.977359 0.977359 0.977359
0.977407 0.977407 0.977407
0.977454 0.977454 0.977454
0.977501 0.977501 0.977501
0.977548 0.977548 0.977548
0.977595 0.977595 0.977595
0.977642 0.977642 0.977642
0.977688 0.977688 0.977688
0.977734 0.977734 0.977734
0.977781 0.977781 0.977781
0.977827 0.977827 0.977827
0.977873 0.977873 0.977873
0.977919 0.977919 0.977919
0.977964 0.977964 0.977964
0.978010 0.978010 0.978010
0.978055 0.978055 0.978055
0.978100 0.978100 0.978100
0.978146 0.978146 0.978146
0.978190 0.978190 0.978190
0.978235 0.978235 0.978235
0.978280 0.978280 0.978280
0.978325 0.978325 0.978325
0.978369 0.978369 0.978369
0.978413 0.978413 0.978413
0.978457 0.978457 0.978457
0.978501 0.978501 0.978501
0.978545 0.978545 0.978545
0.978589 0.978589 0.978589
0.978633 0.978633 0.978633
0.978676 0.978676 0.978676
0.978719 0.978719 0.978719
0.978763 0.978763 0.978763
0.978806 0.978806 0.978806
0.978849 0.978849 0.978849
0.978891 0.978891 0.978891
0.978934 0.978934 0.978934
0.978977 0.978977 0.978977
0.979019 0.979019 0.979019
0.979061 0.979061 0.979061
0.979104 0.979104 0.979104
0.979146 0.979146 0.979146
0.979188 0.979188 0.979188
0.979230 0.979230 0.979230
0.979272 0.979272 0.979272
0.979313 0.979313 0.979313
0.979355 0.979355 0.979355
0.979396 0.979396 0.979396
0.979437 0.979437 0.979437
0.979478 0.979478 0.979478
0.979519 0.979519 0.979519
0.979560 0.979560 0.979560
0.979600 0.979600 0.979600
0.979641 0.979641 0.979641
0.979681 0.979681 0.979681
0.979722 0.979722 0.979722
0.979762 0.979762 0.979762
0.979802 0.979802 0.979802
0.979842 0.979842 0.979842
0.979882 0.979882 0.979882
0.979921 0.979921 0.979921
0.979961 0.979961 0.979961
0.980000 0.980000 0.980000
0.980040 0.980040 0.980040
0.980079 0.980079 0.980079
0.980118 0.980118 0.980118
0.980157 0.980157 0.980157
0.980196 0.980196 0.980196
0.980235 0.980235 0.980235
0.980274 0.980274 0.980274
0.980312 0.980312 0.980312
0.980351 0.980351 0.980351
0.980389 0.980389 0.980389
0.980427 0.980427 0.980427
0.980465 0.980465 0.980465
0.980503 0.980503 0.980503
0.980541 0.980541 0.980541
0.980579 0.980579 0.980579
0.980617 0.980617 0.980617
0.980654 0.980654 0.980654
0.980692 0.980692 0.980692
0.980729 0.980729 0.980729
0.980766 0.980766 0.980766
0.980803 0.980803 0.980803
0.980840 0.980840 0.980840
0.980877 0.980877 0.980877
0.980914 0.980914 0.980914
0.980950 0.980950 0.980950
0.980987 0.980987 0.980987
0.981023 0.981023 0.981023
0.981060 0.981060 0.981060
0.981096 0.981096 0.981096
0.981132 0.981132 0.981132
0.981168 0.981168 0.981168
0.981204 0.981204 0.981204
0.981240 0.981240 0.981240
0.981276 0.981276 0.981276
0.981311 0.981311 0.981311
0.981347 0.981347 0.981347
0.981382 0.981382 0.981382
0.981417 0.981417 0.981417
0.981453 0.981453 0.981453
0.981488 0.981488 0.981488
0.981523 0.981523 0.981523
0.981558 0.981558 0.981558
0.981592 0.981592 0.981592
0.981627 0.981627 0.981627
0.981662 0.981662 0.981662
0.981696 0.981696 0.981696
0.981731 0.981731 0.981731
0.981765 0.981765 0.981765
0.981799 0.981799 0.981799
0.981833 0.981833 0.981833
0.981867 0.981867 0.981867
0.981901 0.981901 0.981901
0.981935 0.981935 0.981935
