lut/AlexaV3_EI3200_WYSIWYG_EE_nuke1d.cube
# Alexa conversion LUT, lin2video. Full in/full out.
# created by alexalutconv (2.02)

LUT_1D_SIZE 4096
0.000000 0.000000 0.000000
0.000000 0.000000 0.000000
0.000000 0.000000 0.000000
0.000000 0.000000 0.000000
0.000000 0.000000 0.000000
0.000000 0.000000 0.000000
0.000000 0.000000 0.000000
0.000000 0.000000 0.000000
0.000000 0.000000 0.000000
0.000000 0.000000 0.000000
0.000000 0.000000 0.000000
0.000000 0.000000 0.000000
0.000000 0.000000 0.000000
0.000000 0.000000 0.000000
0.000000 0.000000 0.000000
0.000000 0.000000 0.000000
0.020519 0.020519 0.020519
0.141576 0.141576 0.141576
0.229034 0.229034 0.229034
0.297940 0.297940 0.297940
0.351184 0.351184 0.351184
0.393331 0.393331 0.393331
0.427719 0.427719 0.427719
0.456826 0.456826 0.456826
0.482036 0.482036 0.482036
0.504247 0.504247 0.504247
0.524085 0.524085 0.524085
0.541993 0.541993 0.541993
0.558303 0.558303 0.558303
0.573270 0.573270 0.573270
0.587089 0.587089 0.587089
0.599920 0.599920 0.599920
0.611887 0.611887 0.611887
0.623098 0.623098 0.623098
0.633637 0.633637 0.633637
0.643576 0.643576 0.643576
0.652978 0.652978 0.652978
0.661896 0.661896 0.661896
0.670375 0.670375 0.670375
0.678452 0.678452 0.678452
0.686164 0.686164 0.686164
0.693540 0.693540 0.693540
0.700607 0.700607 0.700607
0.707388 0.707388 0.707388
0.713904 0.713904 0.713904
0.720174 0.720174 0.720174
0.726215 0.726215 0.726215
0.732042 0.732042 0.732042
0.737669 0.737669 0.737669
0.743108 0.743108 0.743108
0.748371 0.748371 0.748371
0.753469 0.753469 0.753469
0.758410 0.758410 0.758410
0.763203 0.763203 0.763203
0.767856 0.767856 0.767856
0.772378 0.772378 0.772378
0.776773 0.776773 0.776773
0.781050 0.781050 0.781050
0.785213 0.785213 0.785213
0.789270 0.789270 0.789270
0.793222 0.793222 0.793222
0.797077 0.797077 0.797077
0.800836 0.800836 0.800836
0.804475 0.804475 0.804475
0.807992 0.807992 0.807992
0.811392 0.811392 0.811392
0.814682 0.814682 0.814682
0.817867 0.817867 0.817867
0.820952 0.820952 0.820952
0.823943 0.823943 0.823943
0.826842 0.826842 0.826842
0.829655 0.829655 0.829655
0.832384 0.832384 0.832384
0.835035 0.835035 0.835035
0.837612 0.837612 0.837612
0.840115 0.840115 0.840115
0.842549 0.842549 0.842549
0.844917 0.844917 0.844917
0.847221 0.847221 0.847221
0.849464 0.849464 0.849464
0.851648 0.851648 0.851648
0.853776 0.853776 0.853776
0.855851 0.855851 0.855851
0.857873 0.857873 0.857873
0.859845 0.859845 0.859845
0.861768 0.861768 0.861768
0.863645 0.863645 0.863645
0.865477 0.865477 0.865477
0.867266 0.867266 0.867266
0.869014 0.869014 0.869014
0.870720 0.870720 0.870720
0.872389 0.872389 0.872389
0.874019 0.874019 0.874019
0.875614 0.875614 0.875614
0.877173 0.877173 0.877173
0.878698 0.878698 0.878698
0.880190 0.880190 0.880190
0.881650 0.881650 0.881650
0.883080 0.883080 0.883080
0.884480 0.884480 0.884480
0.885851 0.885851 0.885851
0.887194 0.887194 0.887194
0.888509 0.888509 0.888509
0.889798 0.889798 0.889798
0.891062 0.891062 0.891062
0.892301 0.892301 0.892301
0.893515 0.893515 0.893515
0.894707 0.894707 0.894707
0.895875 0.895875 0.895875
0.897021 0.897021 0.897021
0.898146 0.898146 0.898146
0.899249 0.899249 0.899249
0.900332 0.900332 0.900332
0.901396 0.901396 0.901396
0.902441 0.902441 0.902441
0.903466 0.903466 0.903466
0.904473 0.904473 0.904473
0.905462 0.905462 0.905462
0.906434 0.906434 0.906434
0.907389 0.907389 0.907389
0.908327 0.908327 0.908327
0.909250 0.909250 0.909250
0.910157 0.910157 0.910157
0.911048 0.911048 0.911048
0.911925 0.911925 0.911925
0.912787 0.912787 0.912787
0.913635 0.913635 0.913635
0.914469 0.914469 0.914469
0.915289 0.915289 0.915289
0.916096 0.916096 0.916096
0.916890 0.916890 0.916890
0.917672 0.917672 0.917672
0.918442 0.918442 0.918442
0.919198 0.919198 0.919198
0.919944 0.919944 0.919944
0.920678 0.920678 0.920678
0.921401 0.921401 0.921401
0.922113 0.922113 0.922113
0.922814 0.922814 0.922814
0.923504 0.923504 0.923504
0.924184 0.924184 0.924184
0.924854 0.924854 0.924854
0.925515 0.925515 0.925515
0.926165 0.926165 0.926165
0.926806 0.926806 0.926806
0.927438 0.927438 0.927438
0.928060 0.928060 0.928060
0.928674 0.928674 0.928674
0.929279 0.929279 0.929279
0.929876 0.929876 0.929876
0.930464 0.930464 0.930464
0.931044 0.931044 0.931044
0.931616 0.931616 0.931616
0.932180 0.932180 0.932180
0.932736 0.932736 0.932736
0.933286 0.933286 0.933286
0.933827 0.933827 0.933827
0.934360 0.934360 0.934360
0.934887 0.934887 0.934887
0.935408 0.935408 0.935408
0.935920 0.935920 0.935920
0.936427 0.936427 0.936427
0.936927 0.936927 0.936927
0.937420 0.937420 0.937420
0.937906 0.937906 0.937906
0.938387 0.938387 0.938387
0.938861 0.938861 0.938861
0.939330 0.939330 0.939330
0.939792 0.939792 0.939792
0.940248 0.940248 0.940248
0.940700 0.940700 0.940700
0.941145 0.941145 0.941145
0.941584 0.941584 0.941584
0.942018 0.942018 0.942018
0.942447 0.942447 0.942447
0.942871 0.942871 0.942871
0.943290 0.943290 0.943290
0.943703 0.943703 0.943703
0.944111 0.944111 0.944111
0.944515 0.944515 0.944515
0.944914 0.944914 0.944914
0.945308 0.945308 0.945308
0.945697 0.945697 0.945697
0.946082 0.946082 0.946082
0.946463 0.946463 0.946463
0.946838 0.946838 0.946838
0.947210 0.947210 0.947210
0.947577 0.947577 0.947577
0.947940 0.947940 0.947940
0.948299 0.948299 0.948299
0.948653 0.948653 0.948653
0.949004 0.949004 0.949004
0.949352 0.949352 0.949352
0.949694 0.949694 0.949694
0.950033 0.950033 0.950033
0.950368 0.950368 0.950368
0.950700 0.950700 0.950700
0.951027 0.951027 0.951027
0.951352 0.951352 0.951352
0.951673 0.951673 0.951673
0.951990 0.951990 0.951990
0.952304 0.952304 0.952304
0.952614 0.952614 0.952614
0.952921 0.952921 0.952921
0.953225 0.953225 0.953225
0.953525 0.953525 0.953525
0.953822 0.953822 0.953822
0.954117 0.954117 0.954117
0.954408 0.954408 0.954408
0.954696 0.954696 0.954696
0.954981 0.954981 0.954981
0.955263 0.955263 0.955263
0.955542 0.955542 0.955542
0.955818 0.955818 0.955818
0.956091 0.956091 0.956091
0.956361 0.956361 0.956361
0.956629 0.956629 0.956629
0.956895 0.956895 0.956895
0.957157 0.957157 0.957157
0.957417 0.957417 0.957417
0.957674 0.957674 0.957674
0.957928 0.957928 0.957928
0.958180 0.958180 0.958180
0.958429 0.958429 0.958429
0.958676 0.958676 0.958676
0.958921 0.958921 0.958921
0.959163 0.959163 0.959163
0.959402 0.959402 0.959402
0.959640 0.959640 0.959640
0.959875 0.959875 0.959875
0.960108 0.960108 0.960108
0.960339 0.960339 0.960339
0.960567 0.960567 0.960567
0.960793 0.960793 0.960793
0.961017 0.961017 0.961017
0.961238 0.961238 0.961238
0.961458 0.961458 0.961458
0.961676 0.961676 0.961676
0.961891 0.961891 0.961891
0.962104 0.962104 0.962104
0.962316 0.962316 0.962316
0.962525 0.962525 0.962525
0.962733 0.962733 0.962733
0.962938 0.962938 0.962938
0.963142 0.963142 0.963142
0.963344 0.963344 0.963344
0.963544 0.963544 0.963544
0.963743 0.963743 0.963743
0.963939 0.963939 0.963939
0.964134 0.964134 0.964134
0.964326 0.964326 0.964326
0.964517 0.964517 0.964517
0.964706 0.964706 0.964706
0.964894 0.964894 0.964894
0.965080 0.965080 0.965080
0.965264 0.965264 0.965264
0.965447 0.965447 0.965447
0.965627 0.965627 0.965627
0.965807 0.965807 0.965807
0.965985 0.965985 0.965985
0.966161 0.966161 0.966161
0.966335 0.966335 0.966335
0.966508 0.966508 0.966508
0.966680 0.966680 0.966680
0.966850 0.966850 0.966850
0.967019 0.967019 0.967019
0.967186 0.967186 0.967186
0.967351 0.967351 0.967351
0.967516 0.967516 0.967516
0.967680 0.967680 0.967680
0.967841 0.967841 0.967841
0.968001 0.968001 0.968001
0.968160 0.968160 0.968160
0.968317 0.968317 0.968317
0.968473 0.968473 0.968473
0.968628 0.968628 0.968628
0.968781 0.968781 0.968781
0.968934 0.968934 0.968934
0.969084 0.969084 0.969084
0.969234 0.969234 0.969234
0.969382 0.969382 0.969382
0.969529 0.969529 0.969529
0.969675 0.969675 0.969675
0.969820 0.969820 0.969820
0.969964 0.969964 0.969964
0.970106 0.970106 0.970106
0.970247 0.970247 0.970247
0.970387 0.970387 0.970387
0.970526 0.970526 0.970526
0.970664 0.970664 0.970664
0.970800 0.970800 0.970800
0.970936 0.970936 0.970936
0.971070 0.971070 0.971070
0.971204 0.971204 0.971204
0.971336 0.971336 0.971336
0.971467 0.971467 0.971467
0.971597 0.971597 0.971597
0.971727 0.971727 0.971727
0.971855 0.971855 0.971855
0.971982 0.971982 0.971982
0.972108 0.972108 0.972108
0.972233 0.972233 0.972233
0.972357 0.972357 0.972357
0.972480 0.972480 0.972480
0.972603 0.972603 0.972603
0.972724 0.972724 0.972724
0.972844 0.972844 0.972844
0.972964 0.972964 0.972964
0.973082 0.973082 0.973082
0.973200 0.973200 0.973200
0.973316 0.973316 0.973316
0.973433 0.973433 0.973433
0.973547 0.973547 0.973547
0.973661 0.973661 0.973661
0.973774 0.973774 0.973774
0.973887 0.973887 0.973887
0.973998 0.973998 0.973998
0.974108 0.974108 0.974108
0.974218 0.974218 0.974218
0.974327 0.974327 0.974327
0.974435 0.974435 0.974435
0.974542 0.974542 0.974542
0.974649 0.974649 0.974649
0.974754 0.974754 0.974754
0.974859 0.974859 0.974859
0.974963 0.974963 0.974963
0.975067 0.975067 0.975067
0.975169 0.975169 0.975169
0.975271 0.975271 0.975271
0.975372 0.975372 0.975372
0.975472 0.975472 0.975472
0.975572 0.975572 0.975572
0.975670 0.975670 0.975670
0.975769 0.975769 0.975769
0.975866 0.975866 0.975866
0.975963 0.975963 0.975963
0.976059 0.976059 0.976059
0.976154 0.976154 0.976154
0.976248 0.976248 0.976248
0.976342 0.976342 0.976342
0.976435 0.976435 0.976435
0.976528 0.976528 0.976528
0.976620 0.976620 0.976620
0.976711 0.976711 0.976711
0.976801 0.976801 0.976801
0.976891 0.976891 0.976891
0.976980 0.976980 0.976980
0.977068 0.977068 0.977068
0.977156 0.977156 0.977156
0.977243 0.977243 0.977243
0.977329 0.977329 0.977329
0.977415 0.977415 0.977415
0.977500 0.977500 0.977500
0.977584 0.977584 0.977584
0.977668 0.977668 0.977668
0.977751 0.977751 0.977751
0.977833 0.977833 0.977833
0.977915 0.977915 0.977915
0.977997 0.977997 0.977997
0.978077 0.978077 0.978077
0.978157 0.978157 0.978157
0.978237 0.978237 0.978237
0.978316 0.978316 0.978316
0.978394 0.978394 0.978394
0.978472 0.978472 0.978472
0.978549 0.978549 0.978549
0.978625 0.978625 0.978625
0.978701 0.978701 0.978701
0.978777 0.978777 0.978777
0.978852 0.978852 0.978852
0.978926 0.978926 0.978926
0.979000 0.979000 0.979000
0.979073 0.979073 0.979073
0.979146 0.979146 0.979146
0.979218 0.979218 0.979218
0.979290 0.979290 0.979290
0.979361 0.979361 0.979361
0.979432 0.979432 0.979432
0.979502 0.979502 0.979502
0.979572 0.979572 0.979572
0.979641 0.979641 0.979641
0.979710 0.979710 0.979710
0.979778 0.979778 0.979778
0.979846 0.979846 0.979846
0.979913 0.979913 0.979913
0.979980 0.979980 0.979980
0.980047 0.980047 0.980047
0.980112 0.980112 0.980112
0.980178 0.980178 0.980178
0.980243 0.980243 0.980243
0.980307 0.980307 0.980307
0.980371 0.980371 0.980371
0.980435 0.980435 0.980435
0.980498 0.980498 0.980498
0.980561 0.980561 0.980561
0.980623 0.980623 0.980623
0.980685 0.980685 0.980685
0.980747 0.980747 0.980747
0.980808 0.980808 0.980808
0.980869 0.980869 0.980869
0.980929 0.980929 0.980929
0.980989 0.980989 0.980989
0.981048 0.981048 0.981048
0.981107 0.981107 0.981107
0.981166 0.981166 0.981166
0.981224 0.981224 0.981224
0.981282 0.981282 0.981282
0.981339 0.981339 0.981339
0.981397 0.981397 0.981397
0.981453 0.981453 0.981453
0.981510 0.981510 0.981510
0.981566 0.981566 0.981566
0.981621 0.981621 0.981621
0.981676 0.981676 0.981676
0.981731 0.981731 0.981731
0.981786 0.981786 0.981786
0.981840 0.981840 0.981840
0.981894 0.981894 0.981894
0.981948 0.981948 0.981948
0.982001 0.982001 0.982001
0.982053 0.982053 0.982053
0.982106 0.982106 0.982106
0.982158 0.982158 0.982158
0.982210 0.982210 0.982210
0.982261 0.982261 0.982261
0.982312 0.982312 0.982312
0.982363 0.982363 0.982363
0.982413 0.982413 0.982413
0.982463 0.982463 0.982463
0.982513 0.982513 0.982513
0.982562 0.982562 0.982562
0.982612 0.982612 0.982612
0.982660 0.982660 0.982660
0.982709 0.982709 0.982709
0.982757 0.982757 0.982757
0.982805 0.982805 0.982805
0.982853 0.982853 0.982853
0.982900 0.982900 0.982900
0.982947 0.982947 0.982947
0.982994 0.982994 0.982994
0.983040 0.983040 0.983040
0.983086 0.983086 0.983086
0.983132 0.983132 0.983132
0.983178 0.983178 0.983178
0.983223 0.983223 0.983223
0.983268 0.983268 0.983268
0.983313 0.983313 0.983313
0.983357 0.983357 0.983357
0.983402 0.983402 0.983402
0.983446 0.983446 0.983446
0.983489 0.983489 0.983489
0.983533 0.983533 0.983533
0.983576 0.983576 0.983576
0.983619 0.983619 0.983619
0.983661 0.983661 0.983661
0.983704 0.983704 0.983704
0.983746 0.983746 0.983746
0.983787 0.983787 0.983787
0.983829 0.983829 0.983829
0.983870 0.983870 0.983870
0.983912 0.983912 0.983912
0.983952 0.983952 0.983952
0.983993 0.983993 0.983993
0.984033 0.984033 0.984033
0.984073 0.984073 0.984073
0.984113 0.984113 0.984113
0.984153 0.984153 0.984153
0.984192 0.984192 0.984192
0.984232 0.984232 0.984232
0.984271 0.984271 0.984271
0.984310 0.984310 0.984310
0.984348 0.984348 0.984348
0.984386 0.984386 0.984386
0.984424 0.984424 0.984424
0.984462 0.984462 0.984462
0.984500 0.984500 0.984500
0.984537 0.984537 0.984537
0.984574 0.984574 0.984574
0.984611 0.984611 0.984611
0.984648 0.984648 0.984648
0.984685 0.984685 0.984685
0.984721 0.984721 0.984721
0.984757 0.984757 0.984757
0.984793 0.984793 0.984793
0.984829 0.984829 0.984829
0.984864 0.984864 0.984864
0.984899 0.984899 0.984899
0.984934 0.984934 0.984934
0.984969 0.984969 0.984969
0.985004 0.985004 0.985004
0.985038 0.985038 0.985038
0.985073 0.985073 0.985073
0.985107 0.985107 0.985107
0.985141 0.985141 0.985141
0.985174 0.985174 0.985174
0.985208 0.985208 0.985208
0.985241 0.985241 0.985241
0.985274 0.985274 0.985274
0.985307 0.985307 0.985307
0.985340 0.985340 0.985340
0.985373 0.985373 0.985373
0.985405 0.985405 0.985405
0.985437 0.985437 0.985437
0.985469 0.985469 0.985469
0.985501 0.985501 0.985501
0.985533 0.985533 0.985533
0.985565 0.985565 0.985565
0.985596 0.985596 0.985596
0.985627 0.985627 0.985627
0.985658 0.985658 0.985658
0.985689 0.985689 0.985689
0.985720 0.985720 0.985720
0.985750 0.985750 0.985750
0.985781 0.985781 0.985781
0.985811 0.985811 0.985811
0.985841 0.985841 0.985841
0.985871 0.985871 0.985871
0.985900 0.985900 0.985900
0.985930 0.985930 0.985930
0.985959 0.985959 0.985959
0.985988 0.985988 0.985988
0.986018 0.986018 0.986018
0.986046 0.986046 0.986046
0.986075 0.986075 0.986075
0.986104 0.986104 0.986104
0.986132 0.986132 0.986132
0.986161 0.986161 0.986161
0.986189 0.986189 0.986189
0.986217 0.986217 0.986217
0.986245 0.986245 0.986245
0.986272 0.986272 0.986272
0.986300 0.986300 0.986300
0.986327 0.986327 0.986327
0.986355 0.986355 0.986355
0.986382 0.986382 0.986382
0.986409 0.986409 0.986409
0.986435 0.986435 0.986435
0.986462 0.986462 0.986462
0.986489 0.986489 0.986489
0.986515 0.986515 0.986515
0.986541 0.986541 0.986541
0.986568 0.986568 0.986568
0.986594 0.986594 0.986594
0.986620 0.986620 0.986620
0.986645 0.986645 0.986645
0.986671 0.986671 0.986671
0.986696 0.986696 0.986696
0.986722 0.986722 0.986722
0.986747 0.986747 0.986747
0.986772 0.986772 0.986772
0.986797 0.986797 0.986797
0.986822 0.986822 0.986822
0.986847 0.986847 0.986847
0.986871 0.986871 0.986871
0.986896 0.986896 0.986896
0.986920 0.986920 0.986920
0.986944 0.986944 0.986944
0.986968 0.986968 0.986968
0.986992 0.986992 0.986992
0.987016 0.987016 0.987016
0.987040 0.987040 0.987040
0.987064 0.987064 0.987064
0.987087 0.987087 0.987087
0.987111 0.987111 0.987111
0.987134 0.987134 0.987134
0.987157 0.987157 0.987157
0.987180 0.987180 0.987180
0.987203 0.987203 0.987203
0.987226 0.987226 0.987226
0.987248 0.987248 0.987248
0.987271 0.987271 0.987271
0.987294 0.987294 0.987294
0.987316 0.987316 0.987316
0.987338 0.987338 0.987338
0.987360 0.987360 0.987360
0.987382 0.987382 0.987382
0.987405 0.987405 0.987405
0.987427 0.987427 0.987427
0.987448 0.987448 0.987448
0.987470 0.987470 0.987470
0.987491 0.987491 0.987491
0.987513 0.987513 0.987513
0.987534 0.987534 0.987534
0.987555 0.987555 0.987555
0.987576 0.987576 0.987576
0.987597 0.987597 0.987597
0.987618 0.987618 0.987618
0.987639 0.987639 0.987639
0.987660 0.987660 0.987660
0.987680 0.987680 0.987680
0.987701 0.987701 0.987701
0.987721 0.987721 0.987721
0.987742 0.987742 0.987742
0.987762 0.987762 0.987762
0.987782 0.987782 0.987782
0.987802 0.987802 0.987802
0.987822 0.987822 0.987822
0.987842 0.987842 0.987842
0.987862 0.987862 0.987862
0.987881 0.987881 0.987881
0.987901 0.987901 0.987901
0.987920 0.987920 0.987920
0.987940 0.987940 0.987940
0.987959 0.987959 0.987959
0.987978 0.987978 0.987978
0.987997 0.987997 0.987997
0.988016 0.988016 0.988016
0.988035 0.988035 0.988035
0.988054 0.988054 0.988054
0.988073 0.988073 0.988073
0.988091 0.988091 0.988091
0.988110 0.988110 0.988110
0.988129 0.988129 0.988129
0.988147 0.988147 0.988147
0.988165 0.988165 0.988165
0.988184 0.988184 0.988184
0.988202 0.988202 0.988202
0.988220 0.988220 0.988220
0.988238 0.988238 0.988238
0.988256 0.988256 0.988256
0.988274 0.988274 0.988274
0.988291 0.988291 0.988291
0.988309 0.988309 0.988309
0.988327 0.988327 0.988327
0.988344 0.988344 0.988344
0.988362 0.988362 0.988362
0.988379 0.988379 0.988379
0.988396 0.988396 0.988396
0.988413 0.988413 0.988413
0.988431 0.988431 0.988431
0.988448 0.988448 0.988448
0.988465 0.988465 0.988465
0.988481 0.988481 0.988481
0.988498 0.988498 0.988498
0.988515 0.988515 0.988515
0.988532 0.988532 0.988532
0.988548 0.988548 0.988548
0.988565 0.988565 0.988565
0.988581 0.988581 0.988581
0.988598 0.988598 0.988598
0.988615 0.988615 0.988615
0.988631 0.988631 0.988631
0.988648 0.988648 0.988648
0.988664 0.988664 0.988664
0.988680 0.988680 0.988680
0.988696 0.988696 0.988696
0.988712 0.988712 0.988712
0.988727 0.988727 0.988727
0.988743 0.988743 0.988743
0.988759 0.988759 0.988759
0.988774 0.988774 0.988774
0.988790 0.988790 0.988790
0.988806 0.988806 0.988806
0.988821 0.988821 0.988821
0.988836 0.988836 0.988836
0.988852 0.988852 0.988852
0.988867 0.988867 0.988867
0.988882 0.988882 0.988882
0.988897 0.988897 0.988897
0.988912 0.988912 0.988912
0.988927 0.988927 0.988927
0.988942 0.988942 0.988942
0.988957 0.988957 0.988957
0.988972 0.988972 0.988972
0.988986 0.988986 0.988986
0.989001 0.989001 0.989001
0.989016 0.989016 0.989016
0.989030 0.989030 0.989030
0.989045 0.989045 0.989045
0.989059 0.989059 0.989059
0.989074 0.989074 0.989074
0.989088 0.989088 0.989088
0.989102 0.989102 0.989102
0.989116 0.989116 0.989116
0.989130 0.989130 0.989130
0.989144 0.989144 0.989144
0.989158 0.989158 0.989158
0.989172 0.989172 0.989172
0.989186 0.989186 0.989186
0.989200 0.989200 0.989200
0.989214 0.989214 0.989214
0.989228 0.989228 0.989228
0.989241 0.989241 0.989241
0.989255 0.989255 0.989255
0.989269 0.989269 0.989269
0.989282 0.989282 0.989282
0.989295 0.989295 0.989295
0.989309 0.989309 0.989309
0.989322 0.989322 0.989322
0.989336 0.989336 0.989336
0.989349 0.989349 0.989349
0.989362 0.989362 0.989362
0.989375 0.989375 0.989375
0.989388 0.989388 0.989388
0.989401 0.989401 0.989401
0.989414 0.989414 0.989414
0.989427 0.989427 0.989427
0.989440 0.989440 0.989440
0.989453 0.989453 0.989453
0.989466 0.989466 0.989466
0.989478 0.989478 0.989478
0.989491 0.989491 0.989491
0.989504 0.989504 0.989504
0.989516 0.989516 0.989516
0.989529 0.989529 0.989529
0.989541 0.989541 0.989541
0.989554 0.989554 0.989554
0.989566 0.989566 0.989566
0.989578 0.989578 0.989578
0.989591 0.989591 0.989591
0.989603 0.989603 0.989603
0.989615 0.989615 0.989615
0.989627 0.989627 0.989627
0.989639 0.989639 0.989639
0.989651 0.989651 0.989651
0.989663 0.989663 0.989663
0.989675 0.989675 0.989675
0.989687 0.989687 0.989687
0.989699 0.989699 0.989699
0.989711 0.989711 0.989711
0.989722 0.989722 0.989722
0.989734 0.989734 0.989734
0.989746 0.989746 0.989746
0.989758 0.989758 0.989758
0.989769 0.989769 0.989769
0.989781 0.989781 0.989781
0.989792 0.989792 0.989792
0.989804 0.989804 0.989804
0.989815 0.989815 0.989815
0.989826 0.989826 0.989826
0.989838 0.989838 0.989838
0.989849 0.989849 0.989849
0.989860 0.989860 0.989860
0.989871 0.989871 0.989871
0.989883 0.989883 0.989883
0.989894 0.989894 0.989894
0.989905 0.989905 0.989905
0.989916 0.989916 0.989916
0.989927 0.989927 0.989927
0.989938 0.989938 0.989938
0.989949 0.989949 0.989949
0.989960 0.989960 0.989960
0.989970 0.989970 0.989970
0.989981 0.989981 0.989981
0.989992 0.989992 0.989992
0.990003 0.990003 0.990003
0.990013 0.990013 0.990013
0.990024 0.990024 0.990024
0.990035 0.990035 0.990035
0.990045 0.990045 0.990045
0.990056 0.990056 0.990056
0.990066 0.990066 0.990066
0.990077 0.990077 0.990077
0.990087 0.990087 0.990087
0.990097 0.990097 0.990097
0.990108 0.990108 0.990108
0.990118 0.990118 0.990118
0.990128 0.990128 0.990128
0.990139 0.990139 0.990139
0.990149 0.990149 0.990149
0.990159 0.990159 0.990159
0.990169 0.990169 0.990169
0.990179 0.990179 0.990179
0.990189 0.990189 0.990189
0.990199 0.990199 0.990199
0.990209 0.990209 0.990209
0.990219 0.990219 0.990219
0.990229 0.990229 0.990229
0.990239 0.990239 0.990239
0.990249 0.990249 0.990249
0.990259 0.990259 0.990259
0.990268 0.990268 0.990268
0.990278 0.990278 0.990278
0.990288 0.990288 0.990288
0.990297 0.990297 0.990297
0.990307 0.990307 0.990307
0.990317 0.990317 0.990317
0.990326 0.990326 0.990326
0.990336 0.990336 0.990336
0.990345 0.990345 0.990345
0.990355 0.990355 0.990355
0.990364 0.990364 0.990364
0.990374 0.990374 0.990374
0.990383 0.990383 0.990383
0.990392 0.990392 0.990392
0.990402 0.990402 0.990402
0.990411 0.990411 0.990411
0.990420 0.990420 0.990420
0.990429 0.990429 0.990429
0.990439 0.990439 0.990439
0.990448 0.990448 0.990448
0.990457 0.990457 0.990457
0.990466 0.990466 0.990466
0.990475 0.990475 0.990475
0.990484 0.990484 0.990484
0.990493 0.990493 0.990493
0.990502 0.990502 0.990502
0.990511 0.990511 0.990511
0.990520 0.990520 0.990520
0.990529 0.990529 0.990529
0.990538 0.990538 0.990538
0.990546 0.990546 0.990546
0.990555 0.990555 0.990555
0.990564 0.990564 0.990564
0.990573 0.990573 0.990573
0.990581 0.990581 0.990581
0.990590 0.990590 0.990590
0.990599 0.990599 0.990599
0.990607 0.990607 0.990607
0.990616 0.990616 0.990616
0.990624 0.990624 0.990624
0.990633 0.990633 0.990633
0.990641 0.990641 0.990641
0.990650 0.990650 0.990650
0.990658 0.990658 0.990658
0.990667 0.990667 0.990667
0.990675 0.990675 0.990675
0.990684 0.990684 0.990684
0.990692 0.990692 0.990692
0.990700 0.990700 0.990700
0.990709 0.990709 0.990709
0.990717 0.990717 0.990717
0.990725 0.990725 0.990725
0.990733 0.990733 0.990733
0.990742 0.990742 0.990742
0.990750 0.990750 0.990750
0.990758 0.990758 0.990758
0.990766 0.990766 0.990766
0.990774 0.990774 0.990774
0.990782 0.990782 0.990782
0.990790 0.990790 0.990790
0.990798 0.990798 0.990798
0.990806 0.990806 0.990806
0.990814 0.990814 0.990814
0.990822 0.990822 0.990822
0.990830 0.990830 0.990830
0.990838 0.990838 0.990838
0.990846 0.990846 0.990846
0.990853 0.990853 0.990853
0.990861 0.990861 0.990861
0.990869 0.990869 0.990869
0.990877 0.990877 0.990877
0.990885 0.990885 0.990885
0.990892 0.990892 0.990892
0.990900 0.990900 0.990900
0.990908 0.990908 0.990908
0.990915 0.990915 0.990915
0.990923 0.990923 0.990923
0.990931 0.990931 0.990931
0.990938 0.990938 0.990938
0.990946 0.990946 0.990946
0.990953 0.990953 0.990953
0.990961 0.990961 0.990961
0.990968 0.990968 0.990968
0.990976 0.990976 0.990976
0.990983 0.990983 0.990983
0.990991 0.990991 0.990991
0.990998 0.990998 0.990998
0.991005 0.991005 0.991005
0.991013 0.991013 0.991013
0.991020 0.991020 0.991020
0.991027 0.991027 0.991027
0.991035 0.991035 0.991035
0.991042 0.991042 0.991042
0.991049 0.991049 0.991049
0.991056 0.991056 0.991056
0.991064 0.991064 0.991064
0.991071 0.991071 0.991071
0.991078 0.991078 0.991078
0.991085 0.991085 0.991085
0.991092 0.991092 0.991092
0.991099 0.991099 0.991099
0.991106 0.991106 0.991106
0.991113 0.991113 0.991113
0.991120 0.991120 0.991120
0.991128 0.991128 0.991128
0.991135 0.991135 0.991135
0.991141 0.991141 0.991141
0.991148 0.991148 0.991148
0.991155 0.991155 0.991155
0.991162 0.991162 0.991162
0.991169 0.991169 0.991169
0.991176 0.991176 0.991176
0.991183 0.991183 0.991183
0.991190 0.991190 0.991190
