lut/AlexaV3_EI0200_WYSIWYG_EE_nuke1d.cube
# Alexa conversion LUT, lin2video. Full in/full out.
# created by alexalutconv (2.02)

LUT_1D_SIZE 4096
0.000000 0.000000 0.000000
0.000000 0.000000 0.000000
0.000000 0.000000 0.000000
0.000000 0.000000 0.000000
0.000000 0.000000 0.000000
0.000000 0.000000 0.000000
0.000000 0.000000 0.000000
0.000000 0.000000 0.000000
0.000000 0.000000 0.000000
0.000000 0.000000 0.000000
0.000000 0.000000 0.000000
0.000000 0.000000 0.000000
0.000000 0.000000 0.000000
0.000000 0.000000 0.000000
0.002196 0.002196 0.002196
0.008468 0.008468 0.008468
0.015116 0.015116 0.015116
0.022176 0.022176 0.022176
0.029687 0.029687 0.029687
0.037837 0.037837 0.037837
0.046590 0.046590 0.046590
0.055670 0.055670 0.055670
0.064665 0.064665 0.064665
0.073127 0.073127 0.073127
0.081150 0.081150 0.081150
0.088800 0.088800 0.088800
0.096128 0.096128 0.096128
0.103174 0.103174 0.103174
0.109972 0.109972 0.109972
0.116546 0.116546 0.116546
0.122920 0.122920 0.122920
0.129110 0.129110 0.129110
0.135132 0.135132 0.135132
0.141002 0.141002 0.141002
0.146727 0.146727 0.146727
0.152320 0.152320 0.152320
0.157791 0.157791 0.157791
0.163144 0.163144 0.163144
0.168441 0.168441 0.168441
0.173759 0.173759 0.173759
0.179082 0.179082 0.179082
0.184397 0.184397 0.184397
0.189693 0.189693 0.189693
0.194962 0.194962 0.194962
0.200197 0.200197 0.200197
0.205391 0.205391 0.205391
0.210539 0.210539 0.210539
0.215638 0.215638 0.215638
0.220685 0.220685 0.220685
0.225677 0.225677 0.225677
0.230613 0.230613 0.230613
0.235490 0.235490 0.235490
0.240308 0.240308 0.240308
0.245066 0.245066 0.245066
0.249764 0.249764 0.249764
0.254401 0.254401 0.254401
0.258977 0.258977 0.258977
0.263493 0.263493 0.263493
0.267949 0.267949 0.267949
0.272343 0.272343 0.272343
0.276678 0.276678 0.276678
0.280954 0.280954 0.280954
0.285172 0.285172 0.285172
0.289332 0.289332 0.289332
0.293435 0.293435 0.293435
0.297480 0.297480 0.297480
0.301470 0.301470 0.301470
0.305405 0.305405 0.305405
0.309286 0.309286 0.309286
0.313113 0.313113 0.313113
0.316888 0.316888 0.316888
0.320610 0.320610 0.320610
0.324282 0.324282 0.324282
0.327904 0.327904 0.327904
0.331476 0.331476 0.331476
0.335000 0.335000 0.335000
0.338476 0.338476 0.338476
0.341904 0.341904 0.341904
0.345287 0.345287 0.345287
0.348624 0.348624 0.348624
0.351917 0.351917 0.351917
0.355165 0.355165 0.355165
0.358371 0.358371 0.358371
0.361534 0.361534 0.361534
0.364655 0.364655 0.364655
0.367735 0.367735 0.367735
0.370775 0.370775 0.370775
0.373775 0.373775 0.373775
0.376736 0.376736 0.376736
0.379659 0.379659 0.379659
0.382544 0.382544 0.382544
0.385392 0.385392 0.385392
0.388204 0.388204 0.388204
0.390980 0.390980 0.390980
0.393720 0.393720 0.393720
0.396426 0.396426 0.396426
0.399098 0.399098 0.399098
0.401737 0.401737 0.401737
0.404342 0.404342 0.404342
0.406917 0.406917 0.406917
0.409463 0.409463 0.409463
0.411980 0.411980 0.411980
0.414469 0.414469 0.414469
0.416932 0.416932 0.416932
0.419367 0.419367 0.419367
0.421777 0.421777 0.421777
0.424160 0.424160 0.424160
0.426519 0.426519 0.426519
0.428853 0.428853 0.428853
0.431163 0.431163 0.431163
0.433450 0.433450 0.433450
0.435714 0.435714 0.435714
0.437955 0.437955 0.437955
0.440173 0.440173 0.440173
0.442370 0.442370 0.442370
0.444546 0.444546 0.444546
0.446701 0.446701 0.446701
0.448834 0.448834 0.448834
0.450948 0.450948 0.450948
0.453042 0.453042 0.453042
0.455116 0.455116 0.455116
0.457172 0.457172 0.457172
0.459208 0.459208 0.459208
0.461226 0.461226 0.461226
0.463226 0.463226 0.463226
0.465208 0.465208 0.465208
0.467172 0.467172 0.467172
0.469119 0.469119 0.469119
0.471049 0.471049 0.471049
0.472963 0.472963 0.472963
0.474860 0.474860 0.474860
0.476741 0.476741 0.476741
0.478606 0.478606 0.478606
0.480456 0.480456 0.480456
0.482290 0.482290 0.482290
0.484109 0.484109 0.484109
0.485914 0.485914 0.485914
0.487703 0.487703 0.487703
0.489478 0.489478 0.489478
0.491239 0.491239 0.491239
0.492986 0.492986 0.492986
0.494719 0.494719 0.494719
0.496438 0.496438 0.496438
0.498145 0.498145 0.498145
0.499838 0.499838 0.499838
0.501518 0.501518 0.501518
0.503186 0.503186 0.503186
0.504840 0.504840 0.504840
0.506483 0.506483 0.506483
0.508113 0.508113 0.508113
0.509731 0.509731 0.509731
0.511337 0.511337 0.511337
0.512932 0.512932 0.512932
0.514515 0.514515 0.514515
0.516086 0.516086 0.516086
0.517647 0.517647 0.517647
0.519196 0.519196 0.519196
0.520734 0.520734 0.520734
0.522262 0.522262 0.522262
0.523778 0.523778 0.523778
0.525285 0.525285 0.525285
0.526781 0.526781 0.526781
0.528266 0.528266 0.528266
0.529742 0.529742 0.529742
0.531207 0.531207 0.531207
0.532663 0.532663 0.532663
0.534109 0.534109 0.534109
0.535545 0.535545 0.535545
0.536972 0.536972 0.536972
0.538390 0.538390 0.538390
0.539798 0.539798 0.539798
0.541197 0.541197 0.541197
0.542588 0.542588 0.542588
0.543969 0.543969 0.543969
0.545341 0.545341 0.545341
0.546705 0.546705 0.546705
0.548061 0.548061 0.548061
0.549407 0.549407 0.549407
0.550746 0.550746 0.550746
0.552076 0.552076 0.552076
0.553398 0.553398 0.553398
0.554712 0.554712 0.554712
0.556018 0.556018 0.556018
0.557316 0.557316 0.557316
0.558606 0.558606 0.558606
0.559888 0.559888 0.559888
0.561163 0.561163 0.561163
0.562430 0.562430 0.562430
0.563690 0.563690 0.563690
0.564943 0.564943 0.564943
0.566187 0.566187 0.566187
0.567425 0.567425 0.567425
0.568656 0.568656 0.568656
0.569879 0.569879 0.569879
0.571096 0.571096 0.571096
0.572306 0.572306 0.572306
0.573508 0.573508 0.573508
0.574705 0.574705 0.574705
0.575894 0.575894 0.575894
0.577077 0.577077 0.577077
0.578253 0.578253 0.578253
0.579423 0.579423 0.579423
0.580587 0.580587 0.580587
0.581743 0.581743 0.581743
0.582894 0.582894 0.582894
0.584039 0.584039 0.584039
0.585177 0.585177 0.585177
0.586309 0.586309 0.586309
0.587436 0.587436 0.587436
0.588556 0.588556 0.588556
0.589670 0.589670 0.589670
0.590779 0.590779 0.590779
0.591881 0.591881 0.591881
0.592979 0.592979 0.592979
0.594070 0.594070 0.594070
0.595155 0.595155 0.595155
0.596236 0.596236 0.596236
0.597310 0.597310 0.597310
0.598379 0.598379 0.598379
0.599442 0.599442 0.599442
0.600501 0.600501 0.600501
0.601554 0.601554 0.601554
0.602602 0.602602 0.602602
0.603645 0.603645 0.603645
0.604682 0.604682 0.604682
0.605714 0.605714 0.605714
0.606742 0.606742 0.606742
0.607764 0.607764 0.607764
0.608781 0.608781 0.608781
0.609793 0.609793 0.609793
0.610801 0.610801 0.610801
0.611803 0.611803 0.611803
0.612801 0.612801 0.612801
0.613793 0.613793 0.613793
0.614782 0.614782 0.614782
0.615766 0.615766 0.615766
0.616744 0.616744 0.616744
0.617719 0.617719 0.617719
0.618689 0.618689 0.618689
0.619654 0.619654 0.619654
0.620615 0.620615 0.620615
0.621572 0.621572 0.621572
0.622524 0.622524 0.622524
0.623472 0.623472 0.623472
0.624415 0.624415 0.624415
0.625354 0.625354 0.625354
0.626289 0.626289 0.626289
0.627220 0.627220 0.627220
0.628146 0.628146 0.628146
0.629068 0.629068 0.629068
0.629987 0.629987 0.629987
0.630901 0.630901 0.630901
0.631811 0.631811 0.631811
0.632717 0.632717 0.632717
0.633620 0.633620 0.633620
0.634518 0.634518 0.634518
0.635413 0.635413 0.635413
0.636303 0.636303 0.636303
0.637189 0.637189 0.637189
0.638073 0.638073 0.638073
0.638952 0.638952 0.638952
0.639827 0.639827 0.639827
0.640699 0.640699 0.640699
0.641567 0.641567 0.641567
0.642432 0.642432 0.642432
0.643292 0.643292 0.643292
0.644149 0.644149 0.644149
0.645002 0.645002 0.645002
0.645852 0.645852 0.645852
0.646699 0.646699 0.646699
0.647542 0.647542 0.647542
0.648381 0.648381 0.648381
0.649217 0.649217 0.649217
0.650050 0.650050 0.650050
0.650880 0.650880 0.650880
0.651706 0.651706 0.651706
0.652528 0.652528 0.652528
0.653347 0.653347 0.653347
0.654163 0.654163 0.654163
0.654976 0.654976 0.654976
0.655786 0.655786 0.655786
0.656592 0.656592 0.656592
0.657395 0.657395 0.657395
0.658195 0.658195 0.658195
0.658991 0.658991 0.658991
0.659786 0.659786 0.659786
0.660576 0.660576 0.660576
0.661364 0.661364 0.661364
0.662148 0.662148 0.662148
0.662929 0.662929 0.662929
0.663708 0.663708 0.663708
0.664484 0.664484 0.664484
0.665256 0.665256 0.665256
0.666026 0.666026 0.666026
0.666792 0.666792 0.666792
0.667556 0.667556 0.667556
0.668317 0.668317 0.668317
0.669075 0.669075 0.669075
0.669830 0.669830 0.669830
0.670583 0.670583 0.670583
0.671332 0.671332 0.671332
0.672079 0.672079 0.672079
0.672822 0.672822 0.672822
0.673564 0.673564 0.673564
0.674303 0.674303 0.674303
0.675039 0.675039 0.675039
0.675772 0.675772 0.675772
0.676502 0.676502 0.676502
0.677230 0.677230 0.677230
0.677955 0.677955 0.677955
0.678678 0.678678 0.678678
0.679398 0.679398 0.679398
0.680115 0.680115 0.680115
0.680830 0.680830 0.680830
0.681542 0.681542 0.681542
0.682252 0.682252 0.682252
0.682959 0.682959 0.682959
0.683664 0.683664 0.683664
0.684367 0.684367 0.684367
0.685067 0.685067 0.685067
0.685764 0.685764 0.685764
0.686459 0.686459 0.686459
0.687151 0.687151 0.687151
0.687841 0.687841 0.687841
0.688529 0.688529 0.688529
0.689215 0.689215 0.689215
0.689898 0.689898 0.689898
0.690579 0.690579 0.690579
0.691257 0.691257 0.691257
0.691933 0.691933 0.691933
0.692607 0.692607 0.692607
0.693278 0.693278 0.693278
0.693947 0.693947 0.693947
0.694615 0.694615 0.694615
0.695280 0.695280 0.695280
0.695942 0.695942 0.695942
0.696603 0.696603 0.696603
0.697261 0.697261 0.697261
0.697916 0.697916 0.697916
0.698570 0.698570 0.698570
0.699222 0.699222 0.699222
0.699872 0.699872 0.699872
0.700519 0.700519 0.700519
0.701164 0.701164 0.701164
0.701808 0.701808 0.701808
0.702448 0.702448 0.702448
0.703087 0.703087 0.703087
0.703724 0.703724 0.703724
0.704359 0.704359 0.704359
0.704992 0.704992 0.704992
0.705623 0.705623 0.705623
0.706251 0.706251 0.706251
0.706879 0.706879 0.706879
0.707503 0.707503 0.707503
0.708126 0.708126 0.708126
0.708747 0.708747 0.708747
0.709366 0.709366 0.709366
0.709982 0.709982 0.709982
0.710598 0.710598 0.710598
0.711211 0.711211 0.711211
0.711822 0.711822 0.711822
0.712432 0.712432 0.712432
0.713039 0.713039 0.713039
0.713644 0.713644 0.713644
0.714248 0.714248 0.714248
0.714849 0.714849 0.714849
0.715449 0.715449 0.715449
0.716047 0.716047 0.716047
0.716644 0.716644 0.716644
0.717238 0.717238 0.717238
0.717830 0.717830 0.717830
0.718422 0.718422 0.718422
0.719011 0.719011 0.719011
0.719598 0.719598 0.719598
0.720184 0.720184 0.720184
0.720767 0.720767 0.720767
0.721349 0.721349 0.721349
0.721930 0.721930 0.721930
0.722508 0.722508 0.722508
0.723085 0.723085 0.723085
0.723660 0.723660 0.723660
0.724234 0.724234 0.724234
0.724805 0.724805 0.724805
0.725375 0.725375 0.725375
0.725944 0.725944 0.725944
0.726510 0.726510 0.726510
0.727075 0.727075 0.727075
0.727639 0.727639 0.727639
0.728201 0.728201 0.728201
0.728761 0.728761 0.728761
0.729319 0.729319 0.729319
0.729876 0.729876 0.729876
0.730432 0.730432 0.730432
0.730985 0.730985 0.730985
0.731537 0.731537 0.731537
0.732088 0.732088 0.732088
0.732637 0.732637 0.732637
0.733185 0.733185 0.733185
0.733731 0.733731 0.733731
0.734275 0.734275 0.734275
0.734818 0.734818 0.734818
0.735359 0.735359 0.735359
0.735898 0.735898 0.735898
0.736437 0.736437 0.736437
0.736974 0.736974 0.736974
0.737509 0.737509 0.737509
0.738043 0.738043 0.738043
0.738575 0.738575 0.738575
0.739106 0.739106 0.739106
0.739636 0.739636 0.739636
0.740163 0.740163 0.740163
0.740690 0.740690 0.740690
0.741215 0.741215 0.741215
0.741738 0.741738 0.741738
0.742260 0.742260 0.742260
0.742781 0.742781 0.742781
0.743301 0.743301 0.743301
0.743818 0.743818 0.743818
0.744335 0.744335 0.744335
0.744850 0.744850 0.744850
0.745364 0.745364 0.745364
0.745876 0.745876 0.745876
0.746387 0.746387 0.746387
0.746897 0.746897 0.746897
0.747405 0.747405 0.747405
0.747912 0.747912 0.747912
0.748417 0.748417 0.748417
0.748922 0.748922 0.748922
0.749425 0.749425 0.749425
0.749926 0.749926 0.749926
0.750426 0.750426 0.750426
0.750925 0.750925 0.750925
0.751423 0.751423 0.751423
0.751919 0.751919 0.751919
0.752415 0.752415 0.752415
0.752908 0.752908 0.752908
0.753401 0.753401 0.753401
0.753892 0.753892 0.753892
0.754381 0.754381 0.754381
0.754870 0.754870 0.754870
0.755358 0.755358 0.755358
0.755844 0.755844 0.755844
0.756329 0.756329 0.756329
0.756812 0.756812 0.756812
0.757295 0.757295 0.757295
0.757776 0.757776 0.757776
0.758256 0.758256 0.758256
0.758734 0.758734 0.758734
0.759213 0.759213 0.759213
0.759689 0.759689 0.759689
0.760164 0.760164 0.760164
0.760638 0.760638 0.760638
0.761110 0.761110 0.761110
0.761582 0.761582 0.761582
0.762052 0.762052 0.762052
0.762522 0.762522 0.762522
0.762990 0.762990 0.762990
0.763457 0.763457 0.763457
0.763922 0.763922 0.763922
0.764387 0.764387 0.764387
0.764850 0.764850 0.764850
0.765312 0.765312 0.765312
0.765774 0.765774 0.765774
0.766233 0.766233 0.766233
0.766693 0.766693 0.766693
0.767151 0.767151 0.767151
0.767607 0.767607 0.767607
0.768063 0.768063 0.768063
0.768517 0.768517 0.768517
0.768970 0.768970 0.768970
0.769422 0.769422 0.769422
0.769874 0.769874 0.769874
0.770324 0.770324 0.770324
0.770773 0.770773 0.770773
0.771221 0.771221 0.771221
0.771668 0.771668 0.771668
0.772113 0.772113 0.772113
0.772558 0.772558 0.772558
0.773002 0.773002 0.773002
0.773444 0.773444 0.773444
0.773886 0.773886 0.773886
0.774327 0.774327 0.774327
0.774766 0.774766 0.774766
0.775205 0.775205 0.775205
0.775642 0.775642 0.775642
0.776078 0.776078 0.776078
0.776513 0.776513 0.776513
0.776948 0.776948 0.776948
0.777381 0.777381 0.777381
0.777814 0.777814 0.777814
0.778245 0.778245 0.778245
0.778675 0.778675 0.778675
0.779105 0.779105 0.779105
0.779533 0.779533 0.779533
0.779960 0.779960 0.779960
0.780386 0.780386 0.780386
0.780812 0.780812 0.780812
0.781236 0.781236 0.781236
0.781660 0.781660 0.781660
0.782083 0.782083 0.782083
0.782504 0.782504 0.782504
0.782924 0.782924 0.782924
0.783344 0.783344 0.783344
0.783762 0.783762 0.783762
0.784180 0.784180 0.784180
0.784597 0.784597 0.784597
0.785012 0.785012 0.785012
0.785428 0.785428 0.785428
0.785842 0.785842 0.785842
0.786255 0.786255 0.786255
0.786667 0.786667 0.786667
0.787078 0.787078 0.787078
0.787488 0.787488 0.787488
0.787897 0.787897 0.787897
0.788306 0.788306 0.788306
0.788713 0.788713 0.788713
0.789120 0.789120 0.789120
0.789526 0.789526 0.789526
0.789931 0.789931 0.789931
0.790335 0.790335 0.790335
0.790738 0.790738 0.790738
0.791140 0.791140 0.791140
0.791541 0.791541 0.791541
0.791941 0.791941 0.791941
0.792341 0.792341 0.792341
0.792739 0.792739 0.792739
0.793137 0.793137 0.793137
0.793534 0.793534 0.793534
0.793931 0.793931 0.793931
0.794326 0.794326 0.794326
0.794720 0.794720 0.794720
0.795114 0.795114 0.795114
0.795507 0.795507 0.795507
0.795898 0.795898 0.795898
0.796289 0.796289 0.796289
0.796679 0.796679 0.796679
0.797068 0.797068 0.797068
0.797457 0.797457 0.797457
0.797845 0.797845 0.797845
0.798232 0.798232 0.798232
0.798618 0.798618 0.798618
0.799003 0.799003 0.799003
0.799388 0.799388 0.799388
0.799771 0.799771 0.799771
0.800154 0.800154 0.800154
0.800536 0.800536 0.800536
0.800917 0.800917 0.800917
0.801297 0.801297 0.801297
0.801677 0.801677 0.801677
0.802055 0.802055 0.802055
0.802434 0.802434 0.802434
0.802811 0.802811 0.802811
0.803188 0.803188 0.803188
0.803563 0.803563 0.803563
0.803938 0.803938 0.803938
0.804312 0.804312 0.804312
0.804685 0.804685 0.804685
0.805058 0.805058 0.805058
0.805430 0.805430 0.805430
0.805801 0.805801 0.805801
0.806171 0.806171 0.806171
0.806540 0.806540 0.806540
0.806910 0.806910 0.806910
0.807278 0.807278 0.807278
0.807645 0.807645 0.807645
0.808012 0.808012 0.808012
0.808377 0.808377 0.808377
0.808742 0.808742 0.808742
0.809106 0.809106 0.809106
0.809470 0.809470 0.809470
0.809833 0.809833 0.809833
0.810195 0.810195 0.810195
0.810556 0.810556 0.810556
0.810917 0.810917 0.810917
0.811277 0.811277 0.811277
0.811636 0.811636 0.811636
0.811995 0.811995 0.811995
0.812353 0.812353 0.812353
0.812709 0.812709 0.812709
0.813065 0.813065 0.813065
0.813420 0.813420 0.813420
0.813773 0.813773 0.813773
0.814126 0.814126 0.814126
0.814477 0.814477 0.814477
0.814827 0.814827 0.814827
0.815177 0.815177 0.815177
0.815525 0.815525 0.815525
0.815872 0.815872 0.815872
0.816219 0.816219 0.816219
0.816564 0.816564 0.816564
0.816908 0.816908 0.816908
0.817251 0.817251 0.817251
0.817594 0.817594 0.817594
0.817935 0.817935 0.817935
0.818275 0.818275 0.818275
0.818615 0.818615 0.818615
0.818953 0.818953 0.818953
0.819290 0.819290 0.819290
0.819626 0.819626 0.819626
0.819961 0.819961 0.819961
0.820295 0.820295 0.820295
0.820629 0.820629 0.820629
0.820961 0.820961 0.820961
0.821292 0.821292 0.821292
0.821623 0.821623 0.821623
0.821953 0.821953 0.821953
0.822281 0.822281 0.822281
0.822608 0.822608 0.822608
0.822935 0.822935 0.822935
0.823261 0.823261 0.823261
0.823586 0.823586 0.823586
0.823910 0.823910 0.823910
0.824232 0.824232 0.824232
0.824554 0.824554 0.824554
0.824875 0.824875 0.824875
0.825195 0.825195 0.825195
0.825514 0.825514 0.825514
0.825833 0.825833 0.825833
0.826150 0.826150 0.826150
0.826467 0.826467 0.826467
0.826782 0.826782 0.826782
0.827097 0.827097 0.827097
0.827411 0.827411 0.827411
0.827724 0.827724 0.827724
0.828036 0.828036 0.828036
0.828347 0.828347 0.828347
0.828657 0.828657 0.828657
0.828967 0.828967 0.828967
0.829276 0.829276 0.829276
0.829583 0.829583 0.829583
0.829890 0.829890 0.829890
0.830196 0.830196 0.830196
0.830501 0.830501 0.830501
0.830806 0.830806 0.830806
0.831109 0.831109 0.831109
0.831411 0.831411 0.831411
0.831713 0.831713 0.831713
0.832014 0.832014 0.832014
0.832314 0.832314 0.832314
0.832613 0.832613 0.832613
0.832912 0.832912 0.832912
0.833210 0.833210 0.833210
0.833507 0.833507 0.833507
0.833803 0.833803 0.833803
0.834098 0.834098 0.834098
0.834392 0.834392 0.834392
0.834685 0.834685 0.834685
0.834979 0.834979 0.834979
0.835271 0.835271 0.835271
0.835562 0.835562 0.835562
0.835852 0.835852 0.835852
0.836142 0.836142 0.836142
0.836431 0.836431 0.836431
0.836719 0.836719 0.836719
0.837006 0.837006 0.837006
0.837292 0.837292 0.837292
0.837578 0.837578 0.837578
0.837863 0.837863 0.837863
0.838147 0.838147 0.838147
0.838430 0.838430 0.838430
0.838713 0.838713 0.838713
0.838995 0.838995 0.838995
0.839277 0.839277 0.839277
0.839557 0.839557 0.839557
0.839836 0.839836 0.839836
0.840115 0.840115 0.840115
0.840393 0.840393 0.840393
0.840671 0.840671 0.840671
0.840947 0.840947 0.840947
0.841223 0.841223 0.841223
0.841499 0.841499 0.841499
0.841774 0.841774 0.841774
0.842047 0.842047 0.842047
0.842320 0.842320 0.842320
0.842593 0.842593 0.842593
0.842864 0.842864 0.842864
0.843135 0.843135 0.843135
0.843405 0.843405 0.843405
0.843674 0.843674 0.843674
0.843943 0.843943 0.843943
0.844211 0.844211 0.844211
0.844479 0.844479 0.844479
0.844745 0.844745 0.844745
0.845011 0.845011 0.845011
0.845277 0.845277 0.845277
0.845541 0.845541 0.845541
0.845805 0.845805 0.845805
0.846069 0.846069 0.846069
0.846331 0.846331 0.846331
0.846593 0.846593 0.846593
0.846854 0.846854 0.846854
0.847114 0.847114 0.847114
0.847374 0.847374 0.847374
0.847633 0.847633 0.847633
0.847892 0.847892 0.847892
0.848150 0.848150 0.848150
0.848408 0.848408 0.848408
0.848664 0.848664 0.848664
0.848920 0.848920 0.848920
0.849175 0.849175 0.849175
0.849430 0.849430 0.849430
0.849683 0.849683 0.849683
0.849937 0.849937 0.849937
0.850189 0.850189 0.850189
0.850441 0.850441 0.850441
0.850692 0.850692 0.850692
0.850943 0.850943 0.850943
0.851193 0.851193 0.851193
0.851442 0.851442 0.851442
0.851692 0.851692 0.851692
0.851940 0.851940 0.851940
0.852187 0.852187 0.852187
0.852435 0.852435 0.852435
0.852681 0.852681 0.852681
0.852927 0.852927 0.852927
0.853172 0.853172 0.853172
0.853416 0.853416 0.853416
0.853660 0.853660 0.853660
0.853903 0.853903 0.853903
0.854146 0.854146 0.854146
0.854388 0.854388 0.854388
0.854629 0.854629 0.854629
0.854870 0.854870 0.854870
0.855110 0.855110 0.855110
0.855350 0.855350 0.855350
0.855589 0.855589 0.855589
0.855828 0.855828 0.855828
0.856066 0.856066 0.856066
0.856303 0.856303 0.856303
0.856540 0.856540 0.856540
0.856776 0.856776 0.856776
0.857011 0.857011 0.857011
0.857246 0.857246 0.857246
0.857481 0.857481 0.857481
0.857714 0.857714 0.857714
0.857948 0.857948 0.857948
0.858180 0.858180 0.858180
0.858412 0.858412 0.858412
0.858644 0.858644 0.858644
0.858875 0.858875 0.858875
0.859105 0.859105 0.859105
0.859336 0.859336 0.859336
0.859565 0.859565 0.859565
0.859794 0.859794 0.859794
0.860022 0.860022 0.860022
0.860250 0.860250 0.860250
0.860477 0.860477 0.860477
0.860703 0.860703 0.860703
0.860929 0.860929 0.860929
0.861155 0.861155 0.861155
0.861379 0.861379 0.861379
0.861604 0.861604 0.861604
0.861828 0.861828 0.861828
0.862051 0.862051 0.862051
0.862274 0.862274 0.862274
0.862496 0.862496 0.862496
0.862717 0.862717 0.862717
0.862938 0.862938 0.862938
0.863159 0.863159 0.863159
0.863380 0.863380 0.863380
0.863600 0.863600 0.863600
0.863819 0.863819 0.863819
0.864037 0.864037 0.864037
0.864255 0.864255 0.864255
0.864473 0.864473 0.864473
0.864690 0.864690 0.864690
0.864906 0.864906 0.864906
0.865122 0.865122 0.865122
0.865337 0.865337 0.865337
0.865552 0.865552 0.865552
0.865767 0.865767 0.865767
0.865981 0.865981 0.865981
0.866194 0.866194 0.866194
0.866407 0.866407 0.866407
0.866620 0.866620 0.866620
0.866831 0.866831 0.866831
0.867043 0.867043 0.867043
0.867254 0.867254 0.867254
0.867465 0.867465 0.867465
0.867675 0.867675 0.867675
0.867885 0.867885 0.867885
0.868094 0.868094 0.868094
0.868302 0.868302 0.868302
0.868510 0.868510 0.868510
0.868718 0.868718 0.868718
0.868925 0.868925 0.868925
0.869131 0.869131 0.869131
0.869337 0.869337 0.869337
0.869543 0.869543 0.869543
0.869748 0.869748 0.869748
0.869953 0.869953 0.869953
0.870157 0.870157 0.870157
0.870361 0.870361 0.870361
0.870564 0.870564 0.870564
0.870767 0.870767 0.870767
0.870969 0.870969 0.870969
0.871171 0.871171 0.871171
0.871372 0.871372 0.871372
0.871574 0.871574 0.871574
0.871774 0.871774 0.871774
0.871975 0.871975 0.871975
0.872174 0.872174 0.872174
0.872374 0.872374 0.872374
0.872572 0.872572 0.872572
0.872771 0.872771 0.872771
0.872968 0.872968 0.872968
0.873166 0.873166 0.873166
0.873363 0.873363 0.873363
0.873559 0.873559 0.873559
0.873755 0.873755 0.873755
0.873951 0.873951 0.873951
0.874146 0.874146 0.874146
0.874340 0.874340 0.874340
0.874535 0.874535 0.874535
0.874728 0.874728 0.874728
0.874922 0.874922 0.874922
0.875115 0.875115 0.875115
0.875307 0.875307 0.875307
0.875499 0.875499 0.875499
0.875691 0.875691 0.875691
0.875882 0.875882 0.875882
0.876073 0.876073 0.876073
0.876264 0.876264 0.876264
0.876454 0.876454 0.876454
0.876644 0.876644 0.876644
0.876833 0.876833 0.876833
0.877022 0.877022 0.877022
0.877210 0.877210 0.877210
0.877398 0.877398 0.877398
0.877585 0.877585 0.877585
0.877772 0.877772 0.877772
0.877959 0.877959 0.877959
0.878145 0.878145 0.878145
0.878331 0.878331 0.878331
0.878516 0.878516 0.878516
0.878701 0.878701 0.878701
0.878886 0.878886 0.878886
0.879070 0.879070 0.879070
0.879254 0.879254 0.879254
0.879437 0.879437 0.879437
0.879620 0.879620 0.879620
0.879803 0.879803 0.879803
0.879985 0.879985 0.879985
0.880167 0.880167 0.880167
0.880348 0.880348 0.880348
0.880529 0.880529 0.880529
0.880710 0.880710 0.880710
0.880890 0.880890 0.880890
0.881070 0.881070 0.881070
0.881249 0.881249 0.881249
0.881429 0.881429 0.881429
0.881607 0.881607 0.881607
0.881786 0.881786 0.881786
0.881964 0.881964 0.881964
0.882141 0.882141 0.882141
0.882318 0.882318 0.882318
0.882495 0.882495 0.882495
0.882671 0.882671 0.882671
0.882847 0.882847 0.882847
0.883023 0.883023 0.883023
0.883198 0.883198 0.883198
0.883373 0.883373 0.883373
0.883547 0.883547 0.883547
0.883721 0.883721 0.883721
0.883895 0.883895 0.883895
0.884068 0.884068 0.884068
0.884241 0.884241 0.884241
0.884414 0.884414 0.884414
0.884586 0.884586 0.884586
0.884758 0.884758 0.884758
0.884930 0.884930 0.884930
0.885101 0.885101 0.885101
0.885272 0.885272 0.885272
0.885443 0.885443 0.885443
0.885613 0.885613 0.885613
0.885782 0.885782 0.885782
0.885952 0.885952 0.885952
0.886121 0.886121 0.886121
0.886289 0.886289 0.886289
0.886458 0.886458 0.886458
0.886625 0.886625 0.886625
0.886793 0.886793 0.886793
0.886960 0.886960 0.886960
0.887128 0.887128 0.887128
0.887294 0.887294 0.887294
