lut/AlexaV3_EI1600_WYSIWYG_EE_nuke1d.cube
# Alexa conversion LUT, lin2video. Full in/full out.
# created by alexalutconv (2.02)

LUT_1D_SIZE 4096
0.000000 0.000000 0.000000
0.000000 0.000000 0.000000
0.000000 0.000000 0.000000
0.000000 0.000000 0.000000
0.000000 0.000000 0.000000
0.000000 0.000000 0.000000
0.000000 0.000000 0.000000
0.000000 0.000000 0.000000
0.000000 0.000000 0.000000
0.000000 0.000000 0.000000
0.000000 0.000000 0.000000
0.000000 0.000000 0.000000
0.000000 0.000000 0.000000
0.000000 0.000000 0.000000
0.000000 0.000000 0.000000
0.000000 0.000000 0.000000
0.017748 0.017748 0.017748
0.081718 0.081718 0.081718
0.139121 0.139121 0.139121
0.184203 0.184203 0.184203
0.225694 0.225694 0.225694
0.262686 0.262686 0.262686
0.295300 0.295300 0.295300
0.324096 0.324096 0.324096
0.349644 0.349644 0.349644
0.372438 0.372438 0.372438
0.392883 0.392883 0.392883
0.411357 0.411357 0.411357
0.428254 0.428254 0.428254
0.443821 0.443821 0.443821
0.458246 0.458246 0.458246
0.471682 0.471682 0.471682
0.484254 0.484254 0.484254
0.496061 0.496061 0.496061
0.507191 0.507191 0.507191
0.517712 0.517712 0.517712
0.527687 0.527687 0.527687
0.537169 0.537169 0.537169
0.546201 0.546201 0.546201
0.554822 0.554822 0.554822
0.563068 0.563068 0.563068
0.570968 0.570968 0.570968
0.578550 0.578550 0.578550
0.585836 0.585836 0.585836
0.592848 0.592848 0.592848
0.599605 0.599605 0.599605
0.606124 0.606124 0.606124
0.612421 0.612421 0.612421
0.618509 0.618509 0.618509
0.624401 0.624401 0.624401
0.630110 0.630110 0.630110
0.635645 0.635645 0.635645
0.641016 0.641016 0.641016
0.646232 0.646232 0.646232
0.651302 0.651302 0.651302
0.656233 0.656233 0.656233
0.661032 0.661032 0.661032
0.665705 0.665705 0.665705
0.670259 0.670259 0.670259
0.674699 0.674699 0.674699
0.679032 0.679032 0.679032
0.683259 0.683259 0.683259
0.687389 0.687389 0.687389
0.691422 0.691422 0.691422
0.695366 0.695366 0.695366
0.699222 0.699222 0.699222
0.702995 0.702995 0.702995
0.706688 0.706688 0.706688
0.710304 0.710304 0.710304
0.713846 0.713846 0.713846
0.717316 0.717316 0.717316
0.720718 0.720718 0.720718
0.724053 0.724053 0.724053
0.727326 0.727326 0.727326
0.730536 0.730536 0.730536
0.733686 0.733686 0.733686
0.736780 0.736780 0.736780
0.739819 0.739819 0.739819
0.742802 0.742802 0.742802
0.745735 0.745735 0.745735
0.748617 0.748617 0.748617
0.751451 0.751451 0.751451
0.754237 0.754237 0.754237
0.756978 0.756978 0.756978
0.759674 0.759674 0.759674
0.762327 0.762327 0.762327
0.764939 0.764939 0.764939
0.767510 0.767510 0.767510
0.770042 0.770042 0.770042
0.772535 0.772535 0.772535
0.774991 0.774991 0.774991
0.777410 0.777410 0.777410
0.779795 0.779795 0.779795
0.782145 0.782145 0.782145
0.784462 0.784462 0.784462
0.786746 0.786746 0.786746
0.788999 0.788999 0.788999
0.791220 0.791220 0.791220
0.793412 0.793412 0.793412
0.795574 0.795574 0.795574
0.797707 0.797707 0.797707
0.799813 0.799813 0.799813
0.801883 0.801883 0.801883
0.803914 0.803914 0.803914
0.805908 0.805908 0.805908
0.807865 0.807865 0.807865
0.809786 0.809786 0.809786
0.811673 0.811673 0.811673
0.813527 0.813527 0.813527
0.815346 0.815346 0.815346
0.817135 0.817135 0.817135
0.818892 0.818892 0.818892
0.820619 0.820619 0.820619
0.822316 0.822316 0.822316
0.823985 0.823985 0.823985
0.825626 0.825626 0.825626
0.827240 0.827240 0.827240
0.828827 0.828827 0.828827
0.830388 0.830388 0.830388
0.831924 0.831924 0.831924
0.833435 0.833435 0.833435
0.834922 0.834922 0.834922
0.836386 0.836386 0.836386
0.837827 0.837827 0.837827
0.839246 0.839246 0.839246
0.840642 0.840642 0.840642
0.842017 0.842017 0.842017
0.843372 0.843372 0.843372
0.844706 0.844706 0.844706
0.846019 0.846019 0.846019
0.847314 0.847314 0.847314
0.848589 0.848589 0.848589
0.849846 0.849846 0.849846
0.851085 0.851085 0.851085
0.852306 0.852306 0.852306
0.853509 0.853509 0.853509
0.854695 0.854695 0.854695
0.855865 0.855865 0.855865
0.857018 0.857018 0.857018
0.858155 0.858155 0.858155
0.859276 0.859276 0.859276
0.860382 0.860382 0.860382
0.861474 0.861474 0.861474
0.862550 0.862550 0.862550
0.863612 0.863612 0.863612
0.864660 0.864660 0.864660
0.865694 0.865694 0.865694
0.866714 0.866714 0.866714
0.867720 0.867720 0.867720
0.868715 0.868715 0.868715
0.869696 0.869696 0.869696
0.870664 0.870664 0.870664
0.871620 0.871620 0.871620
0.872564 0.872564 0.872564
0.873496 0.873496 0.873496
0.874417 0.874417 0.874417
0.875325 0.875325 0.875325
0.876223 0.876223 0.876223
0.877110 0.877110 0.877110
0.877986 0.877986 0.877986
0.878851 0.878851 0.878851
0.879705 0.879705 0.879705
0.880550 0.880550 0.880550
0.881384 0.881384 0.881384
0.882209 0.882209 0.882209
0.883024 0.883024 0.883024
0.883829 0.883829 0.883829
0.884625 0.884625 0.884625
0.885411 0.885411 0.885411
0.886189 0.886189 0.886189
0.886958 0.886958 0.886958
0.887717 0.887717 0.887717
0.888469 0.888469 0.888469
0.889211 0.889211 0.889211
0.889946 0.889946 0.889946
0.890672 0.890672 0.890672
0.891390 0.891390 0.891390
0.892100 0.892100 0.892100
0.892803 0.892803 0.892803
0.893497 0.893497 0.893497
0.894184 0.894184 0.894184
0.894864 0.894864 0.894864
0.895536 0.895536 0.895536
0.896201 0.896201 0.896201
0.896859 0.896859 0.896859
0.897511 0.897511 0.897511
0.898154 0.898154 0.898154
0.898792 0.898792 0.898792
0.899423 0.899423 0.899423
0.900047 0.900047 0.900047
0.900664 0.900664 0.900664
0.901275 0.901275 0.901275
0.901881 0.901881 0.901881
0.902480 0.902480 0.902480
0.903072 0.903072 0.903072
0.903659 0.903659 0.903659
0.904240 0.904240 0.904240
0.904815 0.904815 0.904815
0.905384 0.905384 0.905384
0.905948 0.905948 0.905948
0.906506 0.906506 0.906506
0.907058 0.907058 0.907058
0.907606 0.907606 0.907606
0.908147 0.908147 0.908147
0.908683 0.908683 0.908683
0.909214 0.909214 0.909214
0.909741 0.909741 0.909741
0.910262 0.910262 0.910262
0.910778 0.910778 0.910778
0.911289 0.911289 0.911289
0.911796 0.911796 0.911796
0.912298 0.912298 0.912298
0.912795 0.912795 0.912795
0.913287 0.913287 0.913287
0.913774 0.913774 0.913774
0.914257 0.914257 0.914257
0.914736 0.914736 0.914736
0.915210 0.915210 0.915210
0.915681 0.915681 0.915681
0.916146 0.916146 0.916146
0.916607 0.916607 0.916607
0.917064 0.917064 0.917064
0.917517 0.917517 0.917517
0.917966 0.917966 0.917966
0.918412 0.918412 0.918412
0.918853 0.918853 0.918853
0.919290 0.919290 0.919290
0.919723 0.919723 0.919723
0.920152 0.920152 0.920152
0.920578 0.920578 0.920578
0.920999 0.920999 0.920999
0.921418 0.921418 0.921418
0.921833 0.921833 0.921833
0.922244 0.922244 0.922244
0.922651 0.922651 0.922651
0.923055 0.923055 0.923055
0.923455 0.923455 0.923455
0.923852 0.923852 0.923852
0.924246 0.924246 0.924246
0.924636 0.924636 0.924636
0.925024 0.925024 0.925024
0.925408 0.925408 0.925408
0.925789 0.925789 0.925789
0.926166 0.926166 0.926166
0.926540 0.926540 0.926540
0.926911 0.926911 0.926911
0.927279 0.927279 0.927279
0.927644 0.927644 0.927644
0.928006 0.928006 0.928006
0.928365 0.928365 0.928365
0.928722 0.928722 0.928722
0.929076 0.929076 0.929076
0.929426 0.929426 0.929426
0.929774 0.929774 0.929774
0.930119 0.930119 0.930119
0.930461 0.930461 0.930461
0.930800 0.930800 0.930800
0.931137 0.931137 0.931137
0.931470 0.931470 0.931470
0.931802 0.931802 0.931802
0.932130 0.932130 0.932130
0.932457 0.932457 0.932457
0.932780 0.932780 0.932780
0.933102 0.933102 0.933102
0.933421 0.933421 0.933421
0.933737 0.933737 0.933737
0.934050 0.934050 0.934050
0.934362 0.934362 0.934362
0.934670 0.934670 0.934670
0.934977 0.934977 0.934977
0.935281 0.935281 0.935281
0.935583 0.935583 0.935583
0.935882 0.935882 0.935882
0.936179 0.936179 0.936179
0.936474 0.936474 0.936474
0.936767 0.936767 0.936767
0.937058 0.937058 0.937058
0.937346 0.937346 0.937346
0.937633 0.937633 0.937633
0.937918 0.937918 0.937918
0.938200 0.938200 0.938200
0.938480 0.938480 0.938480
0.938758 0.938758 0.938758
0.939034 0.939034 0.939034
0.939307 0.939307 0.939307
0.939579 0.939579 0.939579
0.939849 0.939849 0.939849
0.940117 0.940117 0.940117
0.940383 0.940383 0.940383
0.940647 0.940647 0.940647
0.940909 0.940909 0.940909
0.941170 0.941170 0.941170
0.941428 0.941428 0.941428
0.941685 0.941685 0.941685
0.941939 0.941939 0.941939
0.942192 0.942192 0.942192
0.942444 0.942444 0.942444
0.942693 0.942693 0.942693
0.942941 0.942941 0.942941
0.943187 0.943187 0.943187
0.943432 0.943432 0.943432
0.943674 0.943674 0.943674
0.943915 0.943915 0.943915
0.944154 0.944154 0.944154
0.944392 0.944392 0.944392
0.944627 0.944627 0.944627
0.944862 0.944862 0.944862
0.945094 0.945094 0.945094
0.945325 0.945325 0.945325
0.945555 0.945555 0.945555
0.945783 0.945783 0.945783
0.946009 0.946009 0.946009
0.946234 0.946234 0.946234
0.946457 0.946457 0.946457
0.946679 0.946679 0.946679
0.946899 0.946899 0.946899
0.947118 0.947118 0.947118
0.947335 0.947335 0.947335
0.947551 0.947551 0.947551
0.947766 0.947766 0.947766
0.947979 0.947979 0.947979
0.948190 0.948190 0.948190
0.948401 0.948401 0.948401
0.948609 0.948609 0.948609
0.948817 0.948817 0.948817
0.949024 0.949024 0.949024
0.949228 0.949228 0.949228
0.949432 0.949432 0.949432
0.949634 0.949634 0.949634
0.949834 0.949834 0.949834
0.950034 0.950034 0.950034
0.950233 0.950233 0.950233
0.950430 0.950430 0.950430
0.950625 0.950625 0.950625
0.950820 0.950820 0.950820
0.951013 0.951013 0.951013
0.951205 0.951205 0.951205
0.951395 0.951395 0.951395
0.951585 0.951585 0.951585
0.951773 0.951773 0.951773
0.951960 0.951960 0.951960
0.952146 0.952146 0.952146
0.952331 0.952331 0.952331
0.952515 0.952515 0.952515
0.952697 0.952697 0.952697
0.952879 0.952879 0.952879
0.953059 0.953059 0.953059
0.953238 0.953238 0.953238
0.953416 0.953416 0.953416
0.953593 0.953593 0.953593
0.953768 0.953768 0.953768
0.953943 0.953943 0.953943
0.954117 0.954117 0.954117
0.954289 0.954289 0.954289
0.954461 0.954461 0.954461
0.954631 0.954631 0.954631
0.954800 0.954800 0.954800
0.954969 0.954969 0.954969
0.955136 0.955136 0.955136
0.955303 0.955303 0.955303
0.955468 0.955468 0.955468
0.955632 0.955632 0.955632
0.955796 0.955796 0.955796
0.955958 0.955958 0.955958
0.956119 0.956119 0.956119
0.956280 0.956280 0.956280
0.956439 0.956439 0.956439
0.956598 0.956598 0.956598
0.956755 0.956755 0.956755
0.956912 0.956912 0.956912
0.957068 0.957068 0.957068
0.957222 0.957222 0.957222
0.957377 0.957377 0.957377
0.957530 0.957530 0.957530
0.957682 0.957682 0.957682
0.957833 0.957833 0.957833
0.957983 0.957983 0.957983
0.958133 0.958133 0.958133
0.958281 0.958281 0.958281
0.958429 0.958429 0.958429
0.958576 0.958576 0.958576
0.958721 0.958721 0.958721
0.958867 0.958867 0.958867
0.959011 0.959011 0.959011
0.959155 0.959155 0.959155
0.959298 0.959298 0.959298
0.959440 0.959440 0.959440
0.959581 0.959581 0.959581
0.959721 0.959721 0.959721
0.959860 0.959860 0.959860
0.959999 0.959999 0.959999
0.960137 0.960137 0.960137
0.960274 0.960274 0.960274
0.960410 0.960410 0.960410
0.960545 0.960545 0.960545
0.960680 0.960680 0.960680
0.960814 0.960814 0.960814
0.960947 0.960947 0.960947
0.961080 0.961080 0.961080
0.961212 0.961212 0.961212
0.961343 0.961343 0.961343
0.961474 0.961474 0.961474
0.961603 0.961603 0.961603
0.961732 0.961732 0.961732
0.961860 0.961860 0.961860
0.961988 0.961988 0.961988
0.962115 0.962115 0.962115
0.962241 0.962241 0.962241
0.962366 0.962366 0.962366
0.962491 0.962491 0.962491
0.962615 0.962615 0.962615
0.962738 0.962738 0.962738
0.962860 0.962860 0.962860
0.962982 0.962982 0.962982
0.963104 0.963104 0.963104
0.963224 0.963224 0.963224
0.963344 0.963344 0.963344
0.963464 0.963464 0.963464
0.963582 0.963582 0.963582
0.963700 0.963700 0.963700
0.963818 0.963818 0.963818
0.963935 0.963935 0.963935
0.964051 0.964051 0.964051
0.964167 0.964167 0.964167
0.964282 0.964282 0.964282
0.964396 0.964396 0.964396
0.964510 0.964510 0.964510
0.964623 0.964623 0.964623
0.964736 0.964736 0.964736
0.964848 0.964848 0.964848
0.964959 0.964959 0.964959
0.965070 0.965070 0.965070
0.965180 0.965180 0.965180
0.965290 0.965290 0.965290
0.965399 0.965399 0.965399
0.965507 0.965507 0.965507
0.965615 0.965615 0.965615
0.965722 0.965722 0.965722
0.965829 0.965829 0.965829
0.965935 0.965935 0.965935
0.966041 0.966041 0.966041
0.966146 0.966146 0.966146
0.966250 0.966250 0.966250
0.966354 0.966354 0.966354
0.966458 0.966458 0.966458
0.966561 0.966561 0.966561
0.966663 0.966663 0.966663
0.966765 0.966765 0.966765
0.966867 0.966867 0.966867
0.966968 0.966968 0.966968
0.967069 0.967069 0.967069
0.967168 0.967168 0.967168
0.967268 0.967268 0.967268
0.967367 0.967367 0.967367
0.967465 0.967465 0.967465
0.967563 0.967563 0.967563
0.967660 0.967660 0.967660
0.967757 0.967757 0.967757
0.967853 0.967853 0.967853
0.967949 0.967949 0.967949
0.968045 0.968045 0.968045
0.968140 0.968140 0.968140
0.968234 0.968234 0.968234
0.968328 0.968328 0.968328
0.968422 0.968422 0.968422
0.968515 0.968515 0.968515
0.968607 0.968607 0.968607
0.968699 0.968699 0.968699
0.968791 0.968791 0.968791
0.968882 0.968882 0.968882
0.968973 0.968973 0.968973
0.969063 0.969063 0.969063
0.969153 0.969153 0.969153
0.969242 0.969242 0.969242
0.969331 0.969331 0.969331
0.969420 0.969420 0.969420
0.969508 0.969508 0.969508
0.969596 0.969596 0.969596
0.969683 0.969683 0.969683
0.969770 0.969770 0.969770
0.969856 0.969856 0.969856
0.969942 0.969942 0.969942
0.970028 0.970028 0.970028
0.970113 0.970113 0.970113
0.970198 0.970198 0.970198
0.970282 0.970282 0.970282
0.970366 0.970366 0.970366
0.970450 0.970450 0.970450
0.970534 0.970534 0.970534
0.970616 0.970616 0.970616
0.970699 0.970699 0.970699
0.970781 0.970781 0.970781
0.970862 0.970862 0.970862
0.970943 0.970943 0.970943
0.971024 0.971024 0.971024
0.971105 0.971105 0.971105
0.971185 0.971185 0.971185
0.971264 0.971264 0.971264
0.971343 0.971343 0.971343
0.971422 0.971422 0.971422
0.971501 0.971501 0.971501
0.971579 0.971579 0.971579
0.971657 0.971657 0.971657
0.971734 0.971734 0.971734
0.971811 0.971811 0.971811
0.971888 0.971888 0.971888
0.971964 0.971964 0.971964
0.972040 0.972040 0.972040
0.972116 0.972116 0.972116
0.972191 0.972191 0.972191
0.972266 0.972266 0.972266
0.972341 0.972341 0.972341
0.972415 0.972415 0.972415
0.972489 0.972489 0.972489
0.972562 0.972562 0.972562
0.972635 0.972635 0.972635
0.972708 0.972708 0.972708
0.972781 0.972781 0.972781
0.972853 0.972853 0.972853
0.972925 0.972925 0.972925
0.972996 0.972996 0.972996
0.973067 0.973067 0.973067
0.973138 0.973138 0.973138
0.973209 0.973209 0.973209
0.973279 0.973279 0.973279
0.973349 0.973349 0.973349
0.973419 0.973419 0.973419
0.973488 0.973488 0.973488
0.973557 0.973557 0.973557
0.973625 0.973625 0.973625
0.973694 0.973694 0.973694
0.973762 0.973762 0.973762
0.973829 0.973829 0.973829
0.973897 0.973897 0.973897
0.973964 0.973964 0.973964
0.974031 0.974031 0.974031
0.974097 0.974097 0.974097
0.974163 0.974163 0.974163
0.974230 0.974230 0.974230
0.974295 0.974295 0.974295
0.974360 0.974360 0.974360
0.974425 0.974425 0.974425
0.974490 0.974490 0.974490
0.974555 0.974555 0.974555
0.974620 0.974620 0.974620
0.974684 0.974684 0.974684
0.974747 0.974747 0.974747
0.974810 0.974810 0.974810
0.974874 0.974874 0.974874
0.974936 0.974936 0.974936
0.974999 0.974999 0.974999
0.975061 0.975061 0.975061
0.975123 0.975123 0.975123
0.975184 0.975184 0.975184
0.975246 0.975246 0.975246
0.975307 0.975307 0.975307
0.975368 0.975368 0.975368
0.975429 0.975429 0.975429
0.975489 0.975489 0.975489
0.975549 0.975549 0.975549
0.975609 0.975609 0.975609
0.975668 0.975668 0.975668
0.975728 0.975728 0.975728
0.975787 0.975787 0.975787
0.975845 0.975845 0.975845
0.975904 0.975904 0.975904
0.975962 0.975962 0.975962
0.976020 0.976020 0.976020
0.976078 0.976078 0.976078
0.976135 0.976135 0.976135
0.976193 0.976193 0.976193
0.976250 0.976250 0.976250
0.976307 0.976307 0.976307
0.976363 0.976363 0.976363
0.976419 0.976419 0.976419
0.976475 0.976475 0.976475
0.976531 0.976531 0.976531
0.976587 0.976587 0.976587
0.976642 0.976642 0.976642
0.976697 0.976697 0.976697
0.976752 0.976752 0.976752
0.976807 0.976807 0.976807
0.976861 0.976861 0.976861
0.976915 0.976915 0.976915
0.976969 0.976969 0.976969
0.977023 0.977023 0.977023
0.977076 0.977076 0.977076
0.977130 0.977130 0.977130
0.977183 0.977183 0.977183
0.977235 0.977235 0.977235
0.977288 0.977288 0.977288
0.977340 0.977340 0.977340
0.977392 0.977392 0.977392
0.977444 0.977444 0.977444
0.977496 0.977496 0.977496
0.977547 0.977547 0.977547
0.977599 0.977599 0.977599
0.977650 0.977650 0.977650
0.977700 0.977700 0.977700
0.977751 0.977751 0.977751
0.977801 0.977801 0.977801
0.977852 0.977852 0.977852
0.977902 0.977902 0.977902
0.977951 0.977951 0.977951
0.978001 0.978001 0.978001
0.978050 0.978050 0.978050
0.978099 0.978099 0.978099
0.978148 0.978148 0.978148
0.978197 0.978197 0.978197
0.978246 0.978246 0.978246
0.978294 0.978294 0.978294
0.978342 0.978342 0.978342
0.978390 0.978390 0.978390
0.978438 0.978438 0.978438
0.978485 0.978485 0.978485
0.978532 0.978532 0.978532
0.978580 0.978580 0.978580
0.978627 0.978627 0.978627
0.978673 0.978673 0.978673
0.978720 0.978720 0.978720
0.978766 0.978766 0.978766
0.978812 0.978812 0.978812
0.978858 0.978858 0.978858
0.978904 0.978904 0.978904
0.978950 0.978950 0.978950
0.978995 0.978995 0.978995
0.979041 0.979041 0.979041
0.979086 0.979086 0.979086
0.979131 0.979131 0.979131
0.979175 0.979175 0.979175
0.979220 0.979220 0.979220
0.979264 0.979264 0.979264
0.979308 0.979308 0.979308
0.979352 0.979352 0.979352
0.979396 0.979396 0.979396
0.979440 0.979440 0.979440
0.979483 0.979483 0.979483
0.979526 0.979526 0.979526
0.979570 0.979570 0.979570
0.979612 0.979612 0.979612
0.979656 0.979656 0.979656
0.979698 0.979698 0.979698
0.979741 0.979741 0.979741
0.979783 0.979783 0.979783
0.979825 0.979825 0.979825
0.979867 0.979867 0.979867
0.979909 0.979909 0.979909
0.979950 0.979950 0.979950
0.979992 0.979992 0.979992
0.980033 0.980033 0.980033
0.980074 0.980074 0.980074
0.980115 0.980115 0.980115
0.980156 0.980156 0.980156
0.980196 0.980196 0.980196
0.980237 0.980237 0.980237
0.980277 0.980277 0.980277
0.980317 0.980317 0.980317
0.980357 0.980357 0.980357
0.980397 0.980397 0.980397
0.980437 0.980437 0.980437
0.980476 0.980476 0.980476
0.980516 0.980516 0.980516
0.980555 0.980555 0.980555
0.980594 0.980594 0.980594
0.980633 0.980633 0.980633
0.980671 0.980671 0.980671
0.980710 0.980710 0.980710
0.980748 0.980748 0.980748
0.980787 0.980787 0.980787
0.980825 0.980825 0.980825
0.980863 0.980863 0.980863
0.980901 0.980901 0.980901
0.980938 0.980938 0.980938
0.980976 0.980976 0.980976
0.981013 0.981013 0.981013
0.981051 0.981051 0.981051
0.981088 0.981088 0.981088
0.981125 0.981125 0.981125
0.981161 0.981161 0.981161
0.981198 0.981198 0.981198
0.981235 0.981235 0.981235
0.981271 0.981271 0.981271
0.981307 0.981307 0.981307
0.981344 0.981344 0.981344
0.981380 0.981380 0.981380
0.981415 0.981415 0.981415
0.981451 0.981451 0.981451
0.981487 0.981487 0.981487
0.981522 0.981522 0.981522
0.981557 0.981557 0.981557
0.981593 0.981593 0.981593
0.981628 0.981628 0.981628
0.981663 0.981663 0.981663
0.981697 0.981697 0.981697
0.981732 0.981732 0.981732
0.981767 0.981767 0.981767
0.981801 0.981801 0.981801
0.981835 0.981835 0.981835
0.981869 0.981869 0.981869
0.981903 0.981903 0.981903
0.981937 0.981937 0.981937
0.981971 0.981971 0.981971
0.982005 0.982005 0.982005
0.982038 0.982038 0.982038
0.982072 0.982072 0.982072
0.982106 0.982106 0.982106
0.982139 0.982139 0.982139
0.982172 0.982172 0.982172
0.982205 0.982205 0.982205
0.982237 0.982237 0.982237
0.982270 0.982270 0.982270
0.982303 0.982303 0.982303
0.982335 0.982335 0.982335
0.982367 0.982367 0.982367
0.982399 0.982399 0.982399
0.982431 0.982431 0.982431
0.982463 0.982463 0.982463
0.982495 0.982495 0.982495
0.982527 0.982527 0.982527
0.982558 0.982558 0.982558
0.982590 0.982590 0.982590
0.982621 0.982621 0.982621
0.982652 0.982652 0.982652
0.982683 0.982683 0.982683
0.982714 0.982714 0.982714
0.982745 0.982745 0.982745
0.982776 0.982776 0.982776
0.982807 0.982807 0.982807
0.982837 0.982837 0.982837
0.982868 0.982868 0.982868
0.982898 0.982898 0.982898
0.982928 0.982928 0.982928
0.982958 0.982958 0.982958
0.982988 0.982988 0.982988
0.983018 0.983018 0.983018
0.983048 0.983048 0.983048
0.983078 0.983078 0.983078
0.983107 0.983107 0.983107
0.983137 0.983137 0.983137
0.983166 0.983166 0.983166
0.983195 0.983195 0.983195
0.983224 0.983224 0.983224
0.983253 0.983253 0.983253
0.983282 0.983282 0.983282
0.983311 0.983311 0.983311
0.983340 0.983340 0.983340
0.983368 0.983368 0.983368
0.983397 0.983397 0.983397
0.983425 0.983425 0.983425
0.983454 0.983454 0.983454
0.983482 0.983482 0.983482
0.983510 0.983510 0.983510
0.983538 0.983538 0.983538
0.983566 0.983566 0.983566
0.983594 0.983594 0.983594
0.983621 0.983621 0.983621
0.983649 0.983649 0.983649
0.983676 0.983676 0.983676
0.983704 0.983704 0.983704
0.983731 0.983731 0.983731
0.983758 0.983758 0.983758
0.983786 0.983786 0.983786
0.983813 0.983813 0.983813
0.983839 0.983839 0.983839
0.983866 0.983866 0.983866
0.983893 0.983893 0.983893
0.983920 0.983920 0.983920
0.983946 0.983946 0.983946
0.983973 0.983973 0.983973
0.983999 0.983999 0.983999
0.984025 0.984025 0.984025
0.984052 0.984052 0.984052
0.984078 0.984078 0.984078
0.984104 0.984104 0.984104
0.984130 0.984130 0.984130
0.984155 0.984155 0.984155
0.984181 0.984181 0.984181
0.984207 0.984207 0.984207
0.984232 0.984232 0.984232
0.984258 0.984258 0.984258
0.984283 0.984283 0.984283
0.984308 0.984308 0.984308
0.984334 0.984334 0.984334
0.984359 0.984359 0.984359
0.984384 0.984384 0.984384
0.984409 0.984409 0.984409
0.984433 0.984433 0.984433
0.984458 0.984458 0.984458
0.984483 0.984483 0.984483
0.984508 0.984508 0.984508
0.984532 0.984532 0.984532
0.984556 0.984556 0.984556
0.984581 0.984581 0.984581
0.984605 0.984605 0.984605
0.984629 0.984629 0.984629
0.984653 0.984653 0.984653
0.984677 0.984677 0.984677
0.984701 0.984701 0.984701
0.984725 0.984725 0.984725
0.984749 0.984749 0.984749
0.984773 0.984773 0.984773
0.984796 0.984796 0.984796
0.984820 0.984820 0.984820
0.984843 0.984843 0.984843
0.984866 0.984866 0.984866
0.984890 0.984890 0.984890
0.984913 0.984913 0.984913
0.984936 0.984936 0.984936
0.984959 0.984959 0.984959
0.984982 0.984982 0.984982
0.985005 0.985005 0.985005
0.985028 0.985028 0.985028
0.985051 0.985051 0.985051
0.985073 0.985073 0.985073
0.985096 0.985096 0.985096
0.985118 0.985118 0.985118
0.985141 0.985141 0.985141
0.985163 0.985163 0.985163
0.985185 0.985185 0.985185
0.985208 0.985208 0.985208
0.985230 0.985230 0.985230
0.985252 0.985252 0.985252
0.985274 0.985274 0.985274
0.985296 0.985296 0.985296
0.985318 0.985318 0.985318
0.985339 0.985339 0.985339
0.985361 0.985361 0.985361
0.985383 0.985383 0.985383
0.985404 0.985404 0.985404
0.985426 0.985426 0.985426
0.985447 0.985447 0.985447
0.985468 0.985468 0.985468
0.985490 0.985490 0.985490
0.985511 0.985511 0.985511
0.985532 0.985532 0.985532
0.985553 0.985553 0.985553
0.985574 0.985574 0.985574
0.985595 0.985595 0.985595
0.985616 0.985616 0.985616
0.985637 0.985637 0.985637
0.985658 0.985658 0.985658
0.985678 0.985678 0.985678
0.985699 0.985699 0.985699
0.985719 0.985719 0.985719
0.985740 0.985740 0.985740
0.985760 0.985760 0.985760
0.985780 0.985780 0.985780
0.985801 0.985801 0.985801
0.985821 0.985821 0.985821
0.985841 0.985841 0.985841
0.985861 0.985861 0.985861
0.985881 0.985881 0.985881
0.985901 0.985901 0.985901
0.985921 0.985921 0.985921
0.985940 0.985940 0.985940
0.985960 0.985960 0.985960
0.985980 0.985980 0.985980
0.985999 0.985999 0.985999
0.986019 0.986019 0.986019
0.986038 0.986038 0.986038
0.986058 0.986058 0.986058
0.986077 0.986077 0.986077
0.986096 0.986096 0.986096
0.986116 0.986116 0.986116
0.986135 0.986135 0.986135
0.986154 0.986154 0.986154
0.986173 0.986173 0.986173
0.986192 0.986192 0.986192
0.986211 0.986211 0.986211
0.986230 0.986230 0.986230
0.986248 0.986248 0.986248
0.986267 0.986267 0.986267
0.986286 0.986286 0.986286
0.986304 0.986304 0.986304
0.986323 0.986323 0.986323
0.986341 0.986341 0.986341
0.986360 0.986360 0.986360
0.986378 0.986378 0.986378
0.986397 0.986397 0.986397
0.986415 0.986415 0.986415
0.986433 0.986433 0.986433
0.986451 0.986451 0.986451
0.986469 0.986469 0.986469
0.986487 0.986487 0.986487
0.986505 0.986505 0.986505
