lut/AlexaV3_EI0400_WYSIWYG_EE_nuke1d.cube
# Alexa conversion LUT, lin2video. Full in/full out.
# created by alexalutconv (2.02)

LUT_1D_SIZE 4096
0.000000 0.000000 0.000000
0.000000 0.000000 0.000000
0.000000 0.000000 0.000000
0.000000 0.000000 0.000000
0.000000 0.000000 0.000000
0.000000 0.000000 0.000000
0.000000 0.000000 0.000000
0.000000 0.000000 0.000000
0.000000 0.000000 0.000000
0.000000 0.000000 0.000000
0.000000 0.000000 0.000000
0.000000 0.000000 0.000000
0.000000 0.000000 0.000000
0.000000 0.000000 0.000000
0.000000 0.000000 0.000000
0.003253 0.003253 0.003253
0.015520 0.015520 0.015520
0.029298 0.029298 0.029298
0.045713 0.045713 0.045713
0.064404 0.064404 0.064404
0.081366 0.081366 0.081366
0.096669 0.096669 0.096669
0.110737 0.110737 0.110737
0.123836 0.123836 0.123836
0.136146 0.136146 0.136146
0.147794 0.147794 0.147794
0.158877 0.158877 0.158877
0.169593 0.169593 0.169593
0.180305 0.180305 0.180305
0.190940 0.190940 0.190940
0.201425 0.201425 0.201425
0.211716 0.211716 0.211716
0.221782 0.221782 0.221782
0.231605 0.231605 0.231605
0.241178 0.241178 0.241178
0.250495 0.250495 0.250495
0.259557 0.259557 0.259557
0.268366 0.268366 0.268366
0.276926 0.276926 0.276926
0.285243 0.285243 0.285243
0.293324 0.293324 0.293324
0.301175 0.301175 0.301175
0.308803 0.308803 0.308803
0.316216 0.316216 0.316216
0.323420 0.323420 0.323420
0.330424 0.330424 0.330424
0.337233 0.337233 0.337233
0.343856 0.343856 0.343856
0.350298 0.350298 0.350298
0.356567 0.356567 0.356567
0.362667 0.362667 0.362667
0.368606 0.368606 0.368606
0.374388 0.374388 0.374388
0.380020 0.380020 0.380020
0.385506 0.385506 0.385506
0.390853 0.390853 0.390853
0.396063 0.396063 0.396063
0.401143 0.401143 0.401143
0.406101 0.406101 0.406101
0.410949 0.410949 0.410949
0.415690 0.415690 0.415690
0.420329 0.420329 0.420329
0.424870 0.424870 0.424870
0.429318 0.429318 0.429318
0.433675 0.433675 0.433675
0.437945 0.437945 0.437945
0.442133 0.442133 0.442133
0.446239 0.446239 0.446239
0.450268 0.450268 0.450268
0.454223 0.454223 0.454223
0.458107 0.458107 0.458107
0.461919 0.461919 0.461919
0.465666 0.465666 0.465666
0.469348 0.469348 0.469348
0.472966 0.472966 0.472966
0.476524 0.476524 0.476524
0.480023 0.480023 0.480023
0.483466 0.483466 0.483466
0.486853 0.486853 0.486853
0.490187 0.490187 0.490187
0.493469 0.493469 0.493469
0.496700 0.496700 0.496700
0.499883 0.499883 0.499883
0.503018 0.503018 0.503018
0.506107 0.506107 0.506107
0.509151 0.509151 0.509151
0.512151 0.512151 0.512151
0.515110 0.515110 0.515110
0.518027 0.518027 0.518027
0.520903 0.520903 0.520903
0.523741 0.523741 0.523741
0.526541 0.526541 0.526541
0.529302 0.529302 0.529302
0.532028 0.532028 0.532028
0.534719 0.534719 0.534719
0.537375 0.537375 0.537375
0.539998 0.539998 0.539998
0.542588 0.542588 0.542588
0.545145 0.545145 0.545145
0.547672 0.547672 0.547672
0.550168 0.550168 0.550168
0.552633 0.552633 0.552633
0.555070 0.555070 0.555070
0.557478 0.557478 0.557478
0.559858 0.559858 0.559858
0.562211 0.562211 0.562211
0.564537 0.564537 0.564537
0.566837 0.566837 0.566837
0.569111 0.569111 0.569111
0.571361 0.571361 0.571361
0.573586 0.573586 0.573586
0.575786 0.575786 0.575786
0.577964 0.577964 0.577964
0.580118 0.580118 0.580118
0.582250 0.582250 0.582250
0.584359 0.584359 0.584359
0.586447 0.586447 0.586447
0.588514 0.588514 0.588514
0.590559 0.590559 0.590559
0.592584 0.592584 0.592584
0.594589 0.594589 0.594589
0.596574 0.596574 0.596574
0.598540 0.598540 0.598540
0.600486 0.600486 0.600486
0.602415 0.602415 0.602415
0.604324 0.604324 0.604324
0.606216 0.606216 0.606216
0.608090 0.608090 0.608090
0.609947 0.609947 0.609947
0.611786 0.611786 0.611786
0.613609 0.613609 0.613609
0.615415 0.615415 0.615415
0.617206 0.617206 0.617206
0.618980 0.618980 0.618980
0.620739 0.620739 0.620739
0.622481 0.622481 0.622481
0.624209 0.624209 0.624209
0.625922 0.625922 0.625922
0.627621 0.627621 0.627621
0.629305 0.629305 0.629305
0.630974 0.630974 0.630974
0.632630 0.632630 0.632630
0.634272 0.634272 0.634272
0.635900 0.635900 0.635900
0.637515 0.637515 0.637515
0.639118 0.639118 0.639118
0.640706 0.640706 0.640706
0.642282 0.642282 0.642282
0.643846 0.643846 0.643846
0.645397 0.645397 0.645397
0.646937 0.646937 0.646937
0.648464 0.648464 0.648464
0.649979 0.649979 0.649979
0.651483 0.651483 0.651483
0.652975 0.652975 0.652975
0.654456 0.654456 0.654456
0.655925 0.655925 0.655925
0.657384 0.657384 0.657384
0.658833 0.658833 0.658833
0.660269 0.660269 0.660269
0.661696 0.661696 0.661696
0.663112 0.663112 0.663112
0.664518 0.664518 0.664518
0.665913 0.665913 0.665913
0.667299 0.667299 0.667299
0.668675 0.668675 0.668675
0.670041 0.670041 0.670041
0.671398 0.671398 0.671398
0.672745 0.672745 0.672745
0.674083 0.674083 0.674083
0.675411 0.675411 0.675411
0.676731 0.676731 0.676731
0.678041 0.678041 0.678041
0.679343 0.679343 0.679343
0.680635 0.680635 0.680635
0.681920 0.681920 0.681920
0.683195 0.683195 0.683195
0.684463 0.684463 0.684463
0.685721 0.685721 0.685721
0.686972 0.686972 0.686972
0.688214 0.688214 0.688214
0.689448 0.689448 0.689448
0.690675 0.690675 0.690675
0.691893 0.691893 0.691893
0.693104 0.693104 0.693104
0.694307 0.694307 0.694307
0.695503 0.695503 0.695503
0.696691 0.696691 0.696691
0.697871 0.697871 0.697871
0.699045 0.699045 0.699045
0.700211 0.700211 0.700211
0.701370 0.701370 0.701370
0.702522 0.702522 0.702522
0.703667 0.703667 0.703667
0.704805 0.704805 0.704805
0.705936 0.705936 0.705936
0.707061 0.707061 0.707061
0.708178 0.708178 0.708178
0.709289 0.709289 0.709289
0.710394 0.710394 0.710394
0.711492 0.711492 0.711492
0.712583 0.712583 0.712583
0.713669 0.713669 0.713669
0.714748 0.714748 0.714748
0.715821 0.715821 0.715821
0.716888 0.716888 0.716888
0.717949 0.717949 0.717949
0.719004 0.719004 0.719004
0.720053 0.720053 0.720053
0.721096 0.721096 0.721096
0.722133 0.722133 0.722133
0.723165 0.723165 0.723165
0.724190 0.724190 0.724190
0.725210 0.725210 0.725210
0.726225 0.726225 0.726225
0.727234 0.727234 0.727234
0.728237 0.728237 0.728237
0.729236 0.729236 0.729236
0.730229 0.730229 0.730229
0.731216 0.731216 0.731216
0.732198 0.732198 0.732198
0.733176 0.733176 0.733176
0.734147 0.734147 0.734147
0.735114 0.735114 0.735114
0.736076 0.736076 0.736076
0.737033 0.737033 0.737033
0.737984 0.737984 0.737984
0.738931 0.738931 0.738931
0.739874 0.739874 0.739874
0.740811 0.740811 0.740811
0.741743 0.741743 0.741743
0.742670 0.742670 0.742670
0.743594 0.743594 0.743594
0.744513 0.744513 0.744513
0.745426 0.745426 0.745426
0.746335 0.746335 0.746335
0.747241 0.747241 0.747241
0.748141 0.748141 0.748141
0.749037 0.749037 0.749037
0.749928 0.749928 0.749928
0.750816 0.750816 0.750816
0.751698 0.751698 0.751698
0.752577 0.752577 0.752577
0.753451 0.753451 0.753451
0.754321 0.754321 0.754321
0.755188 0.755188 0.755188
0.756049 0.756049 0.756049
0.756907 0.756907 0.756907
0.757760 0.757760 0.757760
0.758611 0.758611 0.758611
0.759457 0.759457 0.759457
0.760298 0.760298 0.760298
0.761136 0.761136 0.761136
0.761970 0.761970 0.761970
0.762801 0.762801 0.762801
0.763627 0.763627 0.763627
0.764449 0.764449 0.764449
0.765268 0.765268 0.765268
0.766083 0.766083 0.766083
0.766895 0.766895 0.766895
0.767703 0.767703 0.767703
0.768507 0.768507 0.768507
0.769307 0.769307 0.769307
0.770104 0.770104 0.770104
0.770898 0.770898 0.770898
0.771688 0.771688 0.771688
0.772475 0.772475 0.772475
0.773258 0.773258 0.773258
0.774037 0.774037 0.774037
0.774813 0.774813 0.774813
0.775587 0.775587 0.775587
0.776356 0.776356 0.776356
0.777122 0.777122 0.777122
0.777885 0.777885 0.777885
0.778644 0.778644 0.778644
0.779402 0.779402 0.779402
0.780155 0.780155 0.780155
0.780905 0.780905 0.780905
0.781651 0.781651 0.781651
0.782395 0.782395 0.782395
0.783135 0.783135 0.783135
0.783874 0.783874 0.783874
0.784608 0.784608 0.784608
0.785339 0.785339 0.785339
0.786067 0.786067 0.786067
0.786793 0.786793 0.786793
0.787515 0.787515 0.787515
0.788234 0.788234 0.788234
0.788952 0.788952 0.788952
0.789665 0.789665 0.789665
0.790376 0.790376 0.790376
0.791084 0.791084 0.791084
0.791788 0.791788 0.791788
0.792491 0.792491 0.792491
0.793190 0.793190 0.793190
0.793887 0.793887 0.793887
0.794581 0.794581 0.794581
0.795272 0.795272 0.795272
0.795960 0.795960 0.795960
0.796646 0.796646 0.796646
0.797329 0.797329 0.797329
0.798009 0.798009 0.798009
0.798688 0.798688 0.798688
0.799362 0.799362 0.799362
0.800035 0.800035 0.800035
0.800705 0.800705 0.800705
0.801372 0.801372 0.801372
0.802036 0.802036 0.802036
0.802699 0.802699 0.802699
0.803359 0.803359 0.803359
0.804016 0.804016 0.804016
0.804671 0.804671 0.804671
0.805323 0.805323 0.805323
0.805973 0.805973 0.805973
0.806620 0.806620 0.806620
0.807263 0.807263 0.807263
0.807904 0.807904 0.807904
0.808541 0.808541 0.808541
0.809174 0.809174 0.809174
0.809804 0.809804 0.809804
0.810430 0.810430 0.810430
0.811052 0.811052 0.811052
0.811672 0.811672 0.811672
0.812288 0.812288 0.812288
0.812900 0.812900 0.812900
0.813509 0.813509 0.813509
0.814115 0.814115 0.814115
0.814718 0.814718 0.814718
0.815317 0.815317 0.815317
0.815914 0.815914 0.815914
0.816507 0.816507 0.816507
0.817097 0.817097 0.817097
0.817684 0.817684 0.817684
0.818267 0.818267 0.818267
0.818848 0.818848 0.818848
0.819425 0.819425 0.819425
0.819999 0.819999 0.819999
0.820570 0.820570 0.820570
0.821139 0.821139 0.821139
0.821704 0.821704 0.821704
0.822267 0.822267 0.822267
0.822827 0.822827 0.822827
0.823383 0.823383 0.823383
0.823937 0.823937 0.823937
0.824488 0.824488 0.824488
0.825036 0.825036 0.825036
0.825581 0.825581 0.825581
0.826124 0.826124 0.826124
0.826663 0.826663 0.826663
0.827200 0.827200 0.827200
0.827734 0.827734 0.827734
0.828266 0.828266 0.828266
0.828794 0.828794 0.828794
0.829321 0.829321 0.829321
0.829845 0.829845 0.829845
0.830365 0.830365 0.830365
0.830884 0.830884 0.830884
0.831399 0.831399 0.831399
0.831913 0.831913 0.831913
0.832423 0.832423 0.832423
0.832931 0.832931 0.832931
0.833436 0.833436 0.833436
0.833939 0.833939 0.833939
0.834440 0.834440 0.834440
0.834938 0.834938 0.834938
0.835434 0.835434 0.835434
0.835927 0.835927 0.835927
0.836417 0.836417 0.836417
0.836906 0.836906 0.836906
0.837392 0.837392 0.837392
0.837876 0.837876 0.837876
0.838357 0.838357 0.838357
0.838837 0.838837 0.838837
0.839313 0.839313 0.839313
0.839788 0.839788 0.839788
0.840260 0.840260 0.840260
0.840730 0.840730 0.840730
0.841198 0.841198 0.841198
0.841663 0.841663 0.841663
0.842126 0.842126 0.842126
0.842588 0.842588 0.842588
0.843047 0.843047 0.843047
0.843503 0.843503 0.843503
0.843958 0.843958 0.843958
0.844411 0.844411 0.844411
0.844861 0.844861 0.844861
0.845309 0.845309 0.845309
0.845755 0.845755 0.845755
0.846199 0.846199 0.846199
0.846642 0.846642 0.846642
0.847082 0.847082 0.847082
0.847520 0.847520 0.847520
0.847956 0.847956 0.847956
0.848389 0.848389 0.848389
0.848822 0.848822 0.848822
0.849252 0.849252 0.849252
0.849680 0.849680 0.849680
0.850106 0.850106 0.850106
0.850530 0.850530 0.850530
0.850953 0.850953 0.850953
0.851373 0.851373 0.851373
0.851792 0.851792 0.851792
0.852208 0.852208 0.852208
0.852623 0.852623 0.852623
0.853036 0.853036 0.853036
0.853447 0.853447 0.853447
0.853856 0.853856 0.853856
0.854264 0.854264 0.854264
0.854669 0.854669 0.854669
0.855073 0.855073 0.855073
0.855475 0.855475 0.855475
0.855875 0.855875 0.855875
0.856274 0.856274 0.856274
0.856670 0.856670 0.856670
0.857065 0.857065 0.857065
0.857459 0.857459 0.857459
0.857850 0.857850 0.857850
0.858240 0.858240 0.858240
0.858628 0.858628 0.858628
0.859014 0.859014 0.859014
0.859399 0.859399 0.859399
0.859782 0.859782 0.859782
0.860164 0.860164 0.860164
0.860544 0.860544 0.860544
0.860922 0.860922 0.860922
0.861299 0.861299 0.861299
0.861674 0.861674 0.861674
0.862047 0.862047 0.862047
0.862419 0.862419 0.862419
0.862790 0.862790 0.862790
0.863158 0.863158 0.863158
0.863525 0.863525 0.863525
0.863891 0.863891 0.863891
0.864254 0.864254 0.864254
0.864617 0.864617 0.864617
0.864978 0.864978 0.864978
0.865337 0.865337 0.865337
0.865695 0.865695 0.865695
0.866052 0.866052 0.866052
0.866407 0.866407 0.866407
0.866760 0.866760 0.866760
0.867112 0.867112 0.867112
0.867463 0.867463 0.867463
0.867812 0.867812 0.867812
0.868159 0.868159 0.868159
0.868506 0.868506 0.868506
0.868851 0.868851 0.868851
0.869194 0.869194 0.869194
0.869536 0.869536 0.869536
0.869877 0.869877 0.869877
0.870216 0.870216 0.870216
0.870554 0.870554 0.870554
0.870890 0.870890 0.870890
0.871225 0.871225 0.871225
0.871559 0.871559 0.871559
0.871891 0.871891 0.871891
0.872222 0.872222 0.872222
0.872552 0.872552 0.872552
0.872881 0.872881 0.872881
0.873208 0.873208 0.873208
0.873534 0.873534 0.873534
0.873858 0.873858 0.873858
0.874181 0.874181 0.874181
0.874503 0.874503 0.874503
0.874823 0.874823 0.874823
0.875143 0.875143 0.875143
0.875461 0.875461 0.875461
0.875778 0.875778 0.875778
0.876094 0.876094 0.876094
0.876408 0.876408 0.876408
0.876721 0.876721 0.876721
0.877033 0.877033 0.877033
0.877344 0.877344 0.877344
0.877653 0.877653 0.877653
0.877961 0.877961 0.877961
0.878268 0.878268 0.878268
0.878574 0.878574 0.878574
0.878878 0.878878 0.878878
0.879182 0.879182 0.879182
0.879485 0.879485 0.879485
0.879786 0.879786 0.879786
0.880086 0.880086 0.880086
0.880385 0.880385 0.880385
0.880682 0.880682 0.880682
0.880979 0.880979 0.880979
0.881274 0.881274 0.881274
0.881568 0.881568 0.881568
0.881862 0.881862 0.881862
0.882154 0.882154 0.882154
0.882444 0.882444 0.882444
0.882734 0.882734 0.882734
0.883024 0.883024 0.883024
0.883312 0.883312 0.883312
0.883598 0.883598 0.883598
0.883883 0.883883 0.883883
0.884168 0.884168 0.884168
0.884451 0.884451 0.884451
0.884733 0.884733 0.884733
0.885015 0.885015 0.885015
0.885295 0.885295 0.885295
0.885574 0.885574 0.885574
0.885852 0.885852 0.885852
0.886129 0.886129 0.886129
0.886405 0.886405 0.886405
0.886680 0.886680 0.886680
0.886955 0.886955 0.886955
0.887228 0.887228 0.887228
0.887500 0.887500 0.887500
0.887771 0.887771 0.887771
0.888041 0.888041 0.888041
0.888310 0.888310 0.888310
0.888578 0.888578 0.888578
0.888845 0.888845 0.888845
0.889111 0.889111 0.889111
0.889376 0.889376 0.889376
0.889640 0.889640 0.889640
0.889903 0.889903 0.889903
0.890165 0.890165 0.890165
0.890426 0.890426 0.890426
0.890687 0.890687 0.890687
0.890947 0.890947 0.890947
0.891205 0.891205 0.891205
0.891463 0.891463 0.891463
0.891720 0.891720 0.891720
0.891975 0.891975 0.891975
0.892230 0.892230 0.892230
0.892484 0.892484 0.892484
0.892737 0.892737 0.892737
0.892989 0.892989 0.892989
0.893240 0.893240 0.893240
0.893490 0.893490 0.893490
0.893740 0.893740 0.893740
0.893988 0.893988 0.893988
0.894236 0.894236 0.894236
0.894482 0.894482 0.894482
0.894728 0.894728 0.894728
0.894974 0.894974 0.894974
0.895218 0.895218 0.895218
0.895462 0.895462 0.895462
0.895704 0.895704 0.895704
0.895946 0.895946 0.895946
0.896187 0.896187 0.896187
0.896427 0.896427 0.896427
0.896666 0.896666 0.896666
0.896904 0.896904 0.896904
0.897141 0.897141 0.897141
0.897378 0.897378 0.897378
0.897614 0.897614 0.897614
0.897849 0.897849 0.897849
0.898083 0.898083 0.898083
0.898316 0.898316 0.898316
0.898549 0.898549 0.898549
0.898781 0.898781 0.898781
0.899012 0.899012 0.899012
0.899242 0.899242 0.899242
0.899472 0.899472 0.899472
0.899700 0.899700 0.899700
0.899928 0.899928 0.899928
0.900156 0.900156 0.900156
0.900382 0.900382 0.900382
0.900608 0.900608 0.900608
0.900832 0.900832 0.900832
0.901057 0.901057 0.901057
0.901280 0.901280 0.901280
0.901502 0.901502 0.901502
0.901724 0.901724 0.901724
0.901945 0.901945 0.901945
0.902165 0.902165 0.902165
0.902385 0.902385 0.902385
0.902604 0.902604 0.902604
0.902822 0.902822 0.902822
0.903039 0.903039 0.903039
0.903256 0.903256 0.903256
0.903472 0.903472 0.903472
0.903687 0.903687 0.903687
0.903902 0.903902 0.903902
0.904116 0.904116 0.904116
0.904329 0.904329 0.904329
0.904541 0.904541 0.904541
0.904753 0.904753 0.904753
0.904964 0.904964 0.904964
0.905175 0.905175 0.905175
0.905384 0.905384 0.905384
0.905593 0.905593 0.905593
0.905802 0.905802 0.905802
0.906009 0.906009 0.906009
0.906216 0.906216 0.906216
0.906422 0.906422 0.906422
0.906628 0.906628 0.906628
0.906833 0.906833 0.906833
0.907037 0.907037 0.907037
0.907240 0.907240 0.907240
0.907443 0.907443 0.907443
0.907646 0.907646 0.907646
0.907847 0.907847 0.907847
0.908048 0.908048 0.908048
0.908248 0.908248 0.908248
0.908448 0.908448 0.908448
0.908647 0.908647 0.908647
0.908845 0.908845 0.908845
0.909043 0.909043 0.909043
0.909241 0.909241 0.909241
0.909437 0.909437 0.909437
0.909633 0.909633 0.909633
0.909828 0.909828 0.909828
0.910023 0.910023 0.910023
0.910217 0.910217 0.910217
0.910410 0.910410 0.910410
0.910604 0.910604 0.910604
0.910796 0.910796 0.910796
0.910987 0.910987 0.910987
0.911178 0.911178 0.911178
0.911368 0.911368 0.911368
0.911558 0.911558 0.911558
0.911747 0.911747 0.911747
0.911936 0.911936 0.911936
0.912124 0.912124 0.912124
0.912311 0.912311 0.912311
0.912498 0.912498 0.912498
0.912684 0.912684 0.912684
0.912870 0.912870 0.912870
0.913055 0.913055 0.913055
0.913240 0.913240 0.913240
0.913424 0.913424 0.913424
0.913607 0.913607 0.913607
0.913790 0.913790 0.913790
0.913972 0.913972 0.913972
0.914154 0.914154 0.914154
0.914335 0.914335 0.914335
0.914515 0.914515 0.914515
0.914696 0.914696 0.914696
0.914875 0.914875 0.914875
0.915054 0.915054 0.915054
0.915232 0.915232 0.915232
0.915410 0.915410 0.915410
0.915587 0.915587 0.915587
0.915764 0.915764 0.915764
0.915940 0.915940 0.915940
0.916116 0.916116 0.916116
0.916291 0.916291 0.916291
0.916466 0.916466 0.916466
0.916640 0.916640 0.916640
0.916814 0.916814 0.916814
0.916987 0.916987 0.916987
0.917159 0.917159 0.917159
0.917331 0.917331 0.917331
0.917503 0.917503 0.917503
0.917673 0.917673 0.917673
0.917844 0.917844 0.917844
0.918014 0.918014 0.918014
0.918183 0.918183 0.918183
0.918352 0.918352 0.918352
0.918520 0.918520 0.918520
0.918689 0.918689 0.918689
0.918856 0.918856 0.918856
0.919023 0.919023 0.919023
0.919189 0.919189 0.919189
0.919355 0.919355 0.919355
0.919521 0.919521 0.919521
0.919686 0.919686 0.919686
0.919850 0.919850 0.919850
0.920014 0.920014 0.920014
0.920178 0.920178 0.920178
0.920341 0.920341 0.920341
0.920503 0.920503 0.920503
0.920665 0.920665 0.920665
0.920827 0.920827 0.920827
0.920988 0.920988 0.920988
0.921148 0.921148 0.921148
0.921308 0.921308 0.921308
0.921468 0.921468 0.921468
0.921627 0.921627 0.921627
0.921786 0.921786 0.921786
0.921944 0.921944 0.921944
0.922102 0.922102 0.922102
0.922260 0.922260 0.922260
0.922416 0.922416 0.922416
0.922573 0.922573 0.922573
0.922729 0.922729 0.922729
0.922885 0.922885 0.922885
0.923040 0.923040 0.923040
0.923195 0.923195 0.923195
0.923349 0.923349 0.923349
0.923503 0.923503 0.923503
0.923656 0.923656 0.923656
0.923809 0.923809 0.923809
0.923961 0.923961 0.923961
0.924113 0.924113 0.924113
0.924265 0.924265 0.924265
0.924416 0.924416 0.924416
0.924567 0.924567 0.924567
0.924717 0.924717 0.924717
0.924867 0.924867 0.924867
0.925016 0.925016 0.925016
0.925165 0.925165 0.925165
0.925314 0.925314 0.925314
0.925462 0.925462 0.925462
0.925610 0.925610 0.925610
0.925758 0.925758 0.925758
0.925905 0.925905 0.925905
0.926051 0.926051 0.926051
0.926197 0.926197 0.926197
0.926343 0.926343 0.926343
0.926488 0.926488 0.926488
0.926633 0.926633 0.926633
0.926778 0.926778 0.926778
0.926922 0.926922 0.926922
0.927065 0.927065 0.927065
0.927208 0.927208 0.927208
0.927351 0.927351 0.927351
0.927494 0.927494 0.927494
0.927636 0.927636 0.927636
0.927777 0.927777 0.927777
0.927919 0.927919 0.927919
0.928060 0.928060 0.928060
0.928200 0.928200 0.928200
0.928340 0.928340 0.928340
0.928480 0.928480 0.928480
0.928619 0.928619 0.928619
0.928758 0.928758 0.928758
0.928897 0.928897 0.928897
0.929035 0.929035 0.929035
0.929173 0.929173 0.929173
0.929310 0.929310 0.929310
0.929447 0.929447 0.929447
0.929584 0.929584 0.929584
0.929721 0.929721 0.929721
0.929857 0.929857 0.929857
0.929992 0.929992 0.929992
0.930127 0.930127 0.930127
0.930262 0.930262 0.930262
0.930397 0.930397 0.930397
0.930531 0.930531 0.930531
0.930664 0.930664 0.930664
0.930798 0.930798 0.930798
0.930931 0.930931 0.930931
0.931063 0.931063 0.931063
0.931195 0.931195 0.931195
0.931327 0.931327 0.931327
0.931459 0.931459 0.931459
0.931590 0.931590 0.931590
0.931721 0.931721 0.931721
0.931851 0.931851 0.931851
0.931981 0.931981 0.931981
0.932111 0.932111 0.932111
0.932241 0.932241 0.932241
0.932370 0.932370 0.932370
0.932499 0.932499 0.932499
0.932627 0.932627 0.932627
0.932755 0.932755 0.932755
0.932883 0.932883 0.932883
0.933010 0.933010 0.933010
0.933138 0.933138 0.933138
0.933265 0.933265 0.933265
0.933391 0.933391 0.933391
0.933517 0.933517 0.933517
0.933643 0.933643 0.933643
0.933768 0.933768 0.933768
0.933893 0.933893 0.933893
0.934018 0.934018 0.934018
0.934142 0.934142 0.934142
0.934266 0.934266 0.934266
0.934390 0.934390 0.934390
0.934513 0.934513 0.934513
0.934636 0.934636 0.934636
0.934759 0.934759 0.934759
0.934882 0.934882 0.934882
0.935004 0.935004 0.935004
0.935125 0.935125 0.935125
0.935247 0.935247 0.935247
0.935368 0.935368 0.935368
0.935489 0.935489 0.935489
0.935609 0.935609 0.935609
0.935730 0.935730 0.935730
0.935849 0.935849 0.935849
0.935969 0.935969 0.935969
0.936088 0.936088 0.936088
0.936207 0.936207 0.936207
0.936326 0.936326 0.936326
0.936444 0.936444 0.936444
0.936562 0.936562 0.936562
0.936680 0.936680 0.936680
0.936797 0.936797 0.936797
0.936915 0.936915 0.936915
0.937032 0.937032 0.937032
0.937148 0.937148 0.937148
0.937264 0.937264 0.937264
0.937381 0.937381 0.937381
0.937497 0.937497 0.937497
0.937612 0.937612 0.937612
0.937727 0.937727 0.937727
0.937842 0.937842 0.937842
0.937956 0.937956 0.937956
0.938070 0.938070 0.938070
0.938184 0.938184 0.938184
0.938298 0.938298 0.938298
0.938411 0.938411 0.938411
0.938524 0.938524 0.938524
0.938637 0.938637 0.938637
0.938749 0.938749 0.938749
0.938861 0.938861 0.938861
0.938973 0.938973 0.938973
0.939085 0.939085 0.939085
0.939196 0.939196 0.939196
0.939307 0.939307 0.939307
0.939418 0.939418 0.939418
0.939528 0.939528 0.939528
0.939638 0.939638 0.939638
0.939748 0.939748 0.939748
0.939858 0.939858 0.939858
0.939967 0.939967 0.939967
0.940076 0.940076 0.940076
0.940185 0.940185 0.940185
0.940294 0.940294 0.940294
0.940402 0.940402 0.940402
0.940510 0.940510 0.940510
0.940618 0.940618 0.940618
0.940725 0.940725 0.940725
0.940832 0.940832 0.940832
0.940939 0.940939 0.940939
0.941046 0.941046 0.941046
0.941152 0.941152 0.941152
0.941258 0.941258 0.941258
0.941365 0.941365 0.941365
0.941470 0.941470 0.941470
0.941576 0.941576 0.941576
0.941681 0.941681 0.941681
0.941786 0.941786 0.941786
0.941890 0.941890 0.941890
0.941994 0.941994 0.941994
0.942098 0.942098 0.942098
0.942202 0.942202 0.942202
0.942306 0.942306 0.942306
0.942409 0.942409 0.942409
0.942512 0.942512 0.942512
0.942615 0.942615 0.942615
0.942718 0.942718 0.942718
0.942820 0.942820 0.942820
0.942922 0.942922 0.942922
0.943024 0.943024 0.943024
0.943125 0.943125 0.943125
0.943227 0.943227 0.943227
0.943328 0.943328 0.943328
0.943428 0.943428 0.943428
0.943529 0.943529 0.943529
0.943629 0.943629 0.943629
0.943729 0.943729 0.943729
0.943829 0.943829 0.943829
0.943929 0.943929 0.943929
0.944028 0.944028 0.944028
0.944127 0.944127 0.944127
0.944226 0.944226 0.944226
0.944324 0.944324 0.944324
0.944423 0.944423 0.944423
0.944521 0.944521 0.944521
0.944619 0.944619 0.944619
0.944717 0.944717 0.944717
0.944814 0.944814 0.944814
0.944911 0.944911 0.944911
0.945008 0.945008 0.945008
0.945105 0.945105 0.945105
0.945201 0.945201 0.945201
0.945298 0.945298 0.945298
0.945394 0.945394 0.945394
0.945489 0.945489 0.945489
0.945585 0.945585 0.945585
0.945680 0.945680 0.945680
0.945775 0.945775 0.945775
0.945870 0.945870 0.945870
0.945965 0.945965 0.945965
0.946059 0.946059 0.946059
0.946154 0.946154 0.946154
0.946248 0.946248 0.946248
0.946341 0.946341 0.946341
0.946435 0.946435 0.946435
0.946529 0.946529 0.946529
0.946622 0.946622 0.946622
0.946715 0.946715 0.946715
0.946808 0.946808 0.946808
0.946900 0.946900 0.946900
0.946992 0.946992 0.946992
0.947084 0.947084 0.947084
0.947176 0.947176 0.947176
0.947268 0.947268 0.947268
0.947359 0.947359 0.947359
