lut/AlexaV3_EI0800_WYSIWYG_EE_nuke1d.cube
# Alexa conversion LUT, lin2video. Full in/full out.
# created by alexalutconv (2.02)

LUT_1D_SIZE 4096
0.000000 0.000000 0.000000
0.000000 0.000000 0.000000
0.000000 0.000000 0.000000
0.000000 0.000000 0.000000
0.000000 0.000000 0.000000
0.000000 0.000000 0.000000
0.000000 0.000000 0.000000
0.000000 0.000000 0.000000
0.000000 0.000000 0.000000
0.000000 0.000000 0.000000
0.000000 0.000000 0.000000
0.000000 0.000000 0.000000
0.000000 0.000000 0.000000
0.000000 0.000000 0.000000
0.000000 0.000000 0.000000
0.000000 0.000000 0.000000
0.016296 0.016296 0.016296
0.044907 0.044907 0.044907
0.081775 0.081775 0.081775
0.111965 0.111965 0.111965
0.137800 0.137800 0.137800
0.160738 0.160738 0.160738
0.182422 0.182422 0.182422
0.203631 0.203631 0.203631
0.223936 0.223936 0.223936
0.243183 0.243183 0.243183
0.261345 0.261345 0.261345
0.278451 0.278451 0.278451
0.294557 0.294557 0.294557
0.309724 0.309724 0.309724
0.324021 0.324021 0.324021
0.337509 0.337509 0.337509
0.350251 0.350251 0.350251
0.362299 0.362299 0.362299
0.373706 0.373706 0.373706
0.384519 0.384519 0.384519
0.394779 0.394779 0.394779
0.404531 0.404531 0.404531
0.413841 0.413841 0.413841
0.422751 0.422751 0.422751
0.431293 0.431293 0.431293
0.439495 0.439495 0.439495
0.447383 0.447383 0.447383
0.454979 0.454979 0.454979
0.462304 0.462304 0.462304
0.469376 0.469376 0.469376
0.476210 0.476210 0.476210
0.482823 0.482823 0.482823
0.489227 0.489227 0.489227
0.495435 0.495435 0.495435
0.501458 0.501458 0.501458
0.507307 0.507307 0.507307
0.512990 0.512990 0.512990
0.518517 0.518517 0.518517
0.523896 0.523896 0.523896
0.529134 0.529134 0.529134
0.534239 0.534239 0.534239
0.539215 0.539215 0.539215
0.544071 0.544071 0.544071
0.548810 0.548810 0.548810
0.553438 0.553438 0.553438
0.557961 0.557961 0.557961
0.562382 0.562382 0.562382
0.566707 0.566707 0.566707
0.570937 0.570937 0.570937
0.575079 0.575079 0.575079
0.579135 0.579135 0.579135
0.583108 0.583108 0.583108
0.587002 0.587002 0.587002
0.590820 0.590820 0.590820
0.594563 0.594563 0.594563
0.598236 0.598236 0.598236
0.601841 0.601841 0.601841
0.605378 0.605378 0.605378
0.608853 0.608853 0.608853
0.612267 0.612267 0.612267
0.615620 0.615620 0.615620
0.618915 0.618915 0.618915
0.622155 0.622155 0.622155
0.625341 0.625341 0.625341
0.628475 0.628475 0.628475
0.631557 0.631557 0.631557
0.634591 0.634591 0.634591
0.637577 0.637577 0.637577
0.640517 0.640517 0.640517
0.643411 0.643411 0.643411
0.646261 0.646261 0.646261
0.649069 0.649069 0.649069
0.651836 0.651836 0.651836
0.654563 0.654563 0.654563
0.657251 0.657251 0.657251
0.659900 0.659900 0.659900
0.662512 0.662512 0.662512
0.665089 0.665089 0.665089
0.667630 0.667630 0.667630
0.670137 0.670137 0.670137
0.672610 0.672610 0.672610
0.675051 0.675051 0.675051
0.677460 0.677460 0.677460
0.679838 0.679838 0.679838
0.682186 0.682186 0.682186
0.684505 0.684505 0.684505
0.686794 0.686794 0.686794
0.689055 0.689055 0.689055
0.691288 0.691288 0.691288
0.693495 0.693495 0.693495
0.695675 0.695675 0.695675
0.697830 0.697830 0.697830
0.699960 0.699960 0.699960
0.702064 0.702064 0.702064
0.704144 0.704144 0.704144
0.706202 0.706202 0.706202
0.708236 0.708236 0.708236
0.710247 0.710247 0.710247
0.712236 0.712236 0.712236
0.714203 0.714203 0.714203
0.716150 0.716150 0.716150
0.718075 0.718075 0.718075
0.719979 0.719979 0.719979
0.721864 0.721864 0.721864
0.723729 0.723729 0.723729
0.725575 0.725575 0.725575
0.727402 0.727402 0.727402
0.729211 0.729211 0.729211
0.731001 0.731001 0.731001
0.732774 0.732774 0.732774
0.734529 0.734529 0.734529
0.736266 0.736266 0.736266
0.737987 0.737987 0.737987
0.739690 0.739690 0.739690
0.741378 0.741378 0.741378
0.743050 0.743050 0.743050
0.744707 0.744707 0.744707
0.746347 0.746347 0.746347
0.747973 0.747973 0.747973
0.749584 0.749584 0.749584
0.751179 0.751179 0.751179
0.752760 0.752760 0.752760
0.754328 0.754328 0.754328
0.755881 0.755881 0.755881
0.757421 0.757421 0.757421
0.758946 0.758946 0.758946
0.760459 0.760459 0.760459
0.761959 0.761959 0.761959
0.763446 0.763446 0.763446
0.764920 0.764920 0.764920
0.766382 0.766382 0.766382
0.767831 0.767831 0.767831
0.769268 0.769268 0.769268
0.770694 0.770694 0.770694
0.772108 0.772108 0.772108
0.773509 0.773509 0.773509
0.774900 0.774900 0.774900
0.776279 0.776279 0.776279
0.777648 0.777648 0.777648
0.779006 0.779006 0.779006
0.780353 0.780353 0.780353
0.781689 0.781689 0.781689
0.783015 0.783015 0.783015
0.784331 0.784331 0.784331
0.785636 0.785636 0.785636
0.786932 0.786932 0.786932
0.788218 0.788218 0.788218
0.789493 0.789493 0.789493
0.790760 0.790760 0.790760
0.792017 0.792017 0.792017
0.793265 0.793265 0.793265
0.794503 0.794503 0.794503
0.795733 0.795733 0.795733
0.796953 0.796953 0.796953
0.798165 0.798165 0.798165
0.799368 0.799368 0.799368
0.800563 0.800563 0.800563
0.801749 0.801749 0.801749
0.802927 0.802927 0.802927
0.804096 0.804096 0.804096
0.805254 0.805254 0.805254
0.806399 0.806399 0.806399
0.807533 0.807533 0.807533
0.808655 0.808655 0.808655
0.809767 0.809767 0.809767
0.810866 0.810866 0.810866
0.811955 0.811955 0.811955
0.813034 0.813034 0.813034
0.814101 0.814101 0.814101
0.815158 0.815158 0.815158
0.816204 0.816204 0.816204
0.817241 0.817241 0.817241
0.818268 0.818268 0.818268
0.819284 0.819284 0.819284
0.820291 0.820291 0.820291
0.821288 0.821288 0.821288
0.822276 0.822276 0.822276
0.823254 0.823254 0.823254
0.824223 0.824223 0.824223
0.825184 0.825184 0.825184
0.826134 0.826134 0.826134
0.827077 0.827077 0.827077
0.828011 0.828011 0.828011
0.828936 0.828936 0.828936
0.829853 0.829853 0.829853
0.830761 0.830761 0.830761
0.831660 0.831660 0.831660
0.832553 0.832553 0.832553
0.833437 0.833437 0.833437
0.834312 0.834312 0.834312
0.835180 0.835180 0.835180
0.836042 0.836042 0.836042
0.836894 0.836894 0.836894
0.837740 0.837740 0.837740
0.838578 0.838578 0.838578
0.839409 0.839409 0.839409
0.840232 0.840232 0.840232
0.841049 0.841049 0.841049
0.841859 0.841859 0.841859
0.842661 0.842661 0.842661
0.843457 0.843457 0.843457
0.844246 0.844246 0.844246
0.845029 0.845029 0.845029
0.845804 0.845804 0.845804
0.846573 0.846573 0.846573
0.847337 0.847337 0.847337
0.848093 0.848093 0.848093
0.848844 0.848844 0.848844
0.849587 0.849587 0.849587
0.850325 0.850325 0.850325
0.851058 0.851058 0.851058
0.851784 0.851784 0.851784
0.852504 0.852504 0.852504
0.853218 0.853218 0.853218
0.853928 0.853928 0.853928
0.854630 0.854630 0.854630
0.855328 0.855328 0.855328
0.856019 0.856019 0.856019
0.856706 0.856706 0.856706
0.857387 0.857387 0.857387
0.858063 0.858063 0.858063
0.858733 0.858733 0.858733
0.859398 0.859398 0.859398
0.860058 0.860058 0.860058
0.860713 0.860713 0.860713
0.861363 0.861363 0.861363
0.862008 0.862008 0.862008
0.862648 0.862648 0.862648
0.863283 0.863283 0.863283
0.863913 0.863913 0.863913
0.864538 0.864538 0.864538
0.865160 0.865160 0.865160
0.865776 0.865776 0.865776
0.866387 0.866387 0.866387
0.866994 0.866994 0.866994
0.867596 0.867596 0.867596
0.868194 0.868194 0.868194
0.868788 0.868788 0.868788
0.869377 0.869377 0.869377
0.869962 0.869962 0.869962
0.870543 0.870543 0.870543
0.871119 0.871119 0.871119
0.871691 0.871691 0.871691
0.872259 0.872259 0.872259
0.872824 0.872824 0.872824
0.873384 0.873384 0.873384
0.873940 0.873940 0.873940
0.874492 0.874492 0.874492
0.875040 0.875040 0.875040
0.875584 0.875584 0.875584
0.876125 0.876125 0.876125
0.876661 0.876661 0.876661
0.877195 0.877195 0.877195
0.877724 0.877724 0.877724
0.878249 0.878249 0.878249
0.878771 0.878771 0.878771
0.879289 0.879289 0.879289
0.879804 0.879804 0.879804
0.880315 0.880315 0.880315
0.880823 0.880823 0.880823
0.881327 0.881327 0.881327
0.881828 0.881828 0.881828
0.882326 0.882326 0.882326
0.882820 0.882820 0.882820
0.883310 0.883310 0.883310
0.883798 0.883798 0.883798
0.884282 0.884282 0.884282
0.884763 0.884763 0.884763
0.885240 0.885240 0.885240
0.885715 0.885715 0.885715
0.886186 0.886186 0.886186
0.886655 0.886655 0.886655
0.887121 0.887121 0.887121
0.887583 0.887583 0.887583
0.888042 0.888042 0.888042
0.888498 0.888498 0.888498
0.888951 0.888951 0.888951
0.889401 0.889401 0.889401
0.889849 0.889849 0.889849
0.890293 0.890293 0.890293
0.890735 0.890735 0.890735
0.891174 0.891174 0.891174
0.891610 0.891610 0.891610
0.892044 0.892044 0.892044
0.892474 0.892474 0.892474
0.892902 0.892902 0.892902
0.893327 0.893327 0.893327
0.893750 0.893750 0.893750
0.894169 0.894169 0.894169
0.894587 0.894587 0.894587
0.895001 0.895001 0.895001
0.895413 0.895413 0.895413
0.895823 0.895823 0.895823
0.896230 0.896230 0.896230
0.896634 0.896634 0.896634
0.897036 0.897036 0.897036
0.897435 0.897435 0.897435
0.897833 0.897833 0.897833
0.898228 0.898228 0.898228
0.898620 0.898620 0.898620
0.899010 0.899010 0.899010
0.899398 0.899398 0.899398
0.899783 0.899783 0.899783
0.900166 0.900166 0.900166
0.900546 0.900546 0.900546
0.900924 0.900924 0.900924
0.901300 0.901300 0.901300
0.901674 0.901674 0.901674
0.902046 0.902046 0.902046
0.902415 0.902415 0.902415
0.902782 0.902782 0.902782
0.903148 0.903148 0.903148
0.903510 0.903510 0.903510
0.903872 0.903872 0.903872
0.904230 0.904230 0.904230
0.904587 0.904587 0.904587
0.904942 0.904942 0.904942
0.905295 0.905295 0.905295
0.905645 0.905645 0.905645
0.905993 0.905993 0.905993
0.906340 0.906340 0.906340
0.906684 0.906684 0.906684
0.907027 0.907027 0.907027
0.907367 0.907367 0.907367
0.907706 0.907706 0.907706
0.908043 0.908043 0.908043
0.908377 0.908377 0.908377
0.908710 0.908710 0.908710
0.909041 0.909041 0.909041
0.909370 0.909370 0.909370
0.909698 0.909698 0.909698
0.910023 0.910023 0.910023
0.910347 0.910347 0.910347
0.910669 0.910669 0.910669
0.910989 0.910989 0.910989
0.911307 0.911307 0.911307
0.911625 0.911625 0.911625
0.911939 0.911939 0.911939
0.912252 0.912252 0.912252
0.912563 0.912563 0.912563
0.912873 0.912873 0.912873
0.913182 0.913182 0.913182
0.913488 0.913488 0.913488
0.913793 0.913793 0.913793
0.914096 0.914096 0.914096
0.914397 0.914397 0.914397
0.914696 0.914696 0.914696
0.914995 0.914995 0.914995
0.915291 0.915291 0.915291
0.915586 0.915586 0.915586
0.915880 0.915880 0.915880
0.916172 0.916172 0.916172
0.916462 0.916462 0.916462
0.916751 0.916751 0.916751
0.917038 0.917038 0.917038
0.917323 0.917323 0.917323
0.917608 0.917608 0.917608
0.917890 0.917890 0.917890
0.918172 0.918172 0.918172
0.918451 0.918451 0.918451
0.918729 0.918729 0.918729
0.919007 0.919007 0.919007
0.919282 0.919282 0.919282
0.919556 0.919556 0.919556
0.919828 0.919828 0.919828
0.920099 0.920099 0.920099
0.920369 0.920369 0.920369
0.920637 0.920637 0.920637
0.920905 0.920905 0.920905
0.921171 0.921171 0.921171
0.921435 0.921435 0.921435
0.921698 0.921698 0.921698
0.921959 0.921959 0.921959
0.922219 0.922219 0.922219
0.922478 0.922478 0.922478
0.922736 0.922736 0.922736
0.922993 0.922993 0.922993
0.923248 0.923248 0.923248
0.923501 0.923501 0.923501
0.923754 0.923754 0.923754
0.924005 0.924005 0.924005
0.924255 0.924255 0.924255
0.924503 0.924503 0.924503
0.924751 0.924751 0.924751
0.924997 0.924997 0.924997
0.925243 0.925243 0.925243
0.925487 0.925487 0.925487
0.925729 0.925729 0.925729
0.925971 0.925971 0.925971
0.926211 0.926211 0.926211
0.926450 0.926450 0.926450
0.926688 0.926688 0.926688
0.926924 0.926924 0.926924
0.927160 0.927160 0.927160
0.927394 0.927394 0.927394
0.927628 0.927628 0.927628
0.927860 0.927860 0.927860
0.928091 0.928091 0.928091
0.928321 0.928321 0.928321
0.928550 0.928550 0.928550
0.928778 0.928778 0.928778
0.929004 0.929004 0.929004
0.929230 0.929230 0.929230
0.929455 0.929455 0.929455
0.929678 0.929678 0.929678
0.929900 0.929900 0.929900
0.930121 0.930121 0.930121
0.930342 0.930342 0.930342
0.930561 0.930561 0.930561
0.930779 0.930779 0.930779
0.930997 0.930997 0.930997
0.931213 0.931213 0.931213
0.931428 0.931428 0.931428
0.931642 0.931642 0.931642
0.931855 0.931855 0.931855
0.932067 0.932067 0.932067
0.932279 0.932279 0.932279
0.932489 0.932489 0.932489
0.932698 0.932698 0.932698
0.932906 0.932906 0.932906
0.933113 0.933113 0.933113
0.933319 0.933319 0.933319
0.933525 0.933525 0.933525
0.933729 0.933729 0.933729
0.933933 0.933933 0.933933
0.934135 0.934135 0.934135
0.934337 0.934337 0.934337
0.934538 0.934538 0.934538
0.934738 0.934738 0.934738
0.934937 0.934937 0.934937
0.935135 0.935135 0.935135
0.935332 0.935332 0.935332
0.935528 0.935528 0.935528
0.935723 0.935723 0.935723
0.935917 0.935917 0.935917
0.936111 0.936111 0.936111
0.936304 0.936304 0.936304
0.936495 0.936495 0.936495
0.936686 0.936686 0.936686
0.936877 0.936877 0.936877
0.937066 0.937066 0.937066
0.937254 0.937254 0.937254
0.937442 0.937442 0.937442
0.937629 0.937629 0.937629
0.937815 0.937815 0.937815
0.938000 0.938000 0.938000
0.938185 0.938185 0.938185
0.938368 0.938368 0.938368
0.938551 0.938551 0.938551
0.938732 0.938732 0.938732
0.938914 0.938914 0.938914
0.939094 0.939094 0.939094
0.939273 0.939273 0.939273
0.939452 0.939452 0.939452
0.939630 0.939630 0.939630
0.939807 0.939807 0.939807
0.939983 0.939983 0.939983
0.940159 0.940159 0.940159
0.940334 0.940334 0.940334
0.940508 0.940508 0.940508
0.940681 0.940681 0.940681
0.940855 0.940855 0.940855
0.941027 0.941027 0.941027
0.941198 0.941198 0.941198
0.941368 0.941368 0.941368
0.941538 0.941538 0.941538
0.941707 0.941707 0.941707
0.941875 0.941875 0.941875
0.942043 0.942043 0.942043
0.942210 0.942210 0.942210
0.942376 0.942376 0.942376
0.942541 0.942541 0.942541
0.942706 0.942706 0.942706
0.942870 0.942870 0.942870
0.943033 0.943033 0.943033
0.943196 0.943196 0.943196
0.943358 0.943358 0.943358
0.943519 0.943519 0.943519
0.943680 0.943680 0.943680
0.943840 0.943840 0.943840
0.943999 0.943999 0.943999
0.944157 0.944157 0.944157
0.944315 0.944315 0.944315
0.944473 0.944473 0.944473
0.944630 0.944630 0.944630
0.944786 0.944786 0.944786
0.944942 0.944942 0.944942
0.945096 0.945096 0.945096
0.945250 0.945250 0.945250
0.945404 0.945404 0.945404
0.945557 0.945557 0.945557
0.945709 0.945709 0.945709
0.945861 0.945861 0.945861
0.946011 0.946011 0.946011
0.946162 0.946162 0.946162
0.946312 0.946312 0.946312
0.946461 0.946461 0.946461
0.946609 0.946609 0.946609
0.946757 0.946757 0.946757
0.946904 0.946904 0.946904
0.947051 0.947051 0.947051
0.947197 0.947197 0.947197
0.947343 0.947343 0.947343
0.947488 0.947488 0.947488
0.947632 0.947632 0.947632
0.947776 0.947776 0.947776
0.947919 0.947919 0.947919
0.948062 0.948062 0.948062
0.948204 0.948204 0.948204
0.948346 0.948346 0.948346
0.948487 0.948487 0.948487
0.948628 0.948628 0.948628
0.948768 0.948768 0.948768
0.948907 0.948907 0.948907
0.949046 0.949046 0.949046
0.949184 0.949184 0.949184
0.949322 0.949322 0.949322
0.949459 0.949459 0.949459
0.949595 0.949595 0.949595
0.949731 0.949731 0.949731
0.949867 0.949867 0.949867
0.950002 0.950002 0.950002
0.950136 0.950136 0.950136
0.950270 0.950270 0.950270
0.950404 0.950404 0.950404
0.950537 0.950537 0.950537
0.950669 0.950669 0.950669
0.950801 0.950801 0.950801
0.950932 0.950932 0.950932
0.951063 0.951063 0.951063
0.951193 0.951193 0.951193
0.951323 0.951323 0.951323
0.951452 0.951452 0.951452
0.951581 0.951581 0.951581
0.951710 0.951710 0.951710
0.951837 0.951837 0.951837
0.951965 0.951965 0.951965
0.952092 0.952092 0.952092
0.952218 0.952218 0.952218
0.952344 0.952344 0.952344
0.952469 0.952469 0.952469
0.952594 0.952594 0.952594
0.952719 0.952719 0.952719
0.952843 0.952843 0.952843
0.952967 0.952967 0.952967
0.953090 0.953090 0.953090
0.953213 0.953213 0.953213
0.953335 0.953335 0.953335
0.953457 0.953457 0.953457
0.953578 0.953578 0.953578
0.953698 0.953698 0.953698
0.953819 0.953819 0.953819
0.953939 0.953939 0.953939
0.954059 0.954059 0.954059
0.954178 0.954178 0.954178
0.954296 0.954296 0.954296
0.954414 0.954414 0.954414
0.954532 0.954532 0.954532
0.954649 0.954649 0.954649
0.954766 0.954766 0.954766
0.954882 0.954882 0.954882
0.954998 0.954998 0.954998
0.955114 0.955114 0.955114
0.955229 0.955229 0.955229
0.955343 0.955343 0.955343
0.955457 0.955457 0.955457
0.955571 0.955571 0.955571
0.955685 0.955685 0.955685
0.955798 0.955798 0.955798
0.955910 0.955910 0.955910
0.956022 0.956022 0.956022
0.956134 0.956134 0.956134
0.956245 0.956245 0.956245
0.956356 0.956356 0.956356
0.956467 0.956467 0.956467
0.956577 0.956577 0.956577
0.956687 0.956687 0.956687
0.956796 0.956796 0.956796
0.956905 0.956905 0.956905
0.957013 0.957013 0.957013
0.957122 0.957122 0.957122
0.957229 0.957229 0.957229
0.957337 0.957337 0.957337
0.957444 0.957444 0.957444
0.957550 0.957550 0.957550
0.957656 0.957656 0.957656
0.957762 0.957762 0.957762
0.957868 0.957868 0.957868
0.957973 0.957973 0.957973
0.958078 0.958078 0.958078
0.958182 0.958182 0.958182
0.958286 0.958286 0.958286
0.958390 0.958390 0.958390
0.958493 0.958493 0.958493
0.958596 0.958596 0.958596
0.958698 0.958698 0.958698
0.958800 0.958800 0.958800
0.958902 0.958902 0.958902
0.959004 0.959004 0.959004
0.959105 0.959105 0.959105
0.959205 0.959205 0.959205
0.959306 0.959306 0.959306
0.959405 0.959405 0.959405
0.959506 0.959506 0.959506
0.959605 0.959605 0.959605
0.959704 0.959704 0.959704
0.959803 0.959803 0.959803
0.959901 0.959901 0.959901
0.959999 0.959999 0.959999
0.960096 0.960096 0.960096
0.960194 0.960194 0.960194
0.960291 0.960291 0.960291
0.960387 0.960387 0.960387
0.960483 0.960483 0.960483
0.960579 0.960579 0.960579
0.960675 0.960675 0.960675
0.960770 0.960770 0.960770
0.960865 0.960865 0.960865
0.960959 0.960959 0.960959
0.961054 0.961054 0.961054
0.961148 0.961148 0.961148
0.961241 0.961241 0.961241
0.961334 0.961334 0.961334
0.961427 0.961427 0.961427
0.961520 0.961520 0.961520
0.961612 0.961612 0.961612
0.961704 0.961704 0.961704
0.961796 0.961796 0.961796
0.961888 0.961888 0.961888
0.961979 0.961979 0.961979
0.962069 0.962069 0.962069
0.962160 0.962160 0.962160
0.962250 0.962250 0.962250
0.962340 0.962340 0.962340
0.962429 0.962429 0.962429
0.962519 0.962519 0.962519
0.962608 0.962608 0.962608
0.962696 0.962696 0.962696
0.962785 0.962785 0.962785
0.962873 0.962873 0.962873
0.962960 0.962960 0.962960
0.963048 0.963048 0.963048
0.963135 0.963135 0.963135
0.963222 0.963222 0.963222
0.963308 0.963308 0.963308
0.963395 0.963395 0.963395
0.963481 0.963481 0.963481
0.963567 0.963567 0.963567
0.963652 0.963652 0.963652
0.963737 0.963737 0.963737
0.963822 0.963822 0.963822
0.963907 0.963907 0.963907
0.963991 0.963991 0.963991
0.964075 0.964075 0.964075
0.964159 0.964159 0.964159
0.964242 0.964242 0.964242
0.964325 0.964325 0.964325
0.964408 0.964408 0.964408
0.964491 0.964491 0.964491
0.964573 0.964573 0.964573
0.964655 0.964655 0.964655
0.964737 0.964737 0.964737
0.964819 0.964819 0.964819
0.964900 0.964900 0.964900
0.964981 0.964981 0.964981
0.965062 0.965062 0.965062
0.965142 0.965142 0.965142
0.965223 0.965223 0.965223
0.965303 0.965303 0.965303
0.965382 0.965382 0.965382
0.965462 0.965462 0.965462
0.965541 0.965541 0.965541
0.965620 0.965620 0.965620
0.965699 0.965699 0.965699
0.965777 0.965777 0.965777
0.965855 0.965855 0.965855
0.965934 0.965934 0.965934
0.966012 0.966012 0.966012
0.966089 0.966089 0.966089
0.966166 0.966166 0.966166
0.966243 0.966243 0.966243
0.966320 0.966320 0.966320
0.966396 0.966396 0.966396
0.966473 0.966473 0.966473
0.966549 0.966549 0.966549
0.966624 0.966624 0.966624
0.966700 0.966700 0.966700
0.966775 0.966775 0.966775
0.966850 0.966850 0.966850
0.966925 0.966925 0.966925
0.966999 0.966999 0.966999
0.967073 0.967073 0.967073
0.967147 0.967147 0.967147
0.967221 0.967221 0.967221
0.967295 0.967295 0.967295
0.967368 0.967368 0.967368
0.967441 0.967441 0.967441
0.967514 0.967514 0.967514
0.967587 0.967587 0.967587
0.967659 0.967659 0.967659
0.967731 0.967731 0.967731
0.967803 0.967803 0.967803
0.967875 0.967875 0.967875
0.967947 0.967947 0.967947
0.968018 0.968018 0.968018
0.968089 0.968089 0.968089
0.968160 0.968160 0.968160
0.968230 0.968230 0.968230
0.968301 0.968301 0.968301
0.968371 0.968371 0.968371
0.968441 0.968441 0.968441
0.968511 0.968511 0.968511
0.968580 0.968580 0.968580
0.968649 0.968649 0.968649
0.968718 0.968718 0.968718
0.968787 0.968787 0.968787
0.968856 0.968856 0.968856
0.968924 0.968924 0.968924
0.968993 0.968993 0.968993
0.969061 0.969061 0.969061
0.969129 0.969129 0.969129
0.969197 0.969197 0.969197
0.969264 0.969264 0.969264
0.969332 0.969332 0.969332
0.969399 0.969399 0.969399
0.969465 0.969465 0.969465
0.969532 0.969532 0.969532
0.969598 0.969598 0.969598
0.969665 0.969665 0.969665
0.969731 0.969731 0.969731
0.969796 0.969796 0.969796
0.969862 0.969862 0.969862
0.969927 0.969927 0.969927
0.969992 0.969992 0.969992
0.970057 0.970057 0.970057
0.970122 0.970122 0.970122
0.970187 0.970187 0.970187
0.970251 0.970251 0.970251
0.970315 0.970315 0.970315
0.970379 0.970379 0.970379
0.970443 0.970443 0.970443
0.970507 0.970507 0.970507
0.970570 0.970570 0.970570
0.970633 0.970633 0.970633
0.970696 0.970696 0.970696
0.970759 0.970759 0.970759
0.970822 0.970822 0.970822
0.970884 0.970884 0.970884
0.970947 0.970947 0.970947
0.971009 0.971009 0.971009
0.971071 0.971071 0.971071
0.971132 0.971132 0.971132
0.971194 0.971194 0.971194
0.971255 0.971255 0.971255
0.971316 0.971316 0.971316
0.971377 0.971377 0.971377
0.971438 0.971438 0.971438
0.971499 0.971499 0.971499
0.971559 0.971559 0.971559
0.971619 0.971619 0.971619
0.971679 0.971679 0.971679
0.971739 0.971739 0.971739
0.971799 0.971799 0.971799
0.971859 0.971859 0.971859
0.971918 0.971918 0.971918
0.971977 0.971977 0.971977
0.972036 0.972036 0.972036
0.972095 0.972095 0.972095
0.972154 0.972154 0.972154
0.972212 0.972212 0.972212
0.972271 0.972271 0.972271
0.972329 0.972329 0.972329
0.972387 0.972387 0.972387
0.972445 0.972445 0.972445
0.972502 0.972502 0.972502
0.972560 0.972560 0.972560
0.972617 0.972617 0.972617
0.972674 0.972674 0.972674
0.972731 0.972731 0.972731
0.972788 0.972788 0.972788
0.972845 0.972845 0.972845
0.972901 0.972901 0.972901
0.972957 0.972957 0.972957
0.973013 0.973013 0.973013
0.973070 0.973070 0.973070
0.973126 0.973126 0.973126
0.973181 0.973181 0.973181
0.973237 0.973237 0.973237
0.973292 0.973292 0.973292
0.973347 0.973347 0.973347
0.973402 0.973402 0.973402
0.973457 0.973457 0.973457
0.973512 0.973512 0.973512
0.973566 0.973566 0.973566
0.973621 0.973621 0.973621
0.973676 0.973676 0.973676
0.973730 0.973730 0.973730
0.973784 0.973784 0.973784
0.973837 0.973837 0.973837
0.973891 0.973891 0.973891
0.973945 0.973945 0.973945
0.973998 0.973998 0.973998
0.974051 0.974051 0.974051
0.974104 0.974104 0.974104
0.974157 0.974157 0.974157
0.974210 0.974210 0.974210
0.974262 0.974262 0.974262
0.974314 0.974314 0.974314
0.974367 0.974367 0.974367
0.974419 0.974419 0.974419
0.974471 0.974471 0.974471
0.974523 0.974523 0.974523
0.974574 0.974574 0.974574
0.974626 0.974626 0.974626
0.974677 0.974677 0.974677
0.974728 0.974728 0.974728
0.974779 0.974779 0.974779
0.974830 0.974830 0.974830
0.974881 0.974881 0.974881
0.974932 0.974932 0.974932
0.974982 0.974982 0.974982
0.975033 0.975033 0.975033
0.975083 0.975083 0.975083
0.975133 0.975133 0.975133
0.975183 0.975183 0.975183
0.975233 0.975233 0.975233
0.975282 0.975282 0.975282
0.975332 0.975332 0.975332
0.975381 0.975381 0.975381
0.975430 0.975430 0.975430
0.975480 0.975480 0.975480
0.975528 0.975528 0.975528
0.975577 0.975577 0.975577
0.975626 0.975626 0.975626
0.975675 0.975675 0.975675
0.975723 0.975723 0.975723
0.975771 0.975771 0.975771
0.975819 0.975819 0.975819
0.975867 0.975867 0.975867
0.975915 0.975915 0.975915
0.975963 0.975963 0.975963
0.976011 0.976011 0.976011
0.976058 0.976058 0.976058
0.976106 0.976106 0.976106
0.976153 0.976153 0.976153
0.976200 0.976200 0.976200
0.976247 0.976247 0.976247
0.976294 0.976294 0.976294
0.976340 0.976340 0.976340
0.976387 0.976387 0.976387
0.976433 0.976433 0.976433
0.976480 0.976480 0.976480
0.976526 0.976526 0.976526
0.976572 0.976572 0.976572
0.976618 0.976618 0.976618
0.976664 0.976664 0.976664
0.976710 0.976710 0.976710
0.976755 0.976755 0.976755
0.976801 0.976801 0.976801
0.976846 0.976846 0.976846
0.976891 0.976891 0.976891
0.976936 0.976936 0.976936
0.976981 0.976981 0.976981
0.977026 0.977026 0.977026
0.977071 0.977071 0.977071
0.977115 0.977115 0.977115
0.977160 0.977160 0.977160
0.977204 0.977204 0.977204
0.977248 0.977248 0.977248
