lut/AlexaV3_EI0320_WYSIWYG_EE_nuke1d.cube
# Alexa conversion LUT, lin2video. Full in/full out.
# created by alexalutconv (2.02)

LUT_1D_SIZE 4096
0.000000 0.000000 0.000000
0.000000 0.000000 0.000000
0.000000 0.000000 0.000000
0.000000 0.000000 0.000000
0.000000 0.000000 0.000000
0.000000 0.000000 0.000000
0.000000 0.000000 0.000000
0.000000 0.000000 0.000000
0.000000 0.000000 0.000000
0.000000 0.000000 0.000000
0.000000 0.000000 0.000000
0.000000 0.000000 0.000000
0.000000 0.000000 0.000000
0.000000 0.000000 0.000000
0.000000 0.000000 0.000000
0.005289 0.005289 0.005289
0.015359 0.015359 0.015359
0.026423 0.026423 0.026423
0.038851 0.038851 0.038851
0.053375 0.053375 0.053375
0.067955 0.067955 0.067955
0.081222 0.081222 0.081222
0.093467 0.093467 0.093467
0.104908 0.104908 0.104908
0.115689 0.115689 0.115689
0.125918 0.125918 0.125918
0.135672 0.135672 0.135672
0.145014 0.145014 0.145014
0.153991 0.153991 0.153991
0.162643 0.162643 0.162643
0.171174 0.171174 0.171174
0.179718 0.179718 0.179718
0.188221 0.188221 0.188221
0.196645 0.196645 0.196645
0.204962 0.204962 0.204962
0.213151 0.213151 0.213151
0.221200 0.221200 0.221200
0.229099 0.229099 0.229099
0.236841 0.236841 0.236841
0.244425 0.244425 0.244425
0.251848 0.251848 0.251848
0.259111 0.259111 0.259111
0.266213 0.266213 0.266213
0.273158 0.273158 0.273158
0.279947 0.279947 0.279947
0.286584 0.286584 0.286584
0.293071 0.293071 0.293071
0.299412 0.299412 0.299412
0.305610 0.305610 0.305610
0.311670 0.311670 0.311670
0.317593 0.317593 0.317593
0.323384 0.323384 0.323384
0.329047 0.329047 0.329047
0.334585 0.334585 0.334585
0.340001 0.340001 0.340001
0.345299 0.345299 0.345299
0.350483 0.350483 0.350483
0.355555 0.355555 0.355555
0.360519 0.360519 0.360519
0.365376 0.365376 0.365376
0.370132 0.370132 0.370132
0.374788 0.374788 0.374788
0.379346 0.379346 0.379346
0.383811 0.383811 0.383811
0.388185 0.388185 0.388185
0.392468 0.392468 0.392468
0.396665 0.396665 0.396665
0.400778 0.400778 0.400778
0.404811 0.404811 0.404811
0.408771 0.408771 0.408771
0.412661 0.412661 0.412661
0.416482 0.416482 0.416482
0.420239 0.420239 0.420239
0.423930 0.423930 0.423930
0.427562 0.427562 0.427562
0.431133 0.431133 0.431133
0.434647 0.434647 0.434647
0.438104 0.438104 0.438104
0.441508 0.441508 0.441508
0.444859 0.444859 0.444859
0.448159 0.448159 0.448159
0.451410 0.451410 0.451410
0.454612 0.454612 0.454612
0.457768 0.457768 0.457768
0.460877 0.460877 0.460877
0.463944 0.463944 0.463944
0.466967 0.466967 0.466967
0.469948 0.469948 0.469948
0.472888 0.472888 0.472888
0.475789 0.475789 0.475789
0.478651 0.478651 0.478651
0.481475 0.481475 0.481475
0.484263 0.484263 0.484263
0.487015 0.487015 0.487015
0.489732 0.489732 0.489732
0.492415 0.492415 0.492415
0.495064 0.495064 0.495064
0.497681 0.497681 0.497681
0.500266 0.500266 0.500266
0.502821 0.502821 0.502821
0.505344 0.505344 0.505344
0.507838 0.507838 0.507838
0.510304 0.510304 0.510304
0.512741 0.512741 0.512741
0.515150 0.515150 0.515150
0.517533 0.517533 0.517533
0.519888 0.519888 0.519888
0.522218 0.522218 0.522218
0.524522 0.524522 0.524522
0.526801 0.526801 0.526801
0.529056 0.529056 0.529056
0.531287 0.531287 0.531287
0.533495 0.533495 0.533495
0.535680 0.535680 0.535680
0.537842 0.537842 0.537842
0.539982 0.539982 0.539982
0.542100 0.542100 0.542100
0.544197 0.544197 0.544197
0.546274 0.546274 0.546274
0.548330 0.548330 0.548330
0.550366 0.550366 0.550366
0.552382 0.552382 0.552382
0.554379 0.554379 0.554379
0.556357 0.556357 0.556357
0.558317 0.558317 0.558317
0.560258 0.560258 0.560258
0.562181 0.562181 0.562181
0.564087 0.564087 0.564087
0.565975 0.565975 0.565975
0.567845 0.567845 0.567845
0.569700 0.569700 0.569700
0.571538 0.571538 0.571538
0.573359 0.573359 0.573359
0.575165 0.575165 0.575165
0.576955 0.576955 0.576955
0.578730 0.578730 0.578730
0.580489 0.580489 0.580489
0.582234 0.582234 0.582234
0.583964 0.583964 0.583964
0.585679 0.585679 0.585679
0.587380 0.587380 0.587380
0.589068 0.589068 0.589068
0.590741 0.590741 0.590741
0.592401 0.592401 0.592401
0.594047 0.594047 0.594047
0.595680 0.595680 0.595680
0.597301 0.597301 0.597301
0.598908 0.598908 0.598908
0.600503 0.600503 0.600503
0.602086 0.602086 0.602086
0.603656 0.603656 0.603656
0.605214 0.605214 0.605214
0.606761 0.606761 0.606761
0.608296 0.608296 0.608296
0.609819 0.609819 0.609819
0.611331 0.611331 0.611331
0.612832 0.612832 0.612832
0.614321 0.614321 0.614321
0.615800 0.615800 0.615800
0.617268 0.617268 0.617268
0.618725 0.618725 0.618725
0.620173 0.620173 0.620173
0.621609 0.621609 0.621609
0.623036 0.623036 0.623036
0.624452 0.624452 0.624452
0.625858 0.625858 0.625858
0.627255 0.627255 0.627255
0.628642 0.628642 0.628642
0.630019 0.630019 0.630019
0.631388 0.631388 0.631388
0.632746 0.632746 0.632746
0.634096 0.634096 0.634096
0.635437 0.635437 0.635437
0.636768 0.636768 0.636768
0.638091 0.638091 0.638091
0.639405 0.639405 0.639405
0.640711 0.640711 0.640711
0.642008 0.642008 0.642008
0.643297 0.643297 0.643297
0.644577 0.644577 0.644577
0.645850 0.645850 0.645850
0.647113 0.647113 0.647113
0.648369 0.648369 0.648369
0.649618 0.649618 0.649618
0.650857 0.650857 0.650857
0.652091 0.652091 0.652091
0.653315 0.653315 0.653315
0.654533 0.654533 0.654533
0.655743 0.655743 0.655743
0.656945 0.656945 0.656945
0.658141 0.658141 0.658141
0.659328 0.659328 0.659328
0.660510 0.660510 0.660510
0.661683 0.661683 0.661683
0.662850 0.662850 0.662850
0.664011 0.664011 0.664011
0.665163 0.665163 0.665163
0.666310 0.666310 0.666310
0.667450 0.667450 0.667450
0.668583 0.668583 0.668583
0.669710 0.669710 0.669710
0.670830 0.670830 0.670830
0.671944 0.671944 0.671944
0.673052 0.673052 0.673052
0.674153 0.674153 0.674153
0.675248 0.675248 0.675248
0.676337 0.676337 0.676337
0.677420 0.677420 0.677420
0.678496 0.678496 0.678496
0.679568 0.679568 0.679568
0.680633 0.680633 0.680633
0.681692 0.681692 0.681692
0.682746 0.682746 0.682746
0.683794 0.683794 0.683794
0.684836 0.684836 0.684836
0.685873 0.685873 0.685873
0.686904 0.686904 0.686904
0.687929 0.687929 0.687929
0.688950 0.688950 0.688950
0.689965 0.689965 0.689965
0.690974 0.690974 0.690974
0.691979 0.691979 0.691979
0.692978 0.692978 0.692978
0.693972 0.693972 0.693972
0.694960 0.694960 0.694960
0.695945 0.695945 0.695945
0.696923 0.696923 0.696923
0.697897 0.697897 0.697897
0.698866 0.698866 0.698866
0.699830 0.699830 0.699830
0.700789 0.700789 0.700789
0.701743 0.701743 0.701743
0.702693 0.702693 0.702693
0.703639 0.703639 0.703639
0.704579 0.704579 0.704579
0.705514 0.705514 0.705514
0.706445 0.706445 0.706445
0.707372 0.707372 0.707372
0.708294 0.708294 0.708294
0.709212 0.709212 0.709212
0.710125 0.710125 0.710125
0.711035 0.711035 0.711035
0.711939 0.711939 0.711939
0.712839 0.712839 0.712839
0.713735 0.713735 0.713735
0.714628 0.714628 0.714628
0.715515 0.715515 0.715515
0.716398 0.716398 0.716398
0.717278 0.717278 0.717278
0.718154 0.718154 0.718154
0.719025 0.719025 0.719025
0.719892 0.719892 0.719892
0.720755 0.720755 0.720755
0.721615 0.721615 0.721615
0.722471 0.722471 0.722471
0.723322 0.723322 0.723322
0.724170 0.724170 0.724170
0.725014 0.725014 0.725014
0.725854 0.725854 0.725854
0.726691 0.726691 0.726691
0.727524 0.727524 0.727524
0.728353 0.728353 0.728353
0.729178 0.729178 0.729178
0.730000 0.730000 0.730000
0.730819 0.730819 0.730819
0.731633 0.731633 0.731633
0.732445 0.732445 0.732445
0.733252 0.733252 0.733252
0.734056 0.734056 0.734056
0.734858 0.734858 0.734858
0.735655 0.735655 0.735655
0.736449 0.736449 0.736449
0.737239 0.737239 0.737239
0.738026 0.738026 0.738026
0.738810 0.738810 0.738810
0.739591 0.739591 0.739591
0.740369 0.740369 0.740369
0.741142 0.741142 0.741142
0.741913 0.741913 0.741913
0.742681 0.742681 0.742681
0.743446 0.743446 0.743446
0.744207 0.744207 0.744207
0.744966 0.744966 0.744966
0.745721 0.745721 0.745721
0.746473 0.746473 0.746473
0.747222 0.747222 0.747222
0.747968 0.747968 0.747968
0.748711 0.748711 0.748711
0.749451 0.749451 0.749451
0.750188 0.750188 0.750188
0.750922 0.750922 0.750922
0.751654 0.751654 0.751654
0.752382 0.752382 0.752382
0.753108 0.753108 0.753108
0.753831 0.753831 0.753831
0.754550 0.754550 0.754550
0.755267 0.755267 0.755267
0.755981 0.755981 0.755981
0.756693 0.756693 0.756693
0.757402 0.757402 0.757402
0.758108 0.758108 0.758108
0.758811 0.758811 0.758811
0.759512 0.759512 0.759512
0.760210 0.760210 0.760210
0.760905 0.760905 0.760905
0.761597 0.761597 0.761597
0.762287 0.762287 0.762287
0.762975 0.762975 0.762975
0.763660 0.763660 0.763660
0.764342 0.764342 0.764342
0.765022 0.765022 0.765022
0.765699 0.765699 0.765699
0.766373 0.766373 0.766373
0.767045 0.767045 0.767045
0.767716 0.767716 0.767716
0.768383 0.768383 0.768383
0.769048 0.769048 0.769048
0.769710 0.769710 0.769710
0.770370 0.770370 0.770370
0.771027 0.771027 0.771027
0.771682 0.771682 0.771682
0.772335 0.772335 0.772335
0.772986 0.772986 0.772986
0.773634 0.773634 0.773634
0.774280 0.774280 0.774280
0.774924 0.774924 0.774924
0.775565 0.775565 0.775565
0.776203 0.776203 0.776203
0.776840 0.776840 0.776840
0.777474 0.777474 0.777474
0.778107 0.778107 0.778107
0.778737 0.778737 0.778737
0.779365 0.779365 0.779365
0.779991 0.779991 0.779991
0.780614 0.780614 0.780614
0.781235 0.781235 0.781235
0.781854 0.781854 0.781854
0.782471 0.782471 0.782471
0.783086 0.783086 0.783086
0.783699 0.783699 0.783699
0.784309 0.784309 0.784309
0.784919 0.784919 0.784919
0.785525 0.785525 0.785525
0.786130 0.786130 0.786130
0.786732 0.786732 0.786732
0.787332 0.787332 0.787332
0.787931 0.787931 0.787931
0.788527 0.788527 0.788527
0.789122 0.789122 0.789122
0.789714 0.789714 0.789714
0.790305 0.790305 0.790305
0.790893 0.790893 0.790893
0.791480 0.791480 0.791480
0.792065 0.792065 0.792065
0.792648 0.792648 0.792648
0.793228 0.793228 0.793228
0.793807 0.793807 0.793807
0.794384 0.794384 0.794384
0.794959 0.794959 0.794959
0.795533 0.795533 0.795533
0.796105 0.796105 0.796105
0.796674 0.796674 0.796674
0.797242 0.797242 0.797242
0.797808 0.797808 0.797808
0.798372 0.798372 0.798372
0.798935 0.798935 0.798935
0.799495 0.799495 0.799495
0.800054 0.800054 0.800054
0.800611 0.800611 0.800611
0.801166 0.801166 0.801166
0.801720 0.801720 0.801720
0.802272 0.802272 0.802272
0.802822 0.802822 0.802822
0.803371 0.803371 0.803371
0.803917 0.803917 0.803917
0.804462 0.804462 0.804462
0.805005 0.805005 0.805005
0.805547 0.805547 0.805547
0.806087 0.806087 0.806087
0.806625 0.806625 0.806625
0.807161 0.807161 0.807161
0.807697 0.807697 0.807697
0.808229 0.808229 0.808229
0.808759 0.808759 0.808759
0.809288 0.809288 0.809288
0.809813 0.809813 0.809813
0.810336 0.810336 0.810336
0.810857 0.810857 0.810857
0.811376 0.811376 0.811376
0.811891 0.811891 0.811891
0.812405 0.812405 0.812405
0.812916 0.812916 0.812916
0.813425 0.813425 0.813425
0.813932 0.813932 0.813932
0.814437 0.814437 0.814437
0.814939 0.814939 0.814939
0.815439 0.815439 0.815439
0.815937 0.815937 0.815937
0.816433 0.816433 0.816433
0.816926 0.816926 0.816926
0.817417 0.817417 0.817417
0.817907 0.817907 0.817907
0.818394 0.818394 0.818394
0.818879 0.818879 0.818879
0.819361 0.819361 0.819361
0.819842 0.819842 0.819842
0.820321 0.820321 0.820321
0.820798 0.820798 0.820798
0.821272 0.821272 0.821272
0.821744 0.821744 0.821744
0.822214 0.822214 0.822214
0.822683 0.822683 0.822683
0.823150 0.823150 0.823150
0.823614 0.823614 0.823614
0.824076 0.824076 0.824076
0.824537 0.824537 0.824537
0.824995 0.824995 0.824995
0.825452 0.825452 0.825452
0.825906 0.825906 0.825906
0.826359 0.826359 0.826359
0.826810 0.826810 0.826810
0.827259 0.827259 0.827259
0.827706 0.827706 0.827706
0.828151 0.828151 0.828151
0.828594 0.828594 0.828594
0.829035 0.829035 0.829035
0.829475 0.829475 0.829475
0.829913 0.829913 0.829913
0.830349 0.830349 0.830349
0.830783 0.830783 0.830783
0.831215 0.831215 0.831215
0.831646 0.831646 0.831646
0.832075 0.832075 0.832075
0.832502 0.832502 0.832502
0.832927 0.832927 0.832927
0.833351 0.833351 0.833351
0.833772 0.833772 0.833772
0.834192 0.834192 0.834192
0.834611 0.834611 0.834611
0.835028 0.835028 0.835028
0.835443 0.835443 0.835443
0.835856 0.835856 0.835856
0.836268 0.836268 0.836268
0.836678 0.836678 0.836678
0.837086 0.837086 0.837086
0.837493 0.837493 0.837493
0.837898 0.837898 0.837898
0.838302 0.838302 0.838302
0.838704 0.838704 0.838704
0.839104 0.839104 0.839104
0.839503 0.839503 0.839503
0.839900 0.839900 0.839900
0.840295 0.840295 0.840295
0.840689 0.840689 0.840689
0.841082 0.841082 0.841082
0.841473 0.841473 0.841473
0.841863 0.841863 0.841863
0.842250 0.842250 0.842250
0.842637 0.842637 0.842637
0.843021 0.843021 0.843021
0.843405 0.843405 0.843405
0.843787 0.843787 0.843787
0.844167 0.844167 0.844167
0.844546 0.844546 0.844546
0.844924 0.844924 0.844924
0.845300 0.845300 0.845300
0.845674 0.845674 0.845674
0.846047 0.846047 0.846047
0.846419 0.846419 0.846419
0.846789 0.846789 0.846789
0.847158 0.847158 0.847158
0.847525 0.847525 0.847525
0.847891 0.847891 0.847891
0.848257 0.848257 0.848257
0.848620 0.848620 0.848620
0.848982 0.848982 0.848982
0.849342 0.849342 0.849342
0.849701 0.849701 0.849701
0.850059 0.850059 0.850059
0.850416 0.850416 0.850416
0.850771 0.850771 0.850771
0.851125 0.851125 0.851125
0.851477 0.851477 0.851477
0.851829 0.851829 0.851829
0.852179 0.852179 0.852179
0.852527 0.852527 0.852527
0.852875 0.852875 0.852875
0.853221 0.853221 0.853221
0.853565 0.853565 0.853565
0.853909 0.853909 0.853909
0.854251 0.854251 0.854251
0.854592 0.854592 0.854592
0.854931 0.854931 0.854931
0.855270 0.855270 0.855270
0.855608 0.855608 0.855608
0.855944 0.855944 0.855944
0.856278 0.856278 0.856278
0.856612 0.856612 0.856612
0.856944 0.856944 0.856944
0.857275 0.857275 0.857275
0.857605 0.857605 0.857605
0.857934 0.857934 0.857934
0.858261 0.858261 0.858261
0.858587 0.858587 0.858587
0.858913 0.858913 0.858913
0.859237 0.859237 0.859237
0.859560 0.859560 0.859560
0.859882 0.859882 0.859882
0.860203 0.860203 0.860203
0.860522 0.860522 0.860522
0.860840 0.860840 0.860840
0.861157 0.861157 0.861157
0.861473 0.861473 0.861473
0.861788 0.861788 0.861788
0.862102 0.862102 0.862102
0.862415 0.862415 0.862415
0.862726 0.862726 0.862726
0.863037 0.863037 0.863037
0.863346 0.863346 0.863346
0.863655 0.863655 0.863655
0.863962 0.863962 0.863962
0.864269 0.864269 0.864269
0.864574 0.864574 0.864574
0.864878 0.864878 0.864878
0.865181 0.865181 0.865181
0.865483 0.865483 0.865483
0.865783 0.865783 0.865783
0.866083 0.866083 0.866083
0.866382 0.866382 0.866382
0.866680 0.866680 0.866680
0.866976 0.866976 0.866976
0.867272 0.867272 0.867272
0.867567 0.867567 0.867567
0.867861 0.867861 0.867861
0.868154 0.868154 0.868154
0.868446 0.868446 0.868446
0.868737 0.868737 0.868737
0.869026 0.869026 0.869026
0.869315 0.869315 0.869315
0.869603 0.869603 0.869603
0.869890 0.869890 0.869890
0.870175 0.870175 0.870175
0.870460 0.870460 0.870460
0.870744 0.870744 0.870744
0.871027 0.871027 0.871027
0.871309 0.871309 0.871309
0.871590 0.871590 0.871590
0.871870 0.871870 0.871870
0.872150 0.872150 0.872150
0.872428 0.872428 0.872428
0.872706 0.872706 0.872706
0.872982 0.872982 0.872982
0.873258 0.873258 0.873258
0.873532 0.873532 0.873532
0.873806 0.873806 0.873806
0.874079 0.874079 0.874079
0.874350 0.874350 0.874350
0.874621 0.874621 0.874621
0.874891 0.874891 0.874891
0.875161 0.875161 0.875161
0.875429 0.875429 0.875429
0.875696 0.875696 0.875696
0.875963 0.875963 0.875963
0.876228 0.876228 0.876228
0.876493 0.876493 0.876493
0.876758 0.876758 0.876758
0.877021 0.877021 0.877021
0.877283 0.877283 0.877283
0.877545 0.877545 0.877545
0.877805 0.877805 0.877805
0.878065 0.878065 0.878065
0.878324 0.878324 0.878324
0.878582 0.878582 0.878582
0.878839 0.878839 0.878839
0.879095 0.879095 0.879095
0.879351 0.879351 0.879351
0.879605 0.879605 0.879605
0.879859 0.879859 0.879859
0.880112 0.880112 0.880112
0.880365 0.880365 0.880365
0.880616 0.880616 0.880616
0.880867 0.880867 0.880867
0.881117 0.881117 0.881117
0.881366 0.881366 0.881366
0.881615 0.881615 0.881615
0.881862 0.881862 0.881862
0.882109 0.882109 0.882109
0.882355 0.882355 0.882355
0.882600 0.882600 0.882600
0.882845 0.882845 0.882845
0.883088 0.883088 0.883088
0.883331 0.883331 0.883331
0.883573 0.883573 0.883573
0.883815 0.883815 0.883815
0.884055 0.884055 0.884055
0.884295 0.884295 0.884295
0.884534 0.884534 0.884534
0.884773 0.884773 0.884773
0.885010 0.885010 0.885010
0.885247 0.885247 0.885247
0.885483 0.885483 0.885483
0.885719 0.885719 0.885719
0.885954 0.885954 0.885954
0.886187 0.886187 0.886187
0.886421 0.886421 0.886421
0.886653 0.886653 0.886653
0.886886 0.886886 0.886886
0.887117 0.887117 0.887117
0.887347 0.887347 0.887347
0.887577 0.887577 0.887577
0.887806 0.887806 0.887806
0.888034 0.888034 0.888034
0.888261 0.888261 0.888261
0.888489 0.888489 0.888489
0.888715 0.888715 0.888715
0.888941 0.888941 0.888941
0.889166 0.889166 0.889166
0.889390 0.889390 0.889390
0.889613 0.889613 0.889613
0.889836 0.889836 0.889836
0.890058 0.890058 0.890058
0.890280 0.890280 0.890280
0.890501 0.890501 0.890501
0.890721 0.890721 0.890721
0.890940 0.890940 0.890940
0.891159 0.891159 0.891159
0.891378 0.891378 0.891378
0.891595 0.891595 0.891595
0.891812 0.891812 0.891812
0.892028 0.892028 0.892028
0.892244 0.892244 0.892244
0.892459 0.892459 0.892459
0.892674 0.892674 0.892674
0.892887 0.892887 0.892887
0.893100 0.893100 0.893100
0.893313 0.893313 0.893313
0.893524 0.893524 0.893524
0.893736 0.893736 0.893736
0.893946 0.893946 0.893946
0.894156 0.894156 0.894156
0.894366 0.894366 0.894366
0.894575 0.894575 0.894575
0.894783 0.894783 0.894783
0.894991 0.894991 0.894991
0.895197 0.895197 0.895197
0.895404 0.895404 0.895404
0.895609 0.895609 0.895609
0.895814 0.895814 0.895814
0.896019 0.896019 0.896019
0.896223 0.896223 0.896223
0.896426 0.896426 0.896426
0.896629 0.896629 0.896629
0.896831 0.896831 0.896831
0.897033 0.897033 0.897033
0.897234 0.897234 0.897234
0.897434 0.897434 0.897434
0.897634 0.897634 0.897634
0.897833 0.897833 0.897833
0.898032 0.898032 0.898032
0.898230 0.898230 0.898230
0.898428 0.898428 0.898428
0.898625 0.898625 0.898625
0.898821 0.898821 0.898821
0.899017 0.899017 0.899017
0.899212 0.899212 0.899212
0.899407 0.899407 0.899407
0.899601 0.899601 0.899601
0.899795 0.899795 0.899795
0.899988 0.899988 0.899988
0.900181 0.900181 0.900181
0.900373 0.900373 0.900373
0.900564 0.900564 0.900564
0.900756 0.900756 0.900756
0.900946 0.900946 0.900946
0.901136 0.901136 0.901136
0.901325 0.901325 0.901325
0.901514 0.901514 0.901514
0.901702 0.901702 0.901702
0.901890 0.901890 0.901890
0.902077 0.902077 0.902077
0.902264 0.902264 0.902264
0.902450 0.902450 0.902450
0.902636 0.902636 0.902636
0.902821 0.902821 0.902821
0.903006 0.903006 0.903006
0.903190 0.903190 0.903190
0.903373 0.903373 0.903373
0.903557 0.903557 0.903557
0.903740 0.903740 0.903740
0.903922 0.903922 0.903922
0.904103 0.904103 0.904103
0.904284 0.904284 0.904284
0.904465 0.904465 0.904465
0.904645 0.904645 0.904645
0.904825 0.904825 0.904825
0.905004 0.905004 0.905004
0.905183 0.905183 0.905183
0.905361 0.905361 0.905361
0.905538 0.905538 0.905538
0.905716 0.905716 0.905716
0.905892 0.905892 0.905892
0.906068 0.906068 0.906068
0.906244 0.906244 0.906244
0.906419 0.906419 0.906419
0.906594 0.906594 0.906594
0.906768 0.906768 0.906768
0.906942 0.906942 0.906942
0.907116 0.907116 0.907116
0.907289 0.907289 0.907289
0.907461 0.907461 0.907461
0.907634 0.907634 0.907634
0.907805 0.907805 0.907805
0.907976 0.907976 0.907976
0.908147 0.908147 0.908147
0.908317 0.908317 0.908317
0.908487 0.908487 0.908487
0.908656 0.908656 0.908656
0.908825 0.908825 0.908825
0.908993 0.908993 0.908993
0.909161 0.909161 0.909161
0.909328 0.909328 0.909328
0.909495 0.909495 0.909495
0.909662 0.909662 0.909662
0.909828 0.909828 0.909828
0.909993 0.909993 0.909993
0.910159 0.910159 0.910159
0.910323 0.910323 0.910323
0.910488 0.910488 0.910488
0.910652 0.910652 0.910652
0.910815 0.910815 0.910815
0.910979 0.910979 0.910979
0.911141 0.911141 0.911141
0.911304 0.911304 0.911304
0.911466 0.911466 0.911466
0.911627 0.911627 0.911627
0.911788 0.911788 0.911788
0.911948 0.911948 0.911948
0.912108 0.912108 0.912108
0.912268 0.912268 0.912268
0.912427 0.912427 0.912427
0.912586 0.912586 0.912586
0.912744 0.912744 0.912744
0.912902 0.912902 0.912902
0.913060 0.913060 0.913060
0.913217 0.913217 0.913217
0.913374 0.913374 0.913374
0.913530 0.913530 0.913530
0.913686 0.913686 0.913686
0.913842 0.913842 0.913842
0.913997 0.913997 0.913997
0.914152 0.914152 0.914152
0.914306 0.914306 0.914306
0.914460 0.914460 0.914460
0.914614 0.914614 0.914614
0.914767 0.914767 0.914767
0.914920 0.914920 0.914920
0.915073 0.915073 0.915073
0.915225 0.915225 0.915225
0.915377 0.915377 0.915377
0.915528 0.915528 0.915528
0.915679 0.915679 0.915679
0.915829 0.915829 0.915829
0.915980 0.915980 0.915980
0.916129 0.916129 0.916129
0.916279 0.916279 0.916279
0.916428 0.916428 0.916428
0.916576 0.916576 0.916576
0.916724 0.916724 0.916724
0.916872 0.916872 0.916872
0.917020 0.917020 0.917020
0.917167 0.917167 0.917167
0.917313 0.917313 0.917313
0.917460 0.917460 0.917460
0.917606 0.917606 0.917606
0.917751 0.917751 0.917751
0.917897 0.917897 0.917897
0.918041 0.918041 0.918041
0.918186 0.918186 0.918186
0.918330 0.918330 0.918330
0.918474 0.918474 0.918474
0.918617 0.918617 0.918617
0.918760 0.918760 0.918760
0.918903 0.918903 0.918903
0.919046 0.919046 0.919046
0.919189 0.919189 0.919189
0.919330 0.919330 0.919330
0.919472 0.919472 0.919472
0.919613 0.919613 0.919613
0.919753 0.919753 0.919753
0.919893 0.919893 0.919893
0.920033 0.920033 0.920033
0.920173 0.920173 0.920173
0.920312 0.920312 0.920312
0.920451 0.920451 0.920451
0.920590 0.920590 0.920590
0.920728 0.920728 0.920728
0.920866 0.920866 0.920866
0.921003 0.921003 0.921003
0.921141 0.921141 0.921141
0.921277 0.921277 0.921277
0.921414 0.921414 0.921414
0.921550 0.921550 0.921550
0.921686 0.921686 0.921686
0.921822 0.921822 0.921822
0.921957 0.921957 0.921957
0.922092 0.922092 0.922092
0.922226 0.922226 0.922226
0.922360 0.922360 0.922360
0.922494 0.922494 0.922494
0.922628 0.922628 0.922628
0.922761 0.922761 0.922761
0.922894 0.922894 0.922894
0.923027 0.923027 0.923027
0.923159 0.923159 0.923159
0.923291 0.923291 0.923291
0.923423 0.923423 0.923423
0.923555 0.923555 0.923555
0.923686 0.923686 0.923686
0.923817 0.923817 0.923817
0.923947 0.923947 0.923947
0.924077 0.924077 0.924077
0.924207 0.924207 0.924207
0.924337 0.924337 0.924337
0.924466 0.924466 0.924466
0.924595 0.924595 0.924595
0.924723 0.924723 0.924723
0.924851 0.924851 0.924851
0.924979 0.924979 0.924979
0.925107 0.925107 0.925107
0.925234 0.925234 0.925234
0.925361 0.925361 0.925361
0.925488 0.925488 0.925488
0.925614 0.925614 0.925614
0.925741 0.925741 0.925741
0.925866 0.925866 0.925866
0.925992 0.925992 0.925992
0.926117 0.926117 0.926117
0.926242 0.926242 0.926242
0.926367 0.926367 0.926367
0.926491 0.926491 0.926491
0.926615 0.926615 0.926615
0.926739 0.926739 0.926739
0.926862 0.926862 0.926862
0.926986 0.926986 0.926986
0.927108 0.927108 0.927108
0.927231 0.927231 0.927231
0.927353 0.927353 0.927353
0.927475 0.927475 0.927475
0.927598 0.927598 0.927598
0.927719 0.927719 0.927719
0.927841 0.927841 0.927841
0.927961 0.927961 0.927961
0.928082 0.928082 0.928082
0.928202 0.928202 0.928202
0.928322 0.928322 0.928322
0.928442 0.928442 0.928442
0.928562 0.928562 0.928562
0.928681 0.928681 0.928681
0.928800 0.928800 0.928800
0.928919 0.928919 0.928919
0.929038 0.929038 0.929038
0.929156 0.929156 0.929156
0.929274 0.929274 0.929274
0.929391 0.929391 0.929391
0.929509 0.929509 0.929509
0.929626 0.929626 0.929626
0.929742 0.929742 0.929742
0.929859 0.929859 0.929859
0.929975 0.929975 0.929975
0.930091 0.930091 0.930091
0.930207 0.930207 0.930207
0.930322 0.930322 0.930322
0.930438 0.930438 0.930438
0.930553 0.930553 0.930553
0.930667 0.930667 0.930667
0.930782 0.930782 0.930782
0.930896 0.930896 0.930896
0.931010 0.931010 0.931010
0.931123 0.931123 0.931123
0.931237 0.931237 0.931237
0.931350 0.931350 0.931350
0.931463 0.931463 0.931463
0.931576 0.931576 0.931576
0.931688 0.931688 0.931688
0.931800 0.931800 0.931800
