lut/AlexaV3_EI0500_WYSIWYG_EE_nuke1d.cube
# Alexa conversion LUT, lin2video. Full in/full out.
# created by alexalutconv (2.02)

LUT_1D_SIZE 4096
0.000000 0.000000 0.000000
0.000000 0.000000 0.000000
0.000000 0.000000 0.000000
0.000000 0.000000 0.000000
0.000000 0.000000 0.000000
0.000000 0.000000 0.000000
0.000000 0.000000 0.000000
0.000000 0.000000 0.000000
0.000000 0.000000 0.000000
0.000000 0.000000 0.000000
0.000000 0.000000 0.000000
0.000000 0.000000 0.000000
0.000000 0.000000 0.000000
0.000000 0.000000 0.000000
0.000000 0.000000 0.000000
0.000797 0.000797 0.000797
0.015719 0.015719 0.015719
0.032939 0.032939 0.032939
0.054913 0.054913 0.054913
0.077419 0.077419 0.077419
0.096972 0.096972 0.096972
0.114521 0.114521 0.114521
0.130590 0.130590 0.130590
0.145501 0.145501 0.145501
0.159471 0.159471 0.159471
0.172919 0.172919 0.172919
0.186322 0.186322 0.186322
0.199520 0.199520 0.199520
0.212411 0.212411 0.212411
0.224937 0.224937 0.224937
0.237070 0.237070 0.237070
0.248798 0.248798 0.248798
0.260119 0.260119 0.260119
0.271038 0.271038 0.271038
0.281568 0.281568 0.281568
0.291718 0.291718 0.291718
0.301505 0.301505 0.301505
0.310943 0.310943 0.310943
0.320045 0.320045 0.320045
0.328827 0.328827 0.328827
0.337303 0.337303 0.337303
0.345487 0.345487 0.345487
0.353393 0.353393 0.353393
0.361031 0.361031 0.361031
0.368415 0.368415 0.368415
0.375556 0.375556 0.375556
0.382465 0.382465 0.382465
0.389152 0.389152 0.389152
0.395627 0.395627 0.395627
0.401898 0.401898 0.401898
0.407986 0.407986 0.407986
0.413906 0.413906 0.413906
0.419665 0.419665 0.419665
0.425273 0.425273 0.425273
0.430736 0.430736 0.430736
0.436062 0.436062 0.436062
0.441258 0.441258 0.441258
0.446329 0.446329 0.446329
0.451280 0.451280 0.451280
0.456119 0.456119 0.456119
0.460848 0.460848 0.460848
0.465474 0.465474 0.465474
0.470000 0.470000 0.470000
0.474429 0.474429 0.474429
0.478768 0.478768 0.478768
0.483019 0.483019 0.483019
0.487184 0.487184 0.487184
0.491267 0.491267 0.491267
0.495273 0.495273 0.495273
0.499203 0.499203 0.499203
0.503058 0.503058 0.503058
0.506845 0.506845 0.506845
0.510563 0.510563 0.510563
0.514215 0.514215 0.514215
0.517804 0.517804 0.517804
0.521331 0.521331 0.521331
0.524799 0.524799 0.524799
0.528209 0.528209 0.528209
0.531564 0.531564 0.531564
0.534865 0.534865 0.534865
0.538113 0.538113 0.538113
0.541311 0.541311 0.541311
0.544458 0.544458 0.544458
0.547559 0.547559 0.547559
0.550613 0.550613 0.550613
0.553621 0.553621 0.553621
0.556586 0.556586 0.556586
0.559508 0.559508 0.559508
0.562389 0.562389 0.562389
0.565228 0.565228 0.565228
0.568029 0.568029 0.568029
0.570791 0.570791 0.570791
0.573516 0.573516 0.573516
0.576205 0.576205 0.576205
0.578858 0.578858 0.578858
0.581476 0.581476 0.581476
0.584060 0.584060 0.584060
0.586612 0.586612 0.586612
0.589132 0.589132 0.589132
0.591620 0.591620 0.591620
0.594077 0.594077 0.594077
0.596505 0.596505 0.596505
0.598902 0.598902 0.598902
0.601272 0.601272 0.601272
0.603614 0.603614 0.603614
0.605928 0.605928 0.605928
0.608216 0.608216 0.608216
0.610477 0.610477 0.610477
0.612713 0.612713 0.612713
0.614923 0.614923 0.614923
0.617109 0.617109 0.617109
0.619272 0.619272 0.619272
0.621410 0.621410 0.621410
0.623526 0.623526 0.623526
0.625619 0.625619 0.625619
0.627690 0.627690 0.627690
0.629739 0.629739 0.629739
0.631767 0.631767 0.631767
0.633774 0.633774 0.633774
0.635760 0.635760 0.635760
0.637727 0.637727 0.637727
0.639673 0.639673 0.639673
0.641601 0.641601 0.641601
0.643510 0.643510 0.643510
0.645400 0.645400 0.645400
0.647271 0.647271 0.647271
0.649125 0.649125 0.649125
0.650961 0.650961 0.650961
0.652780 0.652780 0.652780
0.654581 0.654581 0.654581
0.656366 0.656366 0.656366
0.658135 0.658135 0.658135
0.659888 0.659888 0.659888
0.661624 0.661624 0.661624
0.663345 0.663345 0.663345
0.665051 0.665051 0.665051
0.666742 0.666742 0.666742
0.668418 0.668418 0.668418
0.670079 0.670079 0.670079
0.671725 0.671725 0.671725
0.673358 0.673358 0.673358
0.674977 0.674977 0.674977
0.676582 0.676582 0.676582
0.678174 0.678174 0.678174
0.679752 0.679752 0.679752
0.681318 0.681318 0.681318
0.682870 0.682870 0.682870
0.684410 0.684410 0.684410
0.685938 0.685938 0.685938
0.687453 0.687453 0.687453
0.688956 0.688956 0.688956
0.690447 0.690447 0.690447
0.691927 0.691927 0.691927
0.693394 0.693394 0.693394
0.694851 0.694851 0.694851
0.696297 0.696297 0.696297
0.697730 0.697730 0.697730
0.699154 0.699154 0.699154
0.700566 0.700566 0.700566
0.701968 0.701968 0.701968
0.703360 0.703360 0.703360
0.704741 0.704741 0.704741
0.706112 0.706112 0.706112
0.707473 0.707473 0.707473
0.708824 0.708824 0.708824
0.710165 0.710165 0.710165
0.711497 0.711497 0.711497
0.712819 0.712819 0.712819
0.714132 0.714132 0.714132
0.715435 0.715435 0.715435
0.716730 0.716730 0.716730
0.718014 0.718014 0.718014
0.719291 0.719291 0.719291
0.720559 0.720559 0.720559
0.721818 0.721818 0.721818
0.723068 0.723068 0.723068
0.724311 0.724311 0.724311
0.725544 0.725544 0.725544
0.726770 0.726770 0.726770
0.727986 0.727986 0.727986
0.729196 0.729196 0.729196
0.730397 0.730397 0.730397
0.731591 0.731591 0.731591
0.732776 0.732776 0.732776
0.733954 0.733954 0.733954
0.735125 0.735125 0.735125
0.736287 0.736287 0.736287
0.737443 0.737443 0.737443
0.738591 0.738591 0.738591
0.739732 0.739732 0.739732
0.740866 0.740866 0.740866
0.741992 0.741992 0.741992
0.743113 0.743113 0.743113
0.744225 0.744225 0.744225
0.745331 0.745331 0.745331
0.746431 0.746431 0.746431
0.747523 0.747523 0.747523
0.748610 0.748610 0.748610
0.749689 0.749689 0.749689
0.750762 0.750762 0.750762
0.751829 0.751829 0.751829
0.752890 0.752890 0.752890
0.753944 0.753944 0.753944
0.754992 0.754992 0.754992
0.756034 0.756034 0.756034
0.757070 0.757070 0.757070
0.758100 0.758100 0.758100
0.759124 0.759124 0.759124
0.760142 0.760142 0.760142
0.761154 0.761154 0.761154
0.762161 0.762161 0.762161
0.763162 0.763162 0.763162
0.764157 0.764157 0.764157
0.765148 0.765148 0.765148
0.766132 0.766132 0.766132
0.767111 0.767111 0.767111
0.768084 0.768084 0.768084
0.769053 0.769053 0.769053
0.770015 0.770015 0.770015
0.770973 0.770973 0.770973
0.771926 0.771926 0.771926
0.772873 0.772873 0.772873
0.773815 0.773815 0.773815
0.774753 0.774753 0.774753
0.775686 0.775686 0.775686
0.776613 0.776613 0.776613
0.777535 0.777535 0.777535
0.778454 0.778454 0.778454
0.779367 0.779367 0.779367
0.780275 0.780275 0.780275
0.781178 0.781178 0.781178
0.782078 0.782078 0.782078
0.782972 0.782972 0.782972
0.783861 0.783861 0.783861
0.784746 0.784746 0.784746
0.785628 0.785628 0.785628
0.786504 0.786504 0.786504
0.787376 0.787376 0.787376
0.788243 0.788243 0.788243
0.789106 0.789106 0.789106
0.789966 0.789966 0.789966
0.790821 0.790821 0.790821
0.791671 0.791671 0.791671
0.792517 0.792517 0.792517
0.793360 0.793360 0.793360
0.794198 0.794198 0.794198
0.795032 0.795032 0.795032
0.795862 0.795862 0.795862
0.796688 0.796688 0.796688
0.797511 0.797511 0.797511
0.798330 0.798330 0.798330
0.799144 0.799144 0.799144
0.799954 0.799954 0.799954
0.800761 0.800761 0.800761
0.801565 0.801565 0.801565
0.802364 0.802364 0.802364
0.803159 0.803159 0.803159
0.803951 0.803951 0.803951
0.804739 0.804739 0.804739
0.805525 0.805525 0.805525
0.806304 0.806304 0.806304
0.807079 0.807079 0.807079
0.807848 0.807848 0.807848
0.808612 0.808612 0.808612
0.809371 0.809371 0.809371
0.810126 0.810126 0.810126
0.810875 0.810875 0.810875
0.811618 0.811618 0.811618
0.812357 0.812357 0.812357
0.813091 0.813091 0.813091
0.813821 0.813821 0.813821
0.814546 0.814546 0.814546
0.815265 0.815265 0.815265
0.815980 0.815980 0.815980
0.816691 0.816691 0.816691
0.817396 0.817396 0.817396
0.818098 0.818098 0.818098
0.818795 0.818795 0.818795
0.819487 0.819487 0.819487
0.820175 0.820175 0.820175
0.820858 0.820858 0.820858
0.821537 0.821537 0.821537
0.822212 0.822212 0.822212
0.822883 0.822883 0.822883
0.823549 0.823549 0.823549
0.824212 0.824212 0.824212
0.824870 0.824870 0.824870
0.825524 0.825524 0.825524
0.826173 0.826173 0.826173
0.826819 0.826819 0.826819
0.827461 0.827461 0.827461
0.828099 0.828099 0.828099
0.828733 0.828733 0.828733
0.829364 0.829364 0.829364
0.829990 0.829990 0.829990
0.830612 0.830612 0.830612
0.831231 0.831231 0.831231
0.831846 0.831846 0.831846
0.832457 0.832457 0.832457
0.833065 0.833065 0.833065
0.833669 0.833669 0.833669
0.834270 0.834270 0.834270
0.834866 0.834866 0.834866
0.835460 0.835460 0.835460
0.836049 0.836049 0.836049
0.836635 0.836635 0.836635
0.837218 0.837218 0.837218
0.837798 0.837798 0.837798
0.838373 0.838373 0.838373
0.838946 0.838946 0.838946
0.839516 0.839516 0.839516
0.840082 0.840082 0.840082
0.840645 0.840645 0.840645
0.841204 0.841204 0.841204
0.841761 0.841761 0.841761
0.842314 0.842314 0.842314
0.842864 0.842864 0.842864
0.843410 0.843410 0.843410
0.843954 0.843954 0.843954
0.844495 0.844495 0.844495
0.845033 0.845033 0.845033
0.845567 0.845567 0.845567
0.846099 0.846099 0.846099
0.846627 0.846627 0.846627
0.847153 0.847153 0.847153
0.847676 0.847676 0.847676
0.848195 0.848195 0.848195
0.848712 0.848712 0.848712
0.849226 0.849226 0.849226
0.849737 0.849737 0.849737
0.850246 0.850246 0.850246
0.850751 0.850751 0.850751
0.851254 0.851254 0.851254
0.851754 0.851754 0.851754
0.852252 0.852252 0.852252
0.852747 0.852747 0.852747
0.853239 0.853239 0.853239
0.853729 0.853729 0.853729
0.854215 0.854215 0.854215
0.854699 0.854699 0.854699
0.855181 0.855181 0.855181
0.855660 0.855660 0.855660
0.856136 0.856136 0.856136
0.856610 0.856610 0.856610
0.857081 0.857081 0.857081
0.857550 0.857550 0.857550
0.858016 0.858016 0.858016
0.858480 0.858480 0.858480
0.858942 0.858942 0.858942
0.859401 0.859401 0.859401
0.859858 0.859858 0.859858
0.860312 0.860312 0.860312
0.860765 0.860765 0.860765
0.861214 0.861214 0.861214
0.861662 0.861662 0.861662
0.862106 0.862106 0.862106
0.862549 0.862549 0.862549
0.862990 0.862990 0.862990
0.863428 0.863428 0.863428
0.863864 0.863864 0.863864
0.864298 0.864298 0.864298
0.864729 0.864729 0.864729
0.865158 0.865158 0.865158
0.865586 0.865586 0.865586
0.866011 0.866011 0.866011
0.866434 0.866434 0.866434
0.866854 0.866854 0.866854
0.867273 0.867273 0.867273
0.867689 0.867689 0.867689
0.868104 0.868104 0.868104
0.868517 0.868517 0.868517
0.868927 0.868927 0.868927
0.869335 0.869335 0.869335
0.869742 0.869742 0.869742
0.870147 0.870147 0.870147
0.870549 0.870549 0.870549
0.870949 0.870949 0.870949
0.871348 0.871348 0.871348
0.871744 0.871744 0.871744
0.872139 0.872139 0.872139
0.872531 0.872531 0.872531
0.872922 0.872922 0.872922
0.873311 0.873311 0.873311
0.873698 0.873698 0.873698
0.874083 0.874083 0.874083
0.874466 0.874466 0.874466
0.874848 0.874848 0.874848
0.875227 0.875227 0.875227
0.875605 0.875605 0.875605
0.875981 0.875981 0.875981
0.876356 0.876356 0.876356
0.876728 0.876728 0.876728
0.877099 0.877099 0.877099
0.877468 0.877468 0.877468
0.877835 0.877835 0.877835
0.878200 0.878200 0.878200
0.878565 0.878565 0.878565
0.878927 0.878927 0.878927
0.879287 0.879287 0.879287
0.879646 0.879646 0.879646
0.880002 0.880002 0.880002
0.880358 0.880358 0.880358
0.880712 0.880712 0.880712
0.881064 0.881064 0.881064
0.881415 0.881415 0.881415
0.881764 0.881764 0.881764
0.882111 0.882111 0.882111
0.882456 0.882456 0.882456
0.882800 0.882800 0.882800
0.883143 0.883143 0.883143
0.883484 0.883484 0.883484
0.883824 0.883824 0.883824
0.884162 0.884162 0.884162
0.884498 0.884498 0.884498
0.884833 0.884833 0.884833
0.885166 0.885166 0.885166
0.885498 0.885498 0.885498
0.885829 0.885829 0.885829
0.886158 0.886158 0.886158
0.886485 0.886485 0.886485
0.886811 0.886811 0.886811
0.887136 0.887136 0.887136
0.887459 0.887459 0.887459
0.887780 0.887780 0.887780
0.888100 0.888100 0.888100
0.888419 0.888419 0.888419
0.888737 0.888737 0.888737
0.889053 0.889053 0.889053
0.889367 0.889367 0.889367
0.889681 0.889681 0.889681
0.889993 0.889993 0.889993
0.890303 0.890303 0.890303
0.890613 0.890613 0.890613
0.890920 0.890920 0.890920
0.891227 0.891227 0.891227
0.891532 0.891532 0.891532
0.891836 0.891836 0.891836
0.892138 0.892138 0.892138
0.892440 0.892440 0.892440
0.892740 0.892740 0.892740
0.893039 0.893039 0.893039
0.893336 0.893336 0.893336
0.893632 0.893632 0.893632
0.893927 0.893927 0.893927
0.894221 0.894221 0.894221
0.894513 0.894513 0.894513
0.894804 0.894804 0.894804
0.895094 0.895094 0.895094
0.895384 0.895384 0.895384
0.895671 0.895671 0.895671
0.895957 0.895957 0.895957
0.896242 0.896242 0.896242
0.896526 0.896526 0.896526
0.896809 0.896809 0.896809
0.897090 0.897090 0.897090
0.897371 0.897371 0.897371
0.897650 0.897650 0.897650
0.897928 0.897928 0.897928
0.898205 0.898205 0.898205
0.898480 0.898480 0.898480
0.898756 0.898756 0.898756
0.899029 0.899029 0.899029
0.899302 0.899302 0.899302
0.899573 0.899573 0.899573
0.899843 0.899843 0.899843
0.900112 0.900112 0.900112
0.900380 0.900380 0.900380
0.900647 0.900647 0.900647
0.900912 0.900912 0.900912
0.901177 0.901177 0.901177
0.901440 0.901440 0.901440
0.901703 0.901703 0.901703
0.901965 0.901965 0.901965
0.902226 0.902226 0.902226
0.902485 0.902485 0.902485
0.902743 0.902743 0.902743
0.903001 0.903001 0.903001
0.903257 0.903257 0.903257
0.903512 0.903512 0.903512
0.903766 0.903766 0.903766
0.904020 0.904020 0.904020
0.904272 0.904272 0.904272
0.904523 0.904523 0.904523
0.904773 0.904773 0.904773
0.905022 0.905022 0.905022
0.905271 0.905271 0.905271
0.905518 0.905518 0.905518
0.905765 0.905765 0.905765
0.906010 0.906010 0.906010
0.906255 0.906255 0.906255
0.906498 0.906498 0.906498
0.906741 0.906741 0.906741
0.906982 0.906982 0.906982
0.907223 0.907223 0.907223
0.907462 0.907462 0.907462
0.907701 0.907701 0.907701
0.907939 0.907939 0.907939
0.908176 0.908176 0.908176
0.908412 0.908412 0.908412
0.908647 0.908647 0.908647
0.908881 0.908881 0.908881
0.909114 0.909114 0.909114
0.909347 0.909347 0.909347
0.909579 0.909579 0.909579
0.909810 0.909810 0.909810
0.910039 0.910039 0.910039
0.910268 0.910268 0.910268
0.910496 0.910496 0.910496
0.910723 0.910723 0.910723
0.910949 0.910949 0.910949
0.911175 0.911175 0.911175
0.911399 0.911399 0.911399
0.911623 0.911623 0.911623
0.911846 0.911846 0.911846
0.912068 0.912068 0.912068
0.912289 0.912289 0.912289
0.912509 0.912509 0.912509
0.912729 0.912729 0.912729
0.912948 0.912948 0.912948
0.913166 0.913166 0.913166
0.913383 0.913383 0.913383
0.913599 0.913599 0.913599
0.913815 0.913815 0.913815
0.914030 0.914030 0.914030
0.914244 0.914244 0.914244
0.914457 0.914457 0.914457
0.914669 0.914669 0.914669
0.914881 0.914881 0.914881
0.915092 0.915092 0.915092
0.915302 0.915302 0.915302
0.915511 0.915511 0.915511
0.915719 0.915719 0.915719
0.915927 0.915927 0.915927
0.916134 0.916134 0.916134
0.916340 0.916340 0.916340
0.916546 0.916546 0.916546
0.916750 0.916750 0.916750
0.916954 0.916954 0.916954
0.917158 0.917158 0.917158
0.917360 0.917360 0.917360
0.917562 0.917562 0.917562
0.917763 0.917763 0.917763
0.917964 0.917964 0.917964
0.918163 0.918163 0.918163
0.918363 0.918363 0.918363
0.918561 0.918561 0.918561
0.918758 0.918758 0.918758
0.918955 0.918955 0.918955
0.919151 0.919151 0.919151
0.919346 0.919346 0.919346
0.919541 0.919541 0.919541
0.919735 0.919735 0.919735
0.919928 0.919928 0.919928
0.920121 0.920121 0.920121
0.920313 0.920313 0.920313
0.920504 0.920504 0.920504
0.920695 0.920695 0.920695
0.920884 0.920884 0.920884
0.921074 0.921074 0.921074
0.921262 0.921262 0.921262
0.921450 0.921450 0.921450
0.921637 0.921637 0.921637
0.921824 0.921824 0.921824
0.922010 0.922010 0.922010
0.922195 0.922195 0.922195
0.922380 0.922380 0.922380
0.922564 0.922564 0.922564
0.922748 0.922748 0.922748
0.922930 0.922930 0.922930
0.923113 0.923113 0.923113
0.923294 0.923294 0.923294
0.923476 0.923476 0.923476
0.923656 0.923656 0.923656
0.923835 0.923835 0.923835
0.924014 0.924014 0.924014
0.924193 0.924193 0.924193
0.924371 0.924371 0.924371
0.924548 0.924548 0.924548
0.924724 0.924724 0.924724
0.924900 0.924900 0.924900
0.925076 0.925076 0.925076
0.925251 0.925251 0.925251
0.925425 0.925425 0.925425
0.925598 0.925598 0.925598
0.925771 0.925771 0.925771
0.925944 0.925944 0.925944
0.926116 0.926116 0.926116
0.926287 0.926287 0.926287
0.926458 0.926458 0.926458
0.926628 0.926628 0.926628
0.926797 0.926797 0.926797
0.926966 0.926966 0.926966
0.927135 0.927135 0.927135
0.927303 0.927303 0.927303
0.927470 0.927470 0.927470
0.927637 0.927637 0.927637
0.927803 0.927803 0.927803
0.927969 0.927969 0.927969
0.928134 0.928134 0.928134
0.928298 0.928298 0.928298
0.928462 0.928462 0.928462
0.928626 0.928626 0.928626
0.928789 0.928789 0.928789
0.928952 0.928952 0.928952
0.929114 0.929114 0.929114
0.929275 0.929275 0.929275
0.929436 0.929436 0.929436
0.929596 0.929596 0.929596
0.929756 0.929756 0.929756
0.929915 0.929915 0.929915
0.930074 0.930074 0.930074
0.930232 0.930232 0.930232
0.930389 0.930389 0.930389
0.930547 0.930547 0.930547
0.930703 0.930703 0.930703
0.930859 0.930859 0.930859
0.931015 0.931015 0.931015
0.931170 0.931170 0.931170
0.931325 0.931325 0.931325
0.931479 0.931479 0.931479
0.931632 0.931632 0.931632
0.931786 0.931786 0.931786
0.931938 0.931938 0.931938
0.932090 0.932090 0.932090
0.932242 0.932242 0.932242
0.932393 0.932393 0.932393
0.932544 0.932544 0.932544
0.932694 0.932694 0.932694
0.932844 0.932844 0.932844
0.932993 0.932993 0.932993
0.933142 0.933142 0.933142
0.933290 0.933290 0.933290
0.933438 0.933438 0.933438
0.933586 0.933586 0.933586
0.933733 0.933733 0.933733
0.933879 0.933879 0.933879
0.934025 0.934025 0.934025
0.934170 0.934170 0.934170
0.934315 0.934315 0.934315
0.934460 0.934460 0.934460
0.934605 0.934605 0.934605
0.934749 0.934749 0.934749
0.934892 0.934892 0.934892
0.935035 0.935035 0.935035
0.935177 0.935177 0.935177
0.935319 0.935319 0.935319
0.935460 0.935460 0.935460
0.935601 0.935601 0.935601
0.935742 0.935742 0.935742
0.935882 0.935882 0.935882
0.936022 0.936022 0.936022
0.936161 0.936161 0.936161
0.936300 0.936300 0.936300
0.936438 0.936438 0.936438
0.936576 0.936576 0.936576
0.936714 0.936714 0.936714
0.936851 0.936851 0.936851
0.936988 0.936988 0.936988
0.937124 0.937124 0.937124
0.937260 0.937260 0.937260
0.937396 0.937396 0.937396
0.937531 0.937531 0.937531
0.937665 0.937665 0.937665
0.937800 0.937800 0.937800
0.937934 0.937934 0.937934
0.938067 0.938067 0.938067
0.938200 0.938200 0.938200
0.938333 0.938333 0.938333
0.938465 0.938465 0.938465
0.938597 0.938597 0.938597
0.938728 0.938728 0.938728
0.938859 0.938859 0.938859
0.938990 0.938990 0.938990
0.939120 0.939120 0.939120
0.939250 0.939250 0.939250
0.939379 0.939379 0.939379
0.939508 0.939508 0.939508
0.939637 0.939637 0.939637
0.939765 0.939765 0.939765
0.939893 0.939893 0.939893
0.940020 0.940020 0.940020
0.940148 0.940148 0.940148
0.940274 0.940274 0.940274
0.940401 0.940401 0.940401
0.940527 0.940527 0.940527
0.940652 0.940652 0.940652
0.940777 0.940777 0.940777
0.940902 0.940902 0.940902
0.941028 0.941028 0.941028
0.941152 0.941152 0.941152
0.941275 0.941275 0.941275
0.941399 0.941399 0.941399
0.941522 0.941522 0.941522
0.941645 0.941645 0.941645
0.941767 0.941767 0.941767
0.941889 0.941889 0.941889
0.942010 0.942010 0.942010
0.942132 0.942132 0.942132
0.942252 0.942252 0.942252
0.942373 0.942373 0.942373
0.942493 0.942493 0.942493
0.942613 0.942613 0.942613
0.942732 0.942732 0.942732
0.942851 0.942851 0.942851
0.942970 0.942970 0.942970
0.943089 0.943089 0.943089
0.943207 0.943207 0.943207
0.943324 0.943324 0.943324
0.943442 0.943442 0.943442
0.943559 0.943559 0.943559
0.943675 0.943675 0.943675
0.943792 0.943792 0.943792
0.943908 0.943908 0.943908
0.944024 0.944024 0.944024
0.944140 0.944140 0.944140
0.944255 0.944255 0.944255
0.944369 0.944369 0.944369
0.944484 0.944484 0.944484
0.944598 0.944598 0.944598
0.944712 0.944712 0.944712
0.944825 0.944825 0.944825
0.944938 0.944938 0.944938
0.945051 0.945051 0.945051
0.945163 0.945163 0.945163
0.945275 0.945275 0.945275
0.945387 0.945387 0.945387
0.945499 0.945499 0.945499
0.945610 0.945610 0.945610
0.945721 0.945721 0.945721
0.945831 0.945831 0.945831
0.945941 0.945941 0.945941
0.946051 0.946051 0.946051
0.946161 0.946161 0.946161
0.946270 0.946270 0.946270
0.946379 0.946379 0.946379
0.946488 0.946488 0.946488
0.946596 0.946596 0.946596
0.946704 0.946704 0.946704
0.946812 0.946812 0.946812
0.946919 0.946919 0.946919
0.947027 0.947027 0.947027
0.947133 0.947133 0.947133
0.947240 0.947240 0.947240
0.947346 0.947346 0.947346
0.947452 0.947452 0.947452
0.947558 0.947558 0.947558
0.947663 0.947663 0.947663
0.947769 0.947769 0.947769
0.947873 0.947873 0.947873
0.947978 0.947978 0.947978
0.948083 0.948083 0.948083
0.948187 0.948187 0.948187
0.948290 0.948290 0.948290
0.948394 0.948394 0.948394
0.948497 0.948497 0.948497
0.948599 0.948599 0.948599
0.948702 0.948702 0.948702
0.948804 0.948804 0.948804
0.948906 0.948906 0.948906
0.949008 0.949008 0.949008
0.949109 0.949109 0.949109
0.949210 0.949210 0.949210
0.949311 0.949311 0.949311
0.949411 0.949411 0.949411
0.949512 0.949512 0.949512
0.949612 0.949612 0.949612
0.949711 0.949711 0.949711
0.949811 0.949811 0.949811
0.949910 0.949910 0.949910
0.950009 0.950009 0.950009
0.950107 0.950107 0.950107
0.950206 0.950206 0.950206
0.950304 0.950304 0.950304
0.950402 0.950402 0.950402
0.950499 0.950499 0.950499
0.950597 0.950597 0.950597
0.950694 0.950694 0.950694
0.950790 0.950790 0.950790
0.950887 0.950887 0.950887
0.950983 0.950983 0.950983
0.951079 0.951079 0.951079
0.951175 0.951175 0.951175
0.951270 0.951270 0.951270
0.951366 0.951366 0.951366
0.951461 0.951461 0.951461
0.951555 0.951555 0.951555
0.951650 0.951650 0.951650
0.951744 0.951744 0.951744
0.951838 0.951838 0.951838
0.951932 0.951932 0.951932
0.952026 0.952026 0.952026
0.952119 0.952119 0.952119
0.952212 0.952212 0.952212
0.952305 0.952305 0.952305
0.952397 0.952397 0.952397
0.952490 0.952490 0.952490
0.952582 0.952582 0.952582
0.952673 0.952673 0.952673
0.952765 0.952765 0.952765
0.952856 0.952856 0.952856
0.952947 0.952947 0.952947
0.953038 0.953038 0.953038
0.953128 0.953128 0.953128
0.953219 0.953219 0.953219
0.953309 0.953309 0.953309
0.953399 0.953399 0.953399
0.953488 0.953488 0.953488
0.953577 0.953577 0.953577
0.953667 0.953667 0.953667
0.953755 0.953755 0.953755
0.953844 0.953844 0.953844
0.953933 0.953933 0.953933
0.954021 0.954021 0.954021
0.954109 0.954109 0.954109
0.954196 0.954196 0.954196
0.954284 0.954284 0.954284
0.954371 0.954371 0.954371
0.954458 0.954458 0.954458
0.954545 0.954545 0.954545
0.954632 0.954632 0.954632
0.954718 0.954718 0.954718
0.954804 0.954804 0.954804
0.954890 0.954890 0.954890
0.954976 0.954976 0.954976
0.955061 0.955061 0.955061
0.955146 0.955146 0.955146
0.955232 0.955232 0.955232
0.955316 0.955316 0.955316
0.955401 0.955401 0.955401
0.955485 0.955485 0.955485
0.955570 0.955570 0.955570
0.955653 0.955653 0.955653
0.955737 0.955737 0.955737
0.955821 0.955821 0.955821
0.955904 0.955904 0.955904
0.955987 0.955987 0.955987
0.956070 0.956070 0.956070
0.956153 0.956153 0.956153
0.956235 0.956235 0.956235
0.956318 0.956318 0.956318
0.956400 0.956400 0.956400
0.956481 0.956481 0.956481
0.956563 0.956563 0.956563
0.956644 0.956644 0.956644
0.956726 0.956726 0.956726
0.956808 0.956808 0.956808
0.956888 0.956888 0.956888
0.956969 0.956969 0.956969
0.957049 0.957049 0.957049
0.957130 0.957130 0.957130
0.957210 0.957210 0.957210
0.957289 0.957289 0.957289
0.957369 0.957369 0.957369
0.957448 0.957448 0.957448
0.957527 0.957527 0.957527
0.957606 0.957606 0.957606
0.957685 0.957685 0.957685
0.957764 0.957764 0.957764
0.957842 0.957842 0.957842
0.957920 0.957920 0.957920
0.957998 0.957998 0.957998
0.958076 0.958076 0.958076
0.958154 0.958154 0.958154
0.958231 0.958231 0.958231
0.958309 0.958309 0.958309
0.958386 0.958386 0.958386
0.958463 0.958463 0.958463
0.958539 0.958539 0.958539
0.958616 0.958616 0.958616
0.958692 0.958692 0.958692
0.958768 0.958768 0.958768
0.958844 0.958844 0.958844
0.958920 0.958920 0.958920
0.958995 0.958995 0.958995
0.959071 0.959071 0.959071
0.959146 0.959146 0.959146
0.959221 0.959221 0.959221
0.959295 0.959295 0.959295
0.959370 0.959370 0.959370
0.959444 0.959444 0.959444
0.959519 0.959519 0.959519
0.959593 0.959593 0.959593
0.959667 0.959667 0.959667
0.959740 0.959740 0.959740
0.959814 0.959814 0.959814
