lut/AlexaV3_EI0640_WYSIWYG_EE_nuke1d.cube
# Alexa conversion LUT, lin2video. Full in/full out.
# created by alexalutconv (2.02)

LUT_1D_SIZE 4096
0.000000 0.000000 0.000000
0.000000 0.000000 0.000000
0.000000 0.000000 0.000000
0.000000 0.000000 0.000000
0.000000 0.000000 0.000000
0.000000 0.000000 0.000000
0.000000 0.000000 0.000000
0.000000 0.000000 0.000000
0.000000 0.000000 0.000000
0.000000 0.000000 0.000000
0.000000 0.000000 0.000000
0.000000 0.000000 0.000000
0.000000 0.000000 0.000000
0.000000 0.000000 0.000000
0.000000 0.000000 0.000000
0.000000 0.000000 0.000000
0.015991 0.015991 0.015991
0.038290 0.038290 0.038290
0.067929 0.067929 0.067929
0.094293 0.094293 0.094293
0.117009 0.117009 0.117009
0.137283 0.137283 0.137283
0.155762 0.155762 0.155762
0.173122 0.173122 0.173122
0.190306 0.190306 0.190306
0.207072 0.207072 0.207072
0.223253 0.223253 0.223253
0.238774 0.238774 0.238774
0.253614 0.253614 0.253614
0.267779 0.267779 0.267779
0.281288 0.281288 0.281288
0.294170 0.294170 0.294170
0.306457 0.306457 0.306457
0.318179 0.318179 0.318179
0.329370 0.329370 0.329370
0.340059 0.340059 0.340059
0.350277 0.350277 0.350277
0.360051 0.360051 0.360051
0.369408 0.369408 0.369408
0.378371 0.378371 0.378371
0.386963 0.386963 0.386963
0.395204 0.395204 0.395204
0.403117 0.403117 0.403117
0.410738 0.410738 0.410738
0.418094 0.418094 0.418094
0.425200 0.425200 0.425200
0.432072 0.432072 0.432072
0.438726 0.438726 0.438726
0.445174 0.445174 0.445174
0.451429 0.451429 0.451429
0.457500 0.457500 0.457500
0.463400 0.463400 0.463400
0.469136 0.469136 0.469136
0.474716 0.474716 0.474716
0.480151 0.480151 0.480151
0.485445 0.485445 0.485445
0.490607 0.490607 0.490607
0.495641 0.495641 0.495641
0.500556 0.500556 0.500556
0.505354 0.505354 0.505354
0.510043 0.510043 0.510043
0.514626 0.514626 0.514626
0.519108 0.519108 0.519108
0.523494 0.523494 0.523494
0.527786 0.527786 0.527786
0.531990 0.531990 0.531990
0.536108 0.536108 0.536108
0.540143 0.540143 0.540143
0.544099 0.544099 0.544099
0.547979 0.547979 0.547979
0.551785 0.551785 0.551785
0.555521 0.555521 0.555521
0.559188 0.559188 0.559188
0.562789 0.562789 0.562789
0.566325 0.566325 0.566325
0.569800 0.569800 0.569800
0.573216 0.573216 0.573216
0.576573 0.576573 0.576573
0.579874 0.579874 0.579874
0.583122 0.583122 0.583122
0.586317 0.586317 0.586317
0.589461 0.589461 0.589461
0.592556 0.592556 0.592556
0.595602 0.595602 0.595602
0.598602 0.598602 0.598602
0.601557 0.601557 0.601557
0.604467 0.604467 0.604467
0.607336 0.607336 0.607336
0.610162 0.610162 0.610162
0.612948 0.612948 0.612948
0.615695 0.615695 0.615695
0.618403 0.618403 0.618403
0.621074 0.621074 0.621074
0.623709 0.623709 0.623709
0.626308 0.626308 0.626308
0.628873 0.628873 0.628873
0.631404 0.631404 0.631404
0.633902 0.633902 0.633902
0.636368 0.636368 0.636368
0.638803 0.638803 0.638803
0.641207 0.641207 0.641207
0.643582 0.643582 0.643582
0.645927 0.645927 0.645927
0.648244 0.648244 0.648244
0.650533 0.650533 0.650533
0.652795 0.652795 0.652795
0.655030 0.655030 0.655030
0.657239 0.657239 0.657239
0.659423 0.659423 0.659423
0.661582 0.661582 0.661582
0.663716 0.663716 0.663716
0.665827 0.665827 0.665827
0.667914 0.667914 0.667914
0.669979 0.669979 0.669979
0.672021 0.672021 0.672021
0.674040 0.674040 0.674040
0.676039 0.676039 0.676039
0.678016 0.678016 0.678016
0.679973 0.679973 0.679973
0.681909 0.681909 0.681909
0.683826 0.683826 0.683826
0.685722 0.685722 0.685722
0.687600 0.687600 0.687600
0.689459 0.689459 0.689459
0.691300 0.691300 0.691300
0.693122 0.693122 0.693122
0.694927 0.694927 0.694927
0.696714 0.696714 0.696714
0.698484 0.698484 0.698484
0.700237 0.700237 0.700237
0.701974 0.701974 0.701974
0.703695 0.703695 0.703695
0.705399 0.705399 0.705399
0.707088 0.707088 0.707088
0.708761 0.708761 0.708761
0.710419 0.710419 0.710419
0.712063 0.712063 0.712063
0.713692 0.713692 0.713692
0.715306 0.715306 0.715306
0.716906 0.716906 0.716906
0.718492 0.718492 0.718492
0.720065 0.720065 0.720065
0.721624 0.721624 0.721624
0.723169 0.723169 0.723169
0.724701 0.724701 0.724701
0.726221 0.726221 0.726221
0.727729 0.727729 0.727729
0.729222 0.729222 0.729222
0.730705 0.730705 0.730705
0.732175 0.732175 0.732175
0.733633 0.733633 0.733633
0.735080 0.735080 0.735080
0.736515 0.736515 0.736515
0.737938 0.737938 0.737938
0.739351 0.739351 0.739351
0.740752 0.740752 0.740752
0.742142 0.742142 0.742142
0.743522 0.743522 0.743522
0.744890 0.744890 0.744890
0.746249 0.746249 0.746249
0.747598 0.747598 0.747598
0.748935 0.748935 0.748935
0.750264 0.750264 0.750264
0.751581 0.751581 0.751581
0.752890 0.752890 0.752890
0.754188 0.754188 0.754188
0.755478 0.755478 0.755478
0.756758 0.756758 0.756758
0.758029 0.758029 0.758029
0.759290 0.759290 0.759290
0.760543 0.760543 0.760543
0.761786 0.761786 0.761786
0.763022 0.763022 0.763022
0.764248 0.764248 0.764248
0.765466 0.765466 0.765466
0.766675 0.766675 0.766675
0.767877 0.767877 0.767877
0.769069 0.769069 0.769069
0.770254 0.770254 0.770254
0.771431 0.771431 0.771431
0.772599 0.772599 0.772599
0.773761 0.773761 0.773761
0.774914 0.774914 0.774914
0.776060 0.776060 0.776060
0.777198 0.777198 0.777198
0.778329 0.778329 0.778329
0.779452 0.779452 0.779452
0.780568 0.780568 0.780568
0.781678 0.781678 0.781678
0.782779 0.782779 0.782779
0.783874 0.783874 0.783874
0.784963 0.784963 0.784963
0.786043 0.786043 0.786043
0.787118 0.787118 0.787118
0.788186 0.788186 0.788186
0.789247 0.789247 0.789247
0.790302 0.790302 0.790302
0.791350 0.791350 0.791350
0.792391 0.792391 0.792391
0.793427 0.793427 0.793427
0.794456 0.794456 0.794456
0.795478 0.795478 0.795478
0.796496 0.796496 0.796496
0.797506 0.797506 0.797506
0.798511 0.798511 0.798511
0.799510 0.799510 0.799510
0.800503 0.800503 0.800503
0.801490 0.801490 0.801490
0.802472 0.802472 0.802472
0.803448 0.803448 0.803448
0.804418 0.804418 0.804418
0.805381 0.805381 0.805381
0.806337 0.806337 0.806337
0.807284 0.807284 0.807284
0.808224 0.808224 0.808224
0.809156 0.809156 0.809156
0.810079 0.810079 0.810079
0.810995 0.810995 0.810995
0.811905 0.811905 0.811905
0.812806 0.812806 0.812806
0.813699 0.813699 0.813699
0.814586 0.814586 0.814586
0.815466 0.815466 0.815466
0.816338 0.816338 0.816338
0.817203 0.817203 0.817203
0.818062 0.818062 0.818062
0.818913 0.818913 0.818913
0.819758 0.819758 0.819758
0.820596 0.820596 0.820596
0.821428 0.821428 0.821428
0.822253 0.822253 0.822253
0.823071 0.823071 0.823071
0.823883 0.823883 0.823883
0.824690 0.824690 0.824690
0.825489 0.825489 0.825489
0.826283 0.826283 0.826283
0.827070 0.827070 0.827070
0.827851 0.827851 0.827851
0.828627 0.828627 0.828627
0.829397 0.829397 0.829397
0.830161 0.830161 0.830161
0.830919 0.830919 0.830919
0.831671 0.831671 0.831671
0.832418 0.832418 0.832418
0.833160 0.833160 0.833160
0.833895 0.833895 0.833895
0.834625 0.834625 0.834625
0.835350 0.835350 0.835350
0.836071 0.836071 0.836071
0.836785 0.836785 0.836785
0.837494 0.837494 0.837494
0.838198 0.838198 0.838198
0.838897 0.838897 0.838897
0.839592 0.839592 0.839592
0.840281 0.840281 0.840281
0.840965 0.840965 0.840965
0.841644 0.841644 0.841644
0.842319 0.842319 0.842319
0.842988 0.842988 0.842988
0.843654 0.843654 0.843654
0.844315 0.844315 0.844315
0.844970 0.844970 0.844970
0.845621 0.845621 0.845621
0.846268 0.846268 0.846268
0.846910 0.846910 0.846910
0.847548 0.847548 0.847548
0.848182 0.848182 0.848182
0.848811 0.848811 0.848811
0.849436 0.849436 0.849436
0.850056 0.850056 0.850056
0.850673 0.850673 0.850673
0.851285 0.851285 0.851285
0.851893 0.851893 0.851893
0.852497 0.852497 0.852497
0.853097 0.853097 0.853097
0.853693 0.853693 0.853693
0.854285 0.854285 0.854285
0.854873 0.854873 0.854873
0.855457 0.855457 0.855457
0.856038 0.856038 0.856038
0.856614 0.856614 0.856614
0.857188 0.857188 0.857188
0.857757 0.857757 0.857757
0.858322 0.858322 0.858322
0.858884 0.858884 0.858884
0.859442 0.859442 0.859442
0.859997 0.859997 0.859997
0.860547 0.860547 0.860547
0.861095 0.861095 0.861095
0.861639 0.861639 0.861639
0.862180 0.862180 0.862180
0.862717 0.862717 0.862717
0.863251 0.863251 0.863251
0.863781 0.863781 0.863781
0.864308 0.864308 0.864308
0.864832 0.864832 0.864832
0.865352 0.865352 0.865352
0.865869 0.865869 0.865869
0.866383 0.866383 0.866383
0.866894 0.866894 0.866894
0.867402 0.867402 0.867402
0.867907 0.867907 0.867907
0.868409 0.868409 0.868409
0.868907 0.868907 0.868907
0.869402 0.869402 0.869402
0.869895 0.869895 0.869895
0.870384 0.870384 0.870384
0.870871 0.870871 0.870871
0.871354 0.871354 0.871354
0.871835 0.871835 0.871835
0.872312 0.872312 0.872312
0.872787 0.872787 0.872787
0.873260 0.873260 0.873260
0.873729 0.873729 0.873729
0.874196 0.874196 0.874196
0.874659 0.874659 0.874659
0.875121 0.875121 0.875121
0.875579 0.875579 0.875579
0.876034 0.876034 0.876034
0.876487 0.876487 0.876487
0.876938 0.876938 0.876938
0.877385 0.877385 0.877385
0.877830 0.877830 0.877830
0.878273 0.878273 0.878273
0.878713 0.878713 0.878713
0.879151 0.879151 0.879151
0.879585 0.879585 0.879585
0.880018 0.880018 0.880018
0.880449 0.880449 0.880449
0.880876 0.880876 0.880876
0.881302 0.881302 0.881302
0.881724 0.881724 0.881724
0.882145 0.882145 0.882145
0.882563 0.882563 0.882563
0.882978 0.882978 0.882978
0.883392 0.883392 0.883392
0.883803 0.883803 0.883803
0.884211 0.884211 0.884211
0.884618 0.884618 0.884618
0.885022 0.885022 0.885022
0.885424 0.885424 0.885424
0.885824 0.885824 0.885824
0.886222 0.886222 0.886222
0.886618 0.886618 0.886618
0.887011 0.887011 0.887011
0.887402 0.887402 0.887402
0.887791 0.887791 0.887791
0.888178 0.888178 0.888178
0.888563 0.888563 0.888563
0.888946 0.888946 0.888946
0.889326 0.889326 0.889326
0.889705 0.889705 0.889705
0.890082 0.890082 0.890082
0.890456 0.890456 0.890456
0.890829 0.890829 0.890829
0.891199 0.891199 0.891199
0.891568 0.891568 0.891568
0.891935 0.891935 0.891935
0.892299 0.892299 0.892299
0.892662 0.892662 0.892662
0.893023 0.893023 0.893023
0.893382 0.893382 0.893382
0.893740 0.893740 0.893740
0.894095 0.894095 0.894095
0.894448 0.894448 0.894448
0.894800 0.894800 0.894800
0.895149 0.895149 0.895149
0.895498 0.895498 0.895498
0.895844 0.895844 0.895844
0.896189 0.896189 0.896189
0.896531 0.896531 0.896531
0.896872 0.896872 0.896872
0.897212 0.897212 0.897212
0.897549 0.897549 0.897549
0.897885 0.897885 0.897885
0.898219 0.898219 0.898219
0.898551 0.898551 0.898551
0.898881 0.898881 0.898881
0.899211 0.899211 0.899211
0.899538 0.899538 0.899538
0.899864 0.899864 0.899864
0.900188 0.900188 0.900188
0.900510 0.900510 0.900510
0.900831 0.900831 0.900831
0.901150 0.901150 0.901150
0.901468 0.901468 0.901468
0.901784 0.901784 0.901784
0.902099 0.902099 0.902099
0.902412 0.902412 0.902412
0.902723 0.902723 0.902723
0.903033 0.903033 0.903033
0.903342 0.903342 0.903342
0.903648 0.903648 0.903648
0.903954 0.903954 0.903954
0.904258 0.904258 0.904258
0.904560 0.904560 0.904560
0.904861 0.904861 0.904861
0.905161 0.905161 0.905161
0.905459 0.905459 0.905459
0.905756 0.905756 0.905756
0.906051 0.906051 0.906051
0.906345 0.906345 0.906345
0.906637 0.906637 0.906637
0.906928 0.906928 0.906928
0.907217 0.907217 0.907217
0.907506 0.907506 0.907506
0.907793 0.907793 0.907793
0.908079 0.908079 0.908079
0.908363 0.908363 0.908363
0.908646 0.908646 0.908646
0.908927 0.908927 0.908927
0.909207 0.909207 0.909207
0.909486 0.909486 0.909486
0.909764 0.909764 0.909764
0.910040 0.910040 0.910040
0.910315 0.910315 0.910315
0.910589 0.910589 0.910589
0.910862 0.910862 0.910862
0.911133 0.911133 0.911133
0.911403 0.911403 0.911403
0.911671 0.911671 0.911671
0.911939 0.911939 0.911939
0.912205 0.912205 0.912205
0.912470 0.912470 0.912470
0.912734 0.912734 0.912734
0.912997 0.912997 0.912997
0.913258 0.913258 0.913258
0.913518 0.913518 0.913518
0.913777 0.913777 0.913777
0.914035 0.914035 0.914035
0.914292 0.914292 0.914292
0.914547 0.914547 0.914547
0.914802 0.914802 0.914802
0.915055 0.915055 0.915055
0.915307 0.915307 0.915307
0.915558 0.915558 0.915558
0.915808 0.915808 0.915808
0.916057 0.916057 0.916057
0.916305 0.916305 0.916305
0.916551 0.916551 0.916551
0.916797 0.916797 0.916797
0.917041 0.917041 0.917041
0.917284 0.917284 0.917284
0.917527 0.917527 0.917527
0.917768 0.917768 0.917768
0.918008 0.918008 0.918008
0.918247 0.918247 0.918247
0.918485 0.918485 0.918485
0.918722 0.918722 0.918722
0.918958 0.918958 0.918958
0.919193 0.919193 0.919193
0.919427 0.919427 0.919427
0.919659 0.919659 0.919659
0.919892 0.919892 0.919892
0.920123 0.920123 0.920123
0.920352 0.920352 0.920352
0.920581 0.920581 0.920581
0.920809 0.920809 0.920809
0.921036 0.921036 0.921036
0.921262 0.921262 0.921262
0.921487 0.921487 0.921487
0.921711 0.921711 0.921711
0.921934 0.921934 0.921934
0.922156 0.922156 0.922156
0.922377 0.922377 0.922377
0.922598 0.922598 0.922598
0.922817 0.922817 0.922817
0.923036 0.923036 0.923036
0.923253 0.923253 0.923253
0.923470 0.923470 0.923470
0.923685 0.923685 0.923685
0.923900 0.923900 0.923900
0.924114 0.924114 0.924114
0.924327 0.924327 0.924327
0.924539 0.924539 0.924539
0.924750 0.924750 0.924750
0.924960 0.924960 0.924960
0.925170 0.925170 0.925170
0.925378 0.925378 0.925378
0.925586 0.925586 0.925586
0.925793 0.925793 0.925793
0.925999 0.925999 0.925999
0.926204 0.926204 0.926204
0.926409 0.926409 0.926409
0.926613 0.926613 0.926613
0.926815 0.926815 0.926815
0.927017 0.927017 0.927017
0.927218 0.927218 0.927218
0.927418 0.927418 0.927418
0.927617 0.927617 0.927617
0.927816 0.927816 0.927816
0.928014 0.928014 0.928014
0.928211 0.928211 0.928211
0.928407 0.928407 0.928407
0.928602 0.928602 0.928602
0.928797 0.928797 0.928797
0.928990 0.928990 0.928990
0.929183 0.929183 0.929183
0.929376 0.929376 0.929376
0.929567 0.929567 0.929567
0.929758 0.929758 0.929758
0.929948 0.929948 0.929948
0.930138 0.930138 0.930138
0.930326 0.930326 0.930326
0.930514 0.930514 0.930514
0.930701 0.930701 0.930701
0.930887 0.930887 0.930887
0.931073 0.931073 0.931073
0.931257 0.931257 0.931257
0.931441 0.931441 0.931441
0.931625 0.931625 0.931625
0.931807 0.931807 0.931807
0.931989 0.931989 0.931989
0.932170 0.932170 0.932170
0.932351 0.932351 0.932351
0.932530 0.932530 0.932530
0.932710 0.932710 0.932710
0.932888 0.932888 0.932888
0.933066 0.933066 0.933066
0.933243 0.933243 0.933243
0.933419 0.933419 0.933419
0.933594 0.933594 0.933594
0.933769 0.933769 0.933769
0.933944 0.933944 0.933944
0.934118 0.934118 0.934118
0.934291 0.934291 0.934291
0.934463 0.934463 0.934463
0.934635 0.934635 0.934635
0.934806 0.934806 0.934806
0.934976 0.934976 0.934976
0.935146 0.935146 0.935146
0.935315 0.935315 0.935315
0.935483 0.935483 0.935483
0.935651 0.935651 0.935651
0.935818 0.935818 0.935818
0.935985 0.935985 0.935985
0.936150 0.936150 0.936150
0.936316 0.936316 0.936316
0.936480 0.936480 0.936480
0.936644 0.936644 0.936644
0.936808 0.936808 0.936808
0.936970 0.936970 0.936970
0.937132 0.937132 0.937132
0.937294 0.937294 0.937294
0.937455 0.937455 0.937455
0.937615 0.937615 0.937615
0.937775 0.937775 0.937775
0.937934 0.937934 0.937934
0.938093 0.938093 0.938093
0.938251 0.938251 0.938251
0.938408 0.938408 0.938408
0.938566 0.938566 0.938566
0.938722 0.938722 0.938722
0.938878 0.938878 0.938878
0.939033 0.939033 0.939033
0.939187 0.939187 0.939187
0.939341 0.939341 0.939341
0.939495 0.939495 0.939495
0.939648 0.939648 0.939648
0.939800 0.939800 0.939800
0.939952 0.939952 0.939952
0.940103 0.940103 0.940103
0.940253 0.940253 0.940253
0.940403 0.940403 0.940403
0.940553 0.940553 0.940553
0.940702 0.940702 0.940702
0.940850 0.940850 0.940850
0.940998 0.940998 0.940998
0.941146 0.941146 0.941146
0.941293 0.941293 0.941293
0.941439 0.941439 0.941439
0.941585 0.941585 0.941585
0.941730 0.941730 0.941730
0.941875 0.941875 0.941875
0.942019 0.942019 0.942019
0.942163 0.942163 0.942163
0.942306 0.942306 0.942306
0.942449 0.942449 0.942449
0.942591 0.942591 0.942591
0.942733 0.942733 0.942733
0.942874 0.942874 0.942874
0.943015 0.943015 0.943015
0.943155 0.943155 0.943155
0.943295 0.943295 0.943295
0.943434 0.943434 0.943434
0.943573 0.943573 0.943573
0.943711 0.943711 0.943711
0.943849 0.943849 0.943849
0.943986 0.943986 0.943986
0.944123 0.944123 0.944123
0.944259 0.944259 0.944259
0.944395 0.944395 0.944395
0.944531 0.944531 0.944531
0.944666 0.944666 0.944666
0.944800 0.944800 0.944800
0.944934 0.944934 0.944934
0.945068 0.945068 0.945068
0.945201 0.945201 0.945201
0.945333 0.945333 0.945333
0.945466 0.945466 0.945466
0.945597 0.945597 0.945597
0.945728 0.945728 0.945728
0.945859 0.945859 0.945859
0.945989 0.945989 0.945989
0.946119 0.946119 0.946119
0.946249 0.946249 0.946249
0.946378 0.946378 0.946378
0.946506 0.946506 0.946506
0.946634 0.946634 0.946634
0.946762 0.946762 0.946762
0.946889 0.946889 0.946889
0.947016 0.947016 0.947016
0.947142 0.947142 0.947142
0.947268 0.947268 0.947268
0.947394 0.947394 0.947394
0.947519 0.947519 0.947519
0.947644 0.947644 0.947644
0.947768 0.947768 0.947768
0.947892 0.947892 0.947892
0.948015 0.948015 0.948015
0.948138 0.948138 0.948138
0.948261 0.948261 0.948261
0.948383 0.948383 0.948383
0.948505 0.948505 0.948505
0.948627 0.948627 0.948627
0.948747 0.948747 0.948747
0.948868 0.948868 0.948868
0.948988 0.948988 0.948988
0.949108 0.949108 0.949108
0.949227 0.949227 0.949227
0.949346 0.949346 0.949346
0.949465 0.949465 0.949465
0.949583 0.949583 0.949583
0.949701 0.949701 0.949701
0.949818 0.949818 0.949818
0.949935 0.949935 0.949935
0.950051 0.950051 0.950051
0.950168 0.950168 0.950168
0.950283 0.950283 0.950283
0.950399 0.950399 0.950399
0.950515 0.950515 0.950515
0.950630 0.950630 0.950630
0.950744 0.950744 0.950744
0.950858 0.950858 0.950858
0.950971 0.950971 0.950971
0.951085 0.951085 0.951085
0.951197 0.951197 0.951197
0.951310 0.951310 0.951310
0.951422 0.951422 0.951422
0.951534 0.951534 0.951534
0.951645 0.951645 0.951645
0.951756 0.951756 0.951756
0.951867 0.951867 0.951867
0.951977 0.951977 0.951977
0.952087 0.952087 0.952087
0.952197 0.952197 0.952197
0.952306 0.952306 0.952306
0.952415 0.952415 0.952415
0.952523 0.952523 0.952523
0.952632 0.952632 0.952632
0.952739 0.952739 0.952739
0.952847 0.952847 0.952847
0.952954 0.952954 0.952954
0.953061 0.953061 0.953061
0.953168 0.953168 0.953168
0.953274 0.953274 0.953274
0.953380 0.953380 0.953380
0.953485 0.953485 0.953485
0.953590 0.953590 0.953590
0.953695 0.953695 0.953695
0.953800 0.953800 0.953800
0.953904 0.953904 0.953904
0.954008 0.954008 0.954008
0.954111 0.954111 0.954111
0.954214 0.954214 0.954214
0.954317 0.954317 0.954317
0.954420 0.954420 0.954420
0.954522 0.954522 0.954522
0.954624 0.954624 0.954624
0.954726 0.954726 0.954726
0.954827 0.954827 0.954827
0.954928 0.954928 0.954928
0.955028 0.955028 0.955028
0.955129 0.955129 0.955129
0.955229 0.955229 0.955229
0.955328 0.955328 0.955328
0.955428 0.955428 0.955428
0.955527 0.955527 0.955527
0.955625 0.955625 0.955625
0.955724 0.955724 0.955724
0.955822 0.955822 0.955822
0.955920 0.955920 0.955920
0.956017 0.956017 0.956017
0.956114 0.956114 0.956114
0.956211 0.956211 0.956211
0.956308 0.956308 0.956308
0.956404 0.956404 0.956404
0.956500 0.956500 0.956500
0.956596 0.956596 0.956596
0.956691 0.956691 0.956691
0.956787 0.956787 0.956787
0.956882 0.956882 0.956882
0.956976 0.956976 0.956976
0.957070 0.957070 0.957070
0.957165 0.957165 0.957165
0.957259 0.957259 0.957259
0.957352 0.957352 0.957352
0.957446 0.957446 0.957446
0.957538 0.957538 0.957538
0.957631 0.957631 0.957631
0.957723 0.957723 0.957723
0.957815 0.957815 0.957815
0.957907 0.957907 0.957907
0.957998 0.957998 0.957998
0.958090 0.958090 0.958090
0.958180 0.958180 0.958180
0.958271 0.958271 0.958271
0.958361 0.958361 0.958361
0.958452 0.958452 0.958452
0.958541 0.958541 0.958541
0.958631 0.958631 0.958631
0.958720 0.958720 0.958720
0.958809 0.958809 0.958809
0.958898 0.958898 0.958898
0.958986 0.958986 0.958986
0.959075 0.959075 0.959075
0.959163 0.959163 0.959163
0.959250 0.959250 0.959250
0.959338 0.959338 0.959338
0.959425 0.959425 0.959425
0.959512 0.959512 0.959512
0.959599 0.959599 0.959599
0.959685 0.959685 0.959685
0.959771 0.959771 0.959771
0.959857 0.959857 0.959857
0.959943 0.959943 0.959943
0.960028 0.960028 0.960028
0.960113 0.960113 0.960113
0.960198 0.960198 0.960198
0.960283 0.960283 0.960283
0.960367 0.960367 0.960367
0.960451 0.960451 0.960451
0.960535 0.960535 0.960535
0.960619 0.960619 0.960619
0.960703 0.960703 0.960703
0.960786 0.960786 0.960786
0.960869 0.960869 0.960869
0.960952 0.960952 0.960952
0.961034 0.961034 0.961034
0.961116 0.961116 0.961116
0.961198 0.961198 0.961198
0.961280 0.961280 0.961280
0.961362 0.961362 0.961362
0.961443 0.961443 0.961443
0.961524 0.961524 0.961524
0.961605 0.961605 0.961605
0.961685 0.961685 0.961685
0.961766 0.961766 0.961766
0.961846 0.961846 0.961846
0.961925 0.961925 0.961925
0.962005 0.962005 0.962005
0.962084 0.962084 0.962084
0.962164 0.962164 0.962164
0.962243 0.962243 0.962243
0.962321 0.962321 0.962321
0.962400 0.962400 0.962400
0.962478 0.962478 0.962478
0.962556 0.962556 0.962556
0.962634 0.962634 0.962634
0.962711 0.962711 0.962711
0.962789 0.962789 0.962789
0.962866 0.962866 0.962866
0.962943 0.962943 0.962943
0.963020 0.963020 0.963020
0.963096 0.963096 0.963096
0.963172 0.963172 0.963172
0.963248 0.963248 0.963248
0.963324 0.963324 0.963324
0.963400 0.963400 0.963400
0.963475 0.963475 0.963475
0.963550 0.963550 0.963550
0.963625 0.963625 0.963625
0.963700 0.963700 0.963700
0.963775 0.963775 0.963775
0.963849 0.963849 0.963849
0.963923 0.963923 0.963923
0.963997 0.963997 0.963997
0.964071 0.964071 0.964071
0.964145 0.964145 0.964145
0.964218 0.964218 0.964218
0.964291 0.964291 0.964291
0.964364 0.964364 0.964364
0.964437 0.964437 0.964437
0.964509 0.964509 0.964509
0.964582 0.964582 0.964582
0.964654 0.964654 0.964654
0.964726 0.964726 0.964726
0.964798 0.964798 0.964798
0.964869 0.964869 0.964869
0.964940 0.964940 0.964940
0.965012 0.965012 0.965012
0.965083 0.965083 0.965083
0.965154 0.965154 0.965154
0.965224 0.965224 0.965224
0.965295 0.965295 0.965295
0.965365 0.965365 0.965365
0.965435 0.965435 0.965435
0.965504 0.965504 0.965504
0.965574 0.965574 0.965574
0.965643 0.965643 0.965643
0.965712 0.965712 0.965712
0.965781 0.965781 0.965781
0.965850 0.965850 0.965850
0.965919 0.965919 0.965919
0.965987 0.965987 0.965987
0.966055 0.966055 0.966055
0.966123 0.966123 0.966123
0.966191 0.966191 0.966191
0.966259 0.966259 0.966259
0.966327 0.966327 0.966327
0.966394 0.966394 0.966394
0.966461 0.966461 0.966461
0.966528 0.966528 0.966528
0.966595 0.966595 0.966595
0.966661 0.966661 0.966661
0.966728 0.966728 0.966728
0.966794 0.966794 0.966794
0.966860 0.966860 0.966860
0.966926 0.966926 0.966926
0.966991 0.966991 0.966991
0.967057 0.967057 0.967057
0.967122 0.967122 0.967122
0.967187 0.967187 0.967187
0.967252 0.967252 0.967252
0.967317 0.967317 0.967317
0.967382 0.967382 0.967382
0.967446 0.967446 0.967446
0.967511 0.967511 0.967511
0.967575 0.967575 0.967575
0.967639 0.967639 0.967639
0.967702 0.967702 0.967702
0.967766 0.967766 0.967766
0.967829 0.967829 0.967829
0.967893 0.967893 0.967893
0.967956 0.967956 0.967956
0.968019 0.968019 0.968019
0.968081 0.968081 0.968081
0.968144 0.968144 0.968144
0.968206 0.968206 0.968206
0.968269 0.968269 0.968269
0.968331 0.968331 0.968331
0.968393 0.968393 0.968393
0.968454 0.968454 0.968454
0.968516 0.968516 0.968516
0.968577 0.968577 0.968577
0.968639 0.968639 0.968639
0.968700 0.968700 0.968700
0.968761 0.968761 0.968761
0.968822 0.968822 0.968822
0.968882 0.968882 0.968882
0.968943 0.968943 0.968943
0.969003 0.969003 0.969003
0.969063 0.969063 0.969063
0.969123 0.969123 0.969123
0.969184 0.969184 0.969184
0.969243 0.969243 0.969243
0.969303 0.969303 0.969303
0.969362 0.969362 0.969362
0.969422 0.969422 0.969422
0.969481 0.969481 0.969481
0.969539 0.969539 0.969539
0.969598 0.969598 0.969598
0.969657 0.969657 0.969657
0.969715 0.969715 0.969715
0.969774 0.969774 0.969774
0.969832 0.969832 0.969832
0.969890 0.969890 0.969890
0.969948 0.969948 0.969948
0.970005 0.970005 0.970005
0.970063 0.970063 0.970063
0.970120 0.970120 0.970120
0.970177 0.970177 0.970177
0.970234 0.970234 0.970234
0.970291 0.970291 0.970291
0.970348 0.970348 0.970348
